/* XPM */
static char * icewm_xpm[] = {
"52 40 1153 2",
"  	c None",
". 	c #5C6165",
"+ 	c #0B0B0B",
"@ 	c #0C0C0C",
"# 	c #080808",
"$ 	c #070707",
"% 	c #060606",
"& 	c #000001",
"* 	c #000609",
"= 	c #29323A",
"- 	c #3F4B56",
"; 	c #4F5F6C",
"> 	c #4A6071",
", 	c #2B5472",
"' 	c #1C496A",
") 	c #18486C",
"! 	c #124165",
"~ 	c #174466",
"{ 	c #315977",
"] 	c #40637D",
"^ 	c #425E74",
"/ 	c #414E59",
"( 	c #242D36",
"_ 	c #010609",
": 	c #010102",
"< 	c #090909",
"[ 	c #000000",
"} 	c #060708",
"| 	c #31373B",
"1 	c #4C575F",
"2 	c #3A5265",
"3 	c #2A5373",
"4 	c #5383A9",
"5 	c #7EB2DA",
"6 	c #B4CEDF",
"7 	c #BCD6E7",
"8 	c #BFD9EA",
"9 	c #C1DBEC",
"0 	c #B6D0E1",
"a 	c #8FA9BA",
"b 	c #668091",
"c 	c #255273",
"d 	c #3B576A",
"e 	c #4C585F",
"f 	c #303536",
"g 	c #060703",
"h 	c #303136",
"i 	c #46525F",
"j 	c #2D536D",
"k 	c #487A95",
"l 	c #ADCFDB",
"m 	c #D9E4EA",
"n 	c #E9E6F1",
"o 	c #E1D8ED",
"p 	c #CFDEE3",
"q 	c #CAD7E0",
"r 	c #CFD7E4",
"s 	c #D0D3E4",
"t 	c #D0D4E0",
"u 	c #D4DBE3",
"v 	c #D2E0E3",
"w 	c #D7EBEA",
"x 	c #DEE7F0",
"y 	c #AEC6DE",
"z 	c #4B7396",
"A 	c #365470",
"B 	c #48545E",
"C 	c #1F2226",
"D 	c #292F36",
"E 	c #395B63",
"F 	c #42607A",
"G 	c #C0C5EB",
"H 	c #E0DCFD",
"I 	c #CAD0DE",
"J 	c #BFD5D3",
"K 	c #ABCBCA",
"L 	c #B2D5D9",
"M 	c #B6C9D0",
"N 	c #B1C6CB",
"O 	c #B3CBCF",
"P 	c #B2CACE",
"Q 	c #B5C8CF",
"R 	c #B9C7D4",
"S 	c #BAC2D5",
"T 	c #C0C6DE",
"U 	c #B3CDE4",
"V 	c #C6D6E3",
"W 	c #E2EBF4",
"X 	c #B1C4D3",
"Y 	c #41637F",
"Z 	c #425A6E",
"` 	c #2C343B",
" .	c #020100",
"..	c #3D4246",
"+.	c #41576A",
"@.	c #7D91AA",
"#.	c #C8DDF2",
"$.	c #C2D5E6",
"%.	c #B1C1CE",
"&.	c #B7C8D2",
"*.	c #AABAC7",
"=.	c #B0C1D1",
"-.	c #A1B3C9",
";.	c #ACB5D2",
">.	c #A8B4CA",
",.	c #A6B8C6",
"'.	c #A2B9C1",
").	c #A2BAC4",
"!.	c #A4B9CA",
"~.	c #A5B5CC",
"{.	c #ABB7D1",
"].	c #A9BBC7",
"^.	c #B8C6D1",
"/.	c #AFBDC8",
"(.	c #C0D3E1",
"_.	c #C5E0F3",
":.	c #7A96AC",
"<.	c #3E5360",
"[.	c #363F47",
"}.	c #03060B",
"|.	c #040404",
"1.	c #414449",
"2.	c #3A4F63",
"3.	c #98B4CA",
"4.	c #C8D6E3",
"5.	c #A9C0C6",
"6.	c #9EBDBF",
"7.	c #9AB8C0",
"8.	c #9BB2C4",
"9.	c #9CB0CB",
"0.	c #95AECC",
"a.	c #90B2CB",
"b.	c #93ADD0",
"c.	c #92ABC9",
"d.	c #92AAC2",
"e.	c #92ADC2",
"f.	c #90AFC3",
"g.	c #90B1C2",
"h.	c #92AFBD",
"i.	c #95B0B9",
"j.	c #A7B0B5",
"k.	c #96ADBB",
"l.	c #9ABAD1",
"m.	c #A0BBCE",
"n.	c #ACBBC2",
"o.	c #CED9DF",
"p.	c #9BB5C6",
"q.	c #365871",
"r.	c #393F45",
"s.	c #000308",
"t.	c #363B3F",
"u.	c #394A59",
"v.	c #9EC0DB",
"w.	c #B2C8DD",
"x.	c #9BB4BB",
"y.	c #96AFB6",
"z.	c #93ABB7",
"A.	c #8AA5B6",
"B.	c #7D9DB2",
"C.	c #7C9DB0",
"D.	c #78949F",
"E.	c #789094",
"F.	c #798F9C",
"G.	c #7C929D",
"H.	c #7D98A3",
"I.	c #7BA0B2",
"J.	c #7AA7BE",
"K.	c #7CA9C0",
"L.	c #84A5B6",
"M.	c #89A1AB",
"N.	c #84A4BB",
"O.	c #89A5BA",
"P.	c #93AABA",
"Q.	c #96ACBA",
"R.	c #98AEBC",
"S.	c #A0B7C7",
"T.	c #A7C1D2",
"U.	c #A5BFD0",
"V.	c #495864",
"W.	c #222B32",
"X.	c #000002",
"Y.	c #151617",
"Z.	c #425564",
"`.	c #85A7C2",
" +	c #A7BED0",
".+	c #90A9BD",
"++	c #989BBA",
"@+	c #849CB6",
"#+	c #789EB5",
"$+	c #7B98AA",
"%+	c #847E8C",
"&+	c #9A6D72",
"*+	c #A35E59",
"=+	c #A45649",
"-+	c #9D5046",
";+	c #9D5B4D",
">+	c #92685C",
",+	c #837A7B",
"'+	c #768D9F",
")+	c #7398B5",
"!+	c #7E9DBA",
"~+	c #859AB5",
"{+	c #76A3C4",
"]+	c #799BB4",
"^+	c #859CAC",
"/+	c #839AAA",
"(+	c #7F9BB0",
"_+	c #82A1B6",
":+	c #9DB4C6",
"<+	c #AEBFC9",
"[+	c #869FB3",
"}+	c #4B5965",
"|+	c #1B242A",
"1+	c #000103",
"2+	c #03080D",
"3+	c #4C545A",
"4+	c #55758C",
"5+	c #A0BFD4",
"6+	c #8EA1B0",
"7+	c #7F9AAF",
"8+	c #7C90B1",
"9+	c #759CB9",
"0+	c #678BA1",
"a+	c #7E6C7A",
"b+	c #9F3B43",
"c+	c #BE2720",
"d+	c #C6311B",
"e+	c #BA3D1D",
"f+	c #CA391C",
"g+	c #CD411E",
"h+	c #C04823",
"i+	c #A85B41",
"j+	c #8B6F6B",
"k+	c #748191",
"l+	c #7190AC",
"m+	c #6E93AE",
"n+	c #7594B0",
"o+	c #7092AE",
"p+	c #6E91AD",
"q+	c #7E9AB0",
"r+	c #7C92A7",
"s+	c #7F95AA",
"t+	c #859EB2",
"u+	c #A9C8DD",
"v+	c #516B7C",
"w+	c #4B545C",
"x+	c #01070B",
"y+	c #2A3841",
"z+	c #39576D",
"A+	c #A2B8C6",
"B+	c #899CAB",
"C+	c #7591A7",
"D+	c #748B9B",
"E+	c #608F9F",
"F+	c #5E899C",
"G+	c #6E7B8C",
"H+	c #8D5B5E",
"I+	c #AB3323",
"J+	c #D33D1A",
"K+	c #D54D23",
"L+	c #C35A2B",
"M+	c #CF612E",
"N+	c #DF6327",
"O+	c #E15D1C",
"P+	c #CF612C",
"Q+	c #A86B4F",
"R+	c #7E7673",
"S+	c #62848E",
"T+	c #508593",
"U+	c #68829B",
"V+	c #6C8AA6",
"W+	c #6A8BAA",
"X+	c #6184A2",
"Y+	c #6A89A6",
"Z+	c #647F9A",
"`+	c #668097",
" @	c #6F879F",
".@	c #799CB2",
"+@	c #A1BCCF",
"@@	c #465561",
"#@	c #32373A",
"$@	c #020608",
"%@	c #3D5768",
"&@	c #6A8799",
"*@	c #90A1B3",
"=@	c #5F83A5",
"-@	c #69889D",
";@	c #5A7E94",
">@	c #567C93",
",@	c #6385A1",
"'@	c #457987",
")@	c #A84F41",
"!@	c #CC4116",
"~@	c #CD512B",
"{@	c #D96326",
"]@	c #D86B26",
"^@	c #E67927",
"/@	c #CC852B",
"(@	c #D18525",
"_@	c #E47C27",
":@	c #8A7063",
"<@	c #669872",
"[@	c #91B458",
"}@	c #6F8D6B",
"|@	c #587C7A",
"1@	c #57728F",
"2@	c #56708B",
"3@	c #50707F",
"4@	c #4C7480",
"5@	c #406E64",
"6@	c #537F68",
"7@	c #5A7C7B",
"8@	c #66869B",
"9@	c #8EA1AF",
"0@	c #748795",
"a@	c #3E5769",
"b@	c #040402",
"c@	c #020202",
"d@	c #2B3136",
"e@	c #3D5E74",
"f@	c #8BA6B9",
"g@	c #728596",
"h@	c #5F83A3",
"i@	c #527088",
"j@	c #537990",
"k@	c #537EA1",
"l@	c #517295",
"m@	c #4F616B",
"n@	c #B24D3B",
"o@	c #CE5526",
"p@	c #CE6A36",
"q@	c #D9772C",
"r@	c #E48622",
"s@	c #DC8C37",
"t@	c #F18837",
"u@	c #F68D32",
"v@	c #E29231",
"w@	c #5A6B7D",
"x@	c #86A375",
"y@	c #A4BE53",
"z@	c #89BB38",
"A@	c #76A755",
"B@	c #6D995E",
"C@	c #618C57",
"D@	c #578954",
"E@	c #48824F",
"F@	c #3F7D3C",
"G@	c #4F864C",
"H@	c #4B7561",
"I@	c #56798F",
"J@	c #738997",
"K@	c #8DA3B1",
"L@	c #3D5E77",
"M@	c #26292A",
"N@	c #030304",
"O@	c #010001",
"P@	c #434B52",
"Q@	c #446C85",
"R@	c #829DAE",
"S@	c #5A7085",
"T@	c #4B6E8E",
"U@	c #466881",
"V@	c #48748D",
"W@	c #3D768A",
"X@	c #3F6E80",
"Y@	c #776358",
"Z@	c #CD5533",
"`@	c #D66322",
" #	c #E0792C",
".#	c #E4842E",
"+#	c #EC911E",
"@#	c #F19C27",
"##	c #F3AB32",
"$#	c #DFAB3B",
"%#	c #C29142",
"&#	c #516485",
"*#	c #B3C464",
"=#	c #A5CB68",
"-#	c #A1C85E",
";#	c #91C549",
">#	c #84B647",
",#	c #6CA33E",
"'#	c #5E9D44",
")#	c #478F3D",
"!#	c #438C3A",
"~#	c #498454",
"{#	c #3D656F",
"]#	c #4B6F89",
"^#	c #597485",
"/#	c #7D97A8",
"(#	c #436A89",
"_#	c #484D52",
":#	c #000102",
"<#	c #060406",
"[#	c #4D5C68",
"}#	c #678DA4",
"|#	c #658091",
"1#	c #3E6282",
"2#	c #446984",
"3#	c #3A6B89",
"4#	c #397599",
"5#	c #366883",
"6#	c #935A4F",
"7#	c #D6552D",
"8#	c #D76E1B",
"9#	c #E98D28",
"0#	c #E19B3B",
"a#	c #DEAB2C",
"b#	c #E4B52B",
"c#	c #E9B82B",
"d#	c #E9BA38",
"e#	c #90825B",
"f#	c #4F767D",
"g#	c #B9D66A",
"h#	c #ADCE7F",
"i#	c #B3C562",
"j#	c #9FC659",
"k#	c #92BC4E",
"l#	c #7CAC48",
"m#	c #66A24C",
"n#	c #4D9444",
"o#	c #4C934F",
"p#	c #407668",
"q#	c #365A8E",
"r#	c #416A88",
"s#	c #517085",
"t#	c #638297",
"u#	c #6A8FAA",
"v#	c #4D5C65",
"w#	c #04070B",
"x#	c #0E0E10",
"y#	c #435D70",
"z#	c #7298AD",
"A#	c #516E7E",
"B#	c #3F6481",
"C#	c #3E6586",
"D#	c #386584",
"E#	c #316B90",
"F#	c #266F9C",
"G#	c #335D6D",
"H#	c #B35635",
"I#	c #EA6524",
"J#	c #E17F24",
"K#	c #E6952C",
"L#	c #E8A33C",
"M#	c #F6BB33",
"N#	c #F1C91A",
"O#	c #EFC322",
"P#	c #F1C033",
"Q#	c #5C6672",
"R#	c #7B9677",
"S#	c #C2DD8E",
"T#	c #C1D799",
"U#	c #B7CC65",
"V#	c #A9C561",
"W#	c #A1C154",
"X#	c #8EB54A",
"Y#	c #71A541",
"Z#	c #5B9C3E",
"`#	c #529552",
" $	c #346762",
".$	c #385C8C",
"+$	c #366384",
"@$	c #41657F",
"#$	c #4F718A",
"$$	c #7498B2",
"%$	c #445C70",
"&$	c #080E13",
"*$	c #1D1F21",
"=$	c #7399B0",
"-$	c #4F6E80",
";$	c #39678B",
">$	c #3C678A",
",$	c #2C6085",
"'$	c #266993",
")$	c #396192",
"!$	c #605960",
"~$	c #D45739",
"{$	c #D85F30",
"]$	c #B36743",
"^$	c #A2694E",
"/$	c #AA6846",
"($	c #B97230",
"_$	c #D9AA36",
":$	c #F7D037",
"<$	c #DFC534",
"[$	c #334C6B",
"}$	c #B4B57C",
"|$	c #CEDE93",
"1$	c #C3D48E",
"2$	c #B3D28E",
"3$	c #AFC86C",
"4$	c #AAC658",
"5$	c #9BBC49",
"6$	c #7CAB37",
"7$	c #66A33B",
"8$	c #4C8B56",
"9$	c #275C62",
"0$	c #356281",
"a$	c #326489",
"b$	c #3E6785",
"c$	c #486F8C",
"d$	c #7494AD",
"e$	c #345977",
"f$	c #272D32",
"g$	c #313539",
"h$	c #164C73",
"i$	c #5A8399",
"j$	c #4F7286",
"k$	c #386D95",
"l$	c #2E5B82",
"m$	c #205984",
"n$	c #105A89",
"o$	c #165389",
"p$	c #2A4E64",
"q$	c #584B5D",
"r$	c #315259",
"s$	c #1E5A76",
"t$	c #14618D",
"u$	c #215E7B",
"v$	c #1A5865",
"w$	c #324F5D",
"x$	c #866B3E",
"y$	c #897E40",
"z$	c #2D5F66",
"A$	c #C9E2A0",
"B$	c #CFE6A0",
"C$	c #C8D77A",
"D$	c #BCD97F",
"E$	c #AFCD77",
"F$	c #ABC761",
"G$	c #9CBC4D",
"H$	c #86B13D",
"I$	c #6DA54A",
"J$	c #3A7465",
"K$	c #18527A",
"L$	c #1F5A7C",
"M$	c #295F85",
"N$	c #3E6B8C",
"O$	c #487393",
"P$	c #638199",
"Q$	c #16486F",
"R$	c #30383E",
"S$	c #030303",
"T$	c #33383C",
"U$	c #084775",
"V$	c #224C64",
"W$	c #35596F",
"X$	c #104976",
"Y$	c #104169",
"Z$	c #0A4975",
"`$	c #005083",
" %	c #014E7A",
".%	c #09577B",
"+%	c #236FAD",
"@%	c #1994BE",
"#%	c #4EAADD",
"$%	c #6DBAF2",
"%%	c #95C9EE",
"&%	c #95D4FF",
"*%	c #69B7CD",
"=%	c #39608B",
"-%	c #145A98",
";%	c #438083",
">%	c #D7E5A8",
",%	c #C3E0AA",
"'%	c #C7E59B",
")%	c #C6D379",
"!%	c #ACD378",
"~%	c #A7CA62",
"{%	c #9ABC4C",
"]%	c #8CB743",
"^%	c #6DA451",
"/%	c #25616C",
"(%	c #0A4788",
"_%	c #044970",
":%	c #0F466D",
"<%	c #18496A",
"[%	c #2C597A",
"}%	c #2E4D62",
"|%	c #0A4470",
"1%	c #313940",
"2%	c #343B37",
"3%	c #064173",
"4%	c #063664",
"5%	c #01355A",
"6%	c #003A66",
"7%	c #094375",
"8%	c #044F89",
"9%	c #00517E",
"0%	c #01547E",
"a%	c #1C86B6",
"b%	c #1392C7",
"c%	c #269AD3",
"d%	c #59ABDD",
"e%	c #9BC7E2",
"f%	c #A8D8EC",
"g%	c #B8DDED",
"h%	c #C8E8FF",
"i%	c #106493",
"j%	c #29678C",
"k%	c #2B7C69",
"l%	c #A9BD80",
"m%	c #BFDCAE",
"n%	c #C5E17D",
"o%	c #BAD382",
"p%	c #A8CC60",
"q%	c #8CC753",
"r%	c #65A64C",
"s%	c #4C7749",
"t%	c #0A597A",
"u%	c #11527A",
"v%	c #004B80",
"w%	c #04436C",
"x%	c #003E6B",
"y%	c #09334C",
"z%	c #003A69",
"A%	c #0A4276",
"B%	c #38393E",
"C%	c #282E2D",
"D%	c #104973",
"E%	c #043A68",
"F%	c #02365D",
"G%	c #01406C",
"H%	c #064473",
"I%	c #004C82",
"J%	c #05527E",
"K%	c #115F90",
"L%	c #1D82B8",
"M%	c #138EC9",
"N%	c #289AD6",
"O%	c #59ACE2",
"P%	c #7EB3DF",
"Q%	c #98C3E3",
"R%	c #A9D5EE",
"S%	c #B7E6F6",
"T%	c #90BDD2",
"U%	c #357380",
"V%	c #9FB0A0",
"W%	c #436F8C",
"X%	c #285B78",
"Y%	c #2D6C7E",
"Z%	c #3F8153",
"`%	c #528272",
" &	c #42716B",
".&	c #2E6067",
"+&	c #2F5E68",
"@&	c #1D576B",
"#&	c #004F82",
"$&	c #185280",
"%&	c #104E8B",
"&&	c #074471",
"*&	c #00406D",
"=&	c #063853",
"-&	c #003D6B",
";&	c #0F4572",
">&	c #33363A",
",&	c #111718",
"'&	c #275B7C",
")&	c #00416B",
"!&	c #043963",
"~&	c #094470",
"{&	c #024975",
"]&	c #004F7F",
"^&	c #074E78",
"/&	c #206CA8",
"(&	c #187CB8",
"_&	c #1088C5",
":&	c #2195D0",
"<&	c #4BA6DD",
"[&	c #70AEDD",
"}&	c #8CB9E0",
"|&	c #A3CCEC",
"1&	c #B4DBFA",
"2&	c #528BB6",
"3&	c #49747B",
"4&	c #FFF6A8",
"5&	c #F7EBAF",
"6&	c #B2C293",
"7&	c #788691",
"8&	c #52788F",
"9&	c #457174",
"0&	c #6B7E68",
"a&	c #9A8B52",
"b&	c #C29B4C",
"c&	c #6D8671",
"d&	c #17637D",
"e&	c #065A7E",
"f&	c #005481",
"g&	c #094675",
"h&	c #004370",
"i&	c #023D5D",
"j&	c #00426C",
"k&	c #2A587A",
"l&	c #1B2026",
"m&	c #0B0E13",
"n&	c #3B6278",
"o&	c #004670",
"p&	c #023B68",
"q&	c #09426D",
"r&	c #025077",
"s&	c #025581",
"t&	c #0A4D78",
"u&	c #2578BC",
"v&	c #157BBD",
"w&	c #0F8AC6",
"x&	c #1792CD",
"y&	c #359ED5",
"z&	c #5AAADB",
"A&	c #76B3DF",
"B&	c #90C4EB",
"C&	c #94CEF4",
"D&	c #367989",
"E&	c #9A956B",
"F&	c #FFE4A9",
"G&	c #F8DD9A",
"H&	c #F7E293",
"I&	c #FFD68B",
"J&	c #F0DD65",
"K&	c #F6D552",
"L&	c #FBD238",
"M&	c #FEC51C",
"N&	c #E4AE2A",
"O&	c #437A81",
"P&	c #0157A0",
"Q&	c #065598",
"R&	c #0C5582",
"S&	c #09477A",
"T&	c #034673",
"U&	c #003F64",
"V&	c #01466F",
"W&	c #40637A",
"X&	c #090D13",
"Y&	c #030308",
"Z&	c #48606D",
"`&	c #003B6A",
" *	c #07426C",
".*	c #015079",
"+*	c #01527D",
"@*	c #155885",
"#*	c #1776BA",
"$*	c #0C78B8",
"%*	c #0D88C3",
"&*	c #0F8EC5",
"**	c #1F97CC",
"=*	c #40A4D6",
"-*	c #59ABDA",
";*	c #72B9E5",
">*	c #75AEE5",
",*	c #27718C",
"'*	c #DCC774",
")*	c #F5E0A1",
"!*	c #E8DC76",
"~*	c #F4E17A",
"{*	c #FBD96E",
"]*	c #F6DA4A",
"^*	c #F8DC3A",
"/*	c #F6C82A",
"(*	c #FFB524",
"_*	c #C29037",
":*	c #1F6587",
"<*	c #0261A3",
"[*	c #03609D",
"}*	c #015584",
"|*	c #08477C",
"1*	c #054670",
"2*	c #08496F",
"3*	c #4C626F",
"4*	c #020609",
"5*	c #414A51",
"6*	c #14537E",
"7*	c #004071",
"8*	c #06456E",
"9*	c #004C78",
"0*	c #004D79",
"a*	c #226A9A",
"b*	c #076CB0",
"c*	c #0973B1",
"d*	c #1083BA",
"e*	c #0F88BF",
"f*	c #1490C6",
"g*	c #289BD2",
"h*	c #3DA2D6",
"i*	c #53AEDD",
"j*	c #518DB2",
"k*	c #30778B",
"l*	c #EDE06E",
"m*	c #F6D67F",
"n*	c #FFD978",
"o*	c #FBDA7D",
"p*	c #EFD55C",
"q*	c #F2D845",
"r*	c #F9CB20",
"s*	c #F7BB1F",
"t*	c #F5B136",
"u*	c #888A62",
"v*	c #01699C",
"w*	c #046EAA",
"x*	c #0A659A",
"y*	c #05558A",
"z*	c #044A7E",
"A*	c #06466C",
"B*	c #004877",
"C*	c #124D6F",
"D*	c #414A52",
"E*	c #1F1E21",
"F*	c #315B7C",
"G*	c #014D7E",
"H*	c #03476E",
"I*	c #024C7B",
"J*	c #064D7B",
"K*	c #2575A6",
"L*	c #0568AB",
"M*	c #0C6EAB",
"N*	c #1477AE",
"O*	c #137EB6",
"P*	c #1084BF",
"Q*	c #148AC7",
"R*	c #2695CD",
"S*	c #3AA2D7",
"T*	c #298199",
"U*	c #6D8865",
"V*	c #FFDE64",
"W*	c #FFD45C",
"X*	c #F7CB50",
"Y*	c #EED34E",
"Z*	c #FFD242",
"`*	c #FFC131",
" =	c #FFB83D",
".=	c #FFAB2B",
"+=	c #E49C2E",
"@=	c #527F7A",
"#=	c #0071AF",
"$=	c #0B6FAA",
"%=	c #0E6291",
"&=	c #024E7F",
"*=	c #074669",
"==	c #005284",
"-=	c #345A75",
";=	c #1C1E21",
">=	c #0E0607",
",=	c #39556E",
"'=	c #09598A",
")=	c #00486E",
"!=	c #074D80",
"~=	c #115385",
"{=	c #2177AA",
"]=	c #0A64A0",
"^=	c #0D649A",
"/=	c #096AA1",
"(=	c #0270AD",
"_=	c #0073B3",
":=	c #0D7FBD",
"<=	c #258FC9",
"[=	c #2A73A8",
"}=	c #BEB045",
"|=	c #F9D83D",
"1=	c #F7CE34",
"2=	c #FAD44B",
"3=	c #F4CF38",
"4=	c #FFBA2A",
"5=	c #EDC225",
"6=	c #EEB51D",
"7=	c #F5AB16",
"8=	c #CD8F20",
"9=	c #317A8D",
"0=	c #0A77BA",
"a=	c #106AA6",
"b=	c #0F608F",
"c=	c #025E91",
"d=	c #035181",
"e=	c #074667",
"f=	c #085A8C",
"g=	c #3E586A",
"h=	c #0C0709",
"i=	c #010101",
"j=	c #333742",
"k=	c #31597C",
"l=	c #065887",
"m=	c #00537C",
"n=	c #085283",
"o=	c #0D5190",
"p=	c #176394",
"q=	c #126DA4",
"r=	c #0A7BB7",
"s=	c #0A86C4",
"t=	c #0D8AC2",
"u=	c #0A82B6",
"v=	c #097DB0",
"w=	c #0D7FB3",
"x=	c #377CA5",
"y=	c #E3C83B",
"z=	c #FFCE0D",
"A=	c #EBC131",
"B=	c #F8C327",
"C=	c #F7BC20",
"D=	c #ECB93A",
"E=	c #ECAF20",
"F=	c #F1A019",
"G=	c #F9990F",
"H=	c #AA8453",
"I=	c #256D9F",
"J=	c #017CB8",
"K=	c #0D77AB",
"L=	c #0B619C",
"M=	c #04578B",
"N=	c #004E84",
"O=	c #00598B",
"P=	c #295C76",
"Q=	c #35393E",
"R=	c #03030C",
"S=	c #435360",
"T=	c #13547A",
"U=	c #005989",
"V=	c #00568B",
"W=	c #1A679B",
"X=	c #0B6C9F",
"Y=	c #0F7CB5",
"Z=	c #0E8ACA",
"`=	c #0D8ED0",
" -	c #1193D1",
".-	c #1593D0",
"+-	c #1391CE",
"@-	c #1090D1",
"#-	c #2882A4",
"$-	c #A5A14A",
"%-	c #ECAF19",
"&-	c #FDB62A",
"*-	c #FFAE20",
"=-	c #FFA218",
"--	c #FBA629",
";-	c #F59D17",
">-	c #EE9B25",
",-	c #D79729",
"'-	c #748269",
")-	c #177DBB",
"!-	c #0783C3",
"~-	c #076B9F",
"{-	c #10659B",
"]-	c #095C86",
"^-	c #035B8D",
"/-	c #185981",
"(-	c #435561",
"_-	c #020607",
":-	c #1A1D21",
"<-	c #405C6E",
"[-	c #12699E",
"}-	c #006198",
"|-	c #006289",
"1-	c #0B75A9",
"2-	c #0D80B9",
"3-	c #0A86C6",
"4-	c #0A8ACB",
"5-	c #139BD7",
"6-	c #0D9FDB",
"7-	c #07A1DF",
"8-	c #03A4DA",
"9-	c #198FAB",
"0-	c #448879",
"a-	c #82935C",
"b-	c #BA9344",
"c-	c #D99236",
"d-	c #D2963E",
"e-	c #B19043",
"f-	c #7F8466",
"g-	c #4C775C",
"h-	c #1D85A2",
"i-	c #0080CB",
"j-	c #087CB9",
"k-	c #0E73A1",
"l-	c #006194",
"m-	c #025D89",
"n-	c #105E8C",
"o-	c #475E71",
"p-	c #121318",
"q-	c #313A42",
"r-	c #2C5776",
"s-	c #1874A3",
"t-	c #026F98",
"u-	c #0B70A6",
"v-	c #0D7AB5",
"w-	c #1285C4",
"x-	c #1792CE",
"y-	c #1699D1",
"z-	c #0C9CCE",
"A-	c #04A4D6",
"B-	c #03B1E4",
"C-	c #01BBEA",
"D-	c #00B9F3",
"E-	c #0CB2E6",
"F-	c #13A5CA",
"G-	c #0F9EC0",
"H-	c #1294B8",
"I-	c #138DB4",
"J-	c #0B92C1",
"K-	c #0B8DBF",
"L-	c #1C8EC4",
"M-	c #0C8DD1",
"N-	c #008FCE",
"O-	c #1085B0",
"P-	c #1671A0",
"Q-	c #0E6EAB",
"R-	c #016FA2",
"S-	c #39627C",
"T-	c #2B3239",
"U-	c #394049",
"V-	c #305F78",
"W-	c #147AAA",
"X-	c #0D7CB3",
"Y-	c #0A80BD",
"Z-	c #0986C8",
"`-	c #0B91D0",
" ;	c #119CD5",
".;	c #0DA3D6",
"+;	c #08AEDE",
"@;	c #0ABAEB",
"#;	c #18BCE2",
"$;	c #08C9EA",
"%;	c #0CC5F1",
"&;	c #0BBDED",
"*;	c #02CAEE",
"=;	c #09C6EC",
"-;	c #0EAEE0",
";;	c #0CAADA",
">;	c #0CA0DE",
",;	c #0E90CE",
"';	c #1387C0",
");	c #107BA7",
"!;	c #087BA8",
"~;	c #1076A7",
"{;	c #306489",
"];	c #343D46",
"^;	c #000406",
"/;	c #040000",
"(;	c #334049",
"_;	c #2C6281",
":;	c #0F7EAC",
"<;	c #1089C0",
"[;	c #0892D0",
"};	c #0295D8",
"|;	c #059FDD",
"1;	c #0CABE3",
"2;	c #0FB6ED",
"3;	c #0FBCF4",
"4;	c #1BC1F3",
"5;	c #07CEED",
"6;	c #09D2FC",
"7;	c #0BCEFA",
"8;	c #02D0E5",
"9;	c #0AC9E5",
"0;	c #12BCF0",
"a;	c #07BBEE",
"b;	c #0BA5D9",
"c;	c #11A3DE",
"d;	c #0C99DE",
"e;	c #0987D1",
"f;	c #188AC9",
"g;	c #1686AE",
"h;	c #296171",
"i;	c #3E3D45",
"j;	c #020204",
"k;	c #29333B",
"l;	c #396073",
"m;	c #237398",
"n;	c #1F91C3",
"o;	c #14A1D9",
"p;	c #0BAAE1",
"q;	c #0AB1E5",
"r;	c #0CBCED",
"s;	c #11C5F6",
"t;	c #0AD2FF",
"u;	c #0CD4F6",
"v;	c #15D7F3",
"w;	c #16DEF7",
"x;	c #06DCF4",
"y;	c #09CFFC",
"z;	c #13C3F5",
"A;	c #0EBBD9",
"B;	c #00B8E7",
"C;	c #109BE0",
"D;	c #1898E1",
"E;	c #15A4DE",
"F;	c #0A6F9D",
"G;	c #425C6F",
"H;	c #2D3236",
"I;	c #010000",
"J;	c #261F25",
"K;	c #42515A",
"L;	c #2A6983",
"M;	c #0D87B0",
"N;	c #11AAD3",
"O;	c #0FBDE2",
"P;	c #0BC6E7",
"Q;	c #0BCCED",
"R;	c #0DD6EA",
"S;	c #0AD9FF",
"T;	c #00D9FF",
"U;	c #00E3FB",
"V;	c #02DDFB",
"W;	c #0FCDFF",
"X;	c #14CAFA",
"Y;	c #03C8E8",
"Z;	c #12B7E5",
"`;	c #1EB1DD",
" >	c #0887A8",
".>	c #256478",
"+>	c #4C535C",
"@>	c #211F1C",
"#>	c #060409",
"$>	c #31343B",
"%>	c #475863",
"&>	c #2E6175",
"*>	c #077292",
"=>	c #089EC3",
"->	c #0EBEE7",
";>	c #08D8F4",
">>	c #06E0FC",
",>	c #00E3FF",
"'>	c #02E9FF",
")>	c #05E2FF",
"!>	c #09D0ED",
"~>	c #11BEDC",
"{>	c #05A0BE",
"]>	c #0E7095",
"^>	c #2F5E79",
"/>	c #4B5564",
"(>	c #37353B",
"_>	c #060306",
":>	c #2F2E36",
"<>	c #434A53",
"[>	c #4C5C6B",
"}>	c #455E72",
"|>	c #28617E",
"1>	c #1D6282",
"2>	c #0F6186",
"3>	c #0B5E81",
"4>	c #186182",
"5>	c #316584",
"6>	c #42617C",
"7>	c #4A5D74",
"8>	c #3E4B4F",
"9>	c #272C32",
"0>	c #040209",
"a>	c #0C0D0D",
"b>	c #18191C",
"c>	c #1C1F21",
"d>	c #363A3B",
"e>	c #373C3C",
"f>	c #212326",
"g>	c #121216",
"h>	c #0D0B0D",
"i>	c #060204",
"j>	c #000100",
". . . . . . . . . . . . . . . . . . . . . . . . . . . . . . . . . . . . . . . . . . . . . . . . . . . . ",
"+ + + @ + + + + + + + + + + + + + + + + + + + + + + + + + + + + + + + + @ + + + + + @ + + + + @ + + + + ",
"# $ $ $ % $ $ % # $ $ $ % $ # $ $ & * = - ; > , ' ) ! ~ { ] ^ / ( _ : $ $ % $ # $ $ $ % # $ $ $ % $ $ % ",
"< $ $ $ % $ $ % < $ $ $ % $ < [ } | 1 2 3 4 5 6 7 8 8 9 0 a b c d e f g [ % $ < $ $ $ % < $ $ $ % $ $ % ",
"# # $ $ # $ $ % # # $ $ # $ [ h i j k l m n o p q r s t u v w x y z A B C [ $ # # $ $ # # # $ $ # $ $ % ",
"# # # $ # $ $ $ # # # $ % [ D E F G H I J K L M N O P Q R S T U V W X Y Z `  .% # # $ # # # # $ # $ $ $ ",
"# $ $ # # $ $ % # $ $ % & ..+.@.#.$.%.&.*.=.-.;.>.,.'.).!.~.{.].^./.(._.:.<.[.}.|.$ # # # $ $ # # $ $ % ",
"# % $ # $ $ % % # % $ [ 1.2.3.4.5.6.7.8.9.0.a.b.c.d.e.f.g.h.i.j.k.l.m.n.o.p.q.r.s.$ # $ # % $ # $ $ % % ",
"# # # $ $ % % % # # [ t.u.v.w.x.y.z.A.B.C.D.E.F.G.H.I.J.K.L.M.N.O.P.Q.R.S.T.U.V.W.X.$ $ # # # $ $ % % % ",
"$ # $ $ $ % % % $ [ Y.Z.`. +.+++@+#+$+%+&+*+=+-+;+>+,+'+)+!+~+{+]+^+/+(+_+:+<+[+}+|+1+$ $ # $ $ $ % % % ",
"$ # $ $ $ % % % $ 2+3+4+5+6+7+8+9+0+a+b+c+d+e+f+g+h+i+j+k+l+m+n+o+p+l+q+r+s+t+u+v+w+x+$ $ # $ $ $ % % % ",
"$ # # $ % % % % [ y+z+A+B+C+D+E+F+G+H+I+J+K+L+M+N+O+P+Q+R+S+T+U+V+W+X+Y+Z+`+ @.@+@@@#@[ $ # # $ % % % % ",
"$ $ $ % % % % |.$@%@&@*@=@-@;@>@,@'@)@!@~@{@]@^@/@(@_@:@<@[@}@|@1@2@3@4@5@6@7@8@9@0@a@b@$ $ $ % % % % |.",
"# % $ % % $ $ c@d@e@f@g@h@i@j@k@l@m@n@o@p@q@r@s@t@u@v@w@x@y@z@A@B@C@D@E@F@G@H@I@J@K@L@M@N@% $ % % $ $ % ",
"$ $ % % % % % O@P@Q@R@S@T@U@V@W@X@Y@Z@`@ #.#+#@###$#%#&#*#=#-#;#>#,#'#)#!#~#{#]#^#/#(#_#:#$ % % % % % |.",
"$ $ % % % |.|.<#[#}#|#i@1#2#3#4#5#6#7#8#9#0#a#b#c#d#e#f#g#h#i#j#k#l#m#n#o#p#q#r#s#t#u#v#w#$ % % % |.|.|.",
"$ % % % % |.|.x#y#z#A#B#C#D#E#F#G#H#I#J#K#L#M#N#O#P#Q#R#S#T#U#V#W#X#Y#Z#`# $.$+$@$#$$$%$&$% % % % |.|.|.",
"% % % $ % |.|.*${ =$-$;$>$,$'$)$!$~${$]$^$/$($_$:$<$[$}$|$1$2$3$4$5$6$7$8$9$0$a$b$c$d$e$f$% % $ % |.|.|.",
"% % % % |.|.|.g$h$i$j$k$l$m$n$o$p$q$r$s$t$u$v$w$x$y$z$A$B$C$D$E$F$G$H$I$J$K$L$M$N$O$P$Q$R$% % % |.|.|.S$",
"% % % |.|.% % T$U$V$W$X$Y$Z$`$ %.%+%@%#%$%%%&%*%=%-%;%>%,%'%)%!%~%{%]%^%/%(%_%:%<%[%}%|%1%% % |.|.% % |.",
"% % % |.|.% % 2%3%4%5%6%7%8%9%0%a%b%c%d%5 e%f%g%h%i%j%k%l%m%n%o%p%q%r%s%t%u%v%w%x%y%z%A%B%% % |.|.% % |.",
"% % |.|.|.|.|.C%D%E%F%G%H%I%J%K%L%M%N%O%P%Q%R%S%T%U%V%W%X%Y%Z%`% &.&+&@&#&$&%&&&*&=&-&;&>&% |.|.|.|.|.S$",
"% |.|.|.|.S$S$,&'&)&!&~&{&]&^&/&(&_&:&<&[&}&|&1&2&3&4&5&6&7&8&9&0&a&b&c&d&e&f&g&h&i&j&k&l&|.|.|.|.S$S$S$",
"|.|.|.% |.S$S$m&n&o&p&q&r&s&t&u&v&w&x&y&z&A&B&C&D&E&F&G&H&I&J&K&L&M&N&O&P&Q&R&S&T&U&V&W&X&|.|.% |.S$S$S$",
"|.|.|.|.S$S$S$Y&Z&^&`& *.*+*@*#*$*%*&***=*-*;*>*,*'*)*!*~*{*]*^*/*(*_*:*<*[*}*|*1*)&2*3*4*|.|.|.S$S$S$c@",
"|.|.|.S$S$S$S$[ 5*6*7*8*9*0*a*b*c*d*e*f*g*h*i*j*k*l*m*n*o*p*q*r*s*t*u*v*w*x*y*z*A*B*C*D*1+|.|.S$S$S$S$c@",
"|.|.S$S$S$c@c@[ E*F*G*H*I*J*K*L*M*N*O*P*Q*R*S*T*U*V*W*X*Y*Z*`* =.=+=@=#=$=%=s&&=*===-=;=: |.S$S$S$c@c@c@",
"|.S$S$S$S$c@c@c@>=,='=)=!=~={=<*]=^=/=(=_=:=<=[=}=|=1=2=3=4=5=6=7=8=9=0=a=b=c=d=e=f=g=h=|.S$S$S$S$c@c@c@",
"S$S$S$S$c@c@c@i=[ j=k=l=m=n=o=p=q=r=s=t=u=v=w=x=y=z=A=B=C=D=E=F=G=H=I=J=K=L=M=N=O=P=Q=[ S$S$S$S$c@c@c@i=",
"S$S$S$c@c@c@c@i=S$R=S=T=U=V=W=X=Y=Z=`= -.-+-@-#-$-%-&-*-=---;->-,-'-)-!-~-{-]-^-/-(-_-c@S$S$S$c@c@c@c@i=",
"S$S$S$c@c@c@c@i=S$[ :-<-[-}-|-1-2-3-4- -5-6-7-8-9-0-a-b-c-d-e-f-g-h-i-j-k-l-m-n-o-p-[ c@S$S$S$c@c@c@c@i=",
"S$c@c@c@c@i=i=[ S$c@[ q-r-s-t-u-v-w-x-y-z-A-B-C-D-E-F-G-H-I-J-K-L-M-N-O-P-Q-R-S-T-[ c@c@S$c@c@c@c@i=i=[ ",
"c@c@c@c@i=i=[ i=c@c@c@X.U-V-W-X-Y-Z-`- ;.;+;@;#;$;%;&;*;=;-;;;>;5-,;';);!;~;{;];^;c@c@i=c@c@c@c@i=i=[ i=",
"c@c@c@i=[ [ [ c@c@c@c@[ /;(;_;:;<;[;};|;1;2;3;4;5;6;7;8;9;0;a;b;c;d;e;f;g;h;i;j;[ c@i=[ c@c@c@i=[ [ [ c@",
"c@c@i=i=i=c@c@i=c@c@i=i=[ X.k;l;m;n;o;p;q;r;s;t;u;v;w;x;y;z;A;B;C;D;E;F;G;H;[ [ c@i=i=i=c@c@i=i=i=c@c@i=",
"c@i=i=i=i=c@c@c@c@i=i=i=i=c@I;J;K;L;M;N;O;P;Q;R;S;T;U;V;W;X;Y;Z;`; >.>+>@>[ c@c@i=i=i=i=c@i=i=i=i=c@c@c@",
"[ [ [ i=c@i=i=c@[ [ [ i=c@i=[ [ #>$>%>&>*>=>->;>>>,>'>)>!>~>{>]>^>/>(>|.[ c@i=[ [ [ i=c@[ [ [ i=c@i=i=c@",
"i=i=i=c@c@S$S$c@i=i=i=c@c@S$i=i=i=[ _>:><>[>}>|>1>2>3>4>5>6>7>8>9>0>[ i=c@c@S$i=i=i=c@c@i=i=i=c@c@S$S$c@",
"c@c@c@c@S$|.S$S$c@c@c@c@S$|.c@c@c@c@S$i=[ c@a>b>c>d>e>f>g>h>i>[ j>c@c@c@c@S$|.c@c@c@c@S$c@c@c@c@S$|.S$S$",
"c@S$c@S$S$S$S$|.c@S$c@S$S$S$c@S$c@S$S$S$S$c@S$c@S$S$S$S$c@S$c@S$S$c@S$c@S$S$S$c@S$c@S$S$c@S$c@S$S$S$S$|."};
