/* XPM */
static char *taskbarbg[] = {
/* columns rows colors chars-per-pixel */
"1280 36 9 1",
"  c #020202020202",
". c #060606060606",
"X c #090909090909",
"o c #111111111111",
"O c #161616161616",
"+ c #171717171717",
"@ c #1D1D1D1D1D1D",
"# c #222222222222",
"$ c #282828282828",
/* pixels */
"#####@######@##@@@@@@@@#@#@@#@@@@@@@@@@@@@@@@@@#######@###############@######$@$@#$@#####$$#$##$###@########################@#####@@#@@#@@#@@@@@@@@@@@@@@@@@@@@@@@@@@@@@@@@@@@@@@@@@@@@@@@@@@@@@@@@@@@#@@@@@##@@@@@@@#@@@#@@@#@@@@@@##@@@@@@@@@@@#@#@#@##@#@#@#@@@#@#@@#@@@@@@@@@@@@@@@@@@@#@@@@#@@@@@#@#@@@###@@##@#####################@$##@##$######@$#$##@$#@#@#$#$####$$######$#@########@###@@@@#@@##@######@#@##@@@@@@#@@@#@@@@@@@@@@@@@@@@@@@@@@@@@@@@@@@@@@@@@@@@@@@@@@@@@@@@@@@@@@@@@@@@@@@@@@@@@@@@@@#@@@@#@@@@@@@@@@@#@@#@#@@@#@@#@#####@###########@####$#@#####$##@$####@##@$@$@##$#$#$###$##$#$@$##$@##@#$#$##@##########@@#@####@#@#@@@@@@@@@@@@@@@#@@#@@@#@##@#@###@########$###$@##@$@$##$##@$##$@$#@#$#$##$@#$#@$@#$@#####@#############@@@@#@@##+@@@@@@@@@@@@@@##@@###@#########@##@###$###$@###$##$##@$####@###$###@@$@#$@#$##@###@###@#######@@##@@@@@@@@@@@@@@@@@@@@@#@############$###@$$#@#$##$#$$#@$$@$$$@$$@$$$#$$#$$$$#$#$$#$##$$#$$$$#$@$$$#$$#$##$@##$#@#$#######$@#$###@#####@@#@#@@@@#@@@#@@@@+@@@@@@@@@@@@@#@######@#######$@##$##$#$#@$##$$##$@$###$#$$$#@$$#$$#$$$#$#$$$$#$$#$$$#$$$$$$#$$#$$$$##$$##$#$$#$$#$@###$#@##@###@############@#@@@@@@@@@@@@@@@@@@@@################$@##$#$$#$$$@$##$$$##$$#$$$$#$$$$$$$$$$$$$$$$$$$$$$$$$$$$#$$$#$$#$$#$$#$####$##$#@###@O..X......  .    .   ...X",
"XXoXXoX..XXX.XXX.XX..X.. .   .   .. X .X...XXX.X...XXXXXXXXXXXXXXoXoXXooXoOXoXoXooXoXXXoXXXooXXoXXoXoXXooXXoXXXXXXXXXXXXXX.X.XX.X..X..X...X....X........ .... .. . .   .            .  ..  .. .. ....  . . .. ...............XX.X.X..X...XX.XXX.X....XX....XX..X..... ........... .  ..   . . . ...............X.XXXXXXXXoXXXXXXoXXXXoXXXoXXXOXoXooXoXoOoXXoXoOXOXOXXOXoXXoXXoXXXooXXoXooXoXXoXXoXoXXoXXXooX..X.X.X...XXX..X...........X..... . .... ....  ..  .  ...   .    .. . . .     .  .. .  . ..  .. . .  . .. ...... ...........X..Xo.X.X.X.XXXXXXXXXXXXXXXoXXXooXoXoXXooooXooooOooooOoXooooXooOooooOXoXoXoooOXooXoXOXXoXoXXXXoXXXoXX..XX.X.......... ..  ..X .....X.XXXXXXXXXoXXXoXXXoXXooooOoooOooooooooooooooooooooXoXOooooXooXXOXoXooXXX.Xo.XXXX........ .. . . ...X..X.XXXXXXXXXXXooXXooXXOoOXooooooOooooooOooOooOooOoOooOoooOooooXooXOXXXOXXoooXXoXXXXXX.X...X ...... .. ...X..XX..XXXXXXXXXXXoXooXOoooOoooooooOooooOoOOOOoOOooOoOoOOOOOOOOOOOOooOoOOoOOooOooooooOooooOoOooXOoXooXoXXooXoXXXXXXoXXXXX...X..  ...   .. X .X..X..X..XX.XoXXXXoXXXoXoXXOXOXXoooooooOooOOoooOOoOOooOoOOOoOOoOOOOoO+OOOoOO+OOoO+oo+OOoOOoOOOoOOoOooOooOooooooooOoOXoooXoXoXX.XXXXX.X..X..... .. ............XXXXXXXoXXoXoooooooooooOoOoOOOo++O+OO++++OO++O+O++++++++++O+OO+OOO++OOOOooOOooooooOoooooooXXooXXXoXoXX...... .  .    .... .",
"XoXXXXX.X.XXX............ ..           .. ......X.X.X.X.XXXXXXXXXXXooXXXXoXXoXXXXoXXoXoXXoXoXXXXooXXXoXXXXXXXXXXXXoXXXX..X.................  .....   .                                     .         .. . ....  .. .............X...X.X..XX...X........X.X..X............ .. ......  .     .   . .  ..... ......X...XX...X.XXXXoXXXoXXXXoXoXXXXoooXXXoXXoXXoXooXXXXoXXoooXXoXooXXXoXoXXXoXXXXXXXXXXXXX.o.XXXXXXX.XXX................ ... .. .....      .     . . . .   . . .  .           .                      . ...  . . .. .........X....X..X.X.XX.XX.XXXoXXXXXoXoXoXXXoXOXoXXXooooXXooXXXoooXooXoXXXXoXXOXOXoXoooXXXXoXXXXXoXXoXoXXX.X.X..X...... ..        .  .... .X..X.XXXX.XoXXXooXoXXoXoXXoXOXoXoXXoooooXoXooooo.oooXoXoXooXoooXXXXXXoXXX.X..X.X.......  ...    .  .......X...XXXXXXXXXXXXoXoXXXooXOXOXooooOoooooooooXooOoOoXOoooooXooOXoXXOXooXXXoXXX.X.XX......... .       .  .. .....XX.XXXXXXoXXXXoXXoXoXoXooooooooooOOoOooooOOoOooOoOoOoOoOoOoOo+OoOooOoOoOo+OoooooooooXooXoXOXoXXXoXXoXXXXX..XXX.XX.X..... .. ..      .  ........XXX.XXXXXXXXXXoXoXoXXooOXXOXOooooooooooooooooOOOoOooOoOOOOOOOOOo++oO+OoO++oOOOoOoOOOooOoooooOoooooooooooooooXooXoXXXoXXXXX...X....  .     .  ....X.XX.XXXoXXXXXoXoOXXoXoOoooooOoo+OoOOOOOOO+OOO+O+O+O++++++++O+O+O++OOO+oOOOOOooOOOXOooooooooXOOXXoooXXXXXXX.XX....  ..  .  ...",
"XXXXXX.XXX.XX......... ..    .    . .. ...........X.XX.XXXX.XXoXXo.XXXXoXXXoXXooXXoXXXoXXoXXXooXXXXoXXXXXoXXXoXXXX.XXX.XX.X..XX.X......... .. . . ..  .  . .                              .  .. ..   . .. .   .................XX.X...X....X...XX.XX..X...X....XX..X......... ...  ..  ..          .   .......X...X....XX.XXXXXXoXXXXoXoXXXXooXXXXooXXOXXooXoXoXoooXOXXXoooXXooXoXXXoXoXXXoXXoXXXXXoXXXXXX.....XX.X.X.X..X..X... .......... ... . .... ..... .   .   . .  . .   .  ..  ..   .                          .  .   .... ............X..X.XXX.XXXXXXXXoXXXXoXXXoooXXoXXoOXoXoooXoooOXoooXoOoooOooooXoXOXOXXoooXOXoXOoXoXXoXXXXoXX.X.X.X...... ...  .    ..   ......X..X.XXXXXXXXXXoXoXoXOXXoXoXoXOoXooooooOoXoooXoXoooOXOXoXoXXooXooXXoXXoXXXX.X.X..... ..  .   .  .  ......XX.X.XoXXXXooXXoXoXOoXoXoXooXOoXoXooXoooooooXooXooOXoXooOXXoXOXooXoXoXXXXooXXXXXXX.X.....  . ..   .   ... ....XXX.XoXXXooXXooXoXOXoooooooooooooooOOooooOoOOoOoOoOoOoOoOOOooOoOooOooooooooOooooooooooooXoXoooXooXXooXoXXXXXX.X.X........     .    ..   ........X...XX.oXoXXXoXXXooXXoXoooXXoooooooOooOoOooooOoOOoOOoOoOOOOo+o++OoOOoo++oOOOOOOoOoOooOOoooooOoooooooXooXoXoXoXXoXXoXXXXXXXX........     .  ........X.XXXXooXoXXXOooooXooooooooooOoOOoOOOOOOOO+O+O+O++++++++O+O+OO+OOO+OOOoOOOoo+OooOoooOXooXooXoXXXoXXXXX........       . ..",
"XXoX.o...X.X......... . .   .      .... . .. .....X..XX.XXXXXXXXXXoXXXXXoXoXoXXXoXXoXXXooXXXoXoXXXXXXXXXXXXXX.XXX.XXXXX..XX.............. .. . .   .   .                                 .  .  ..  ..   .. ................X......X.X.XXXXX.X..X.X.X.X.XX.X.X.X.X..X....X.X........... .  ..  .      .  .     . .... XX..XX.X.XX.XXoXXXXXXXoXXXXooXXoXXXoXXOXoXoooXXoXXoXXoXXoXoXXXXooXXXXooXXoXoXXXXXXXX.XXX.X..X.XXXXXX.X.X.X...X...........X.... .. . ... ..... .. . .... .. .       .   .  ..  . ..               .  .  .  ..  ............X...XX..XX..XXXoXXXXXoXXoXXXooXoOoXooXXooXOXXOoooOXooOXooOXoXoooXXXoOXOXOoOXoXoXXXXXoXXXXXXoXXXXX.X..... ..  ..    . . .......X.XX.X.XXXoXXooXXoXXoXXXooXXOXOXXoooXoooooooooXoXoXoXOXXoXooXXoXXoXXXXXX..XX.X....... . . .    . .........X.XXXXXXoXXXoooXooXOXXoXooXOXooXooooooooooooooooooooooooooooXoXOXoXXXooXXXXooXX.X.X.X..... ..  .    .  ... .X...XXXXXX.XoXooXXoXoXoooOXoXoooooOooOooooOOooOoOoOoOOoOoOOOooOoooOoOOoOooOooooooooooooooooooXoXooXXooXXXoXXXXXX.XXX.XXX.... ... . .   . . . ......X.X.X.XXXoXoXoXXoXoXoXOXXoXOXooOoooooooooOoOoOoOoOOOOOO+OOo+ooO+O++OOo+++oOOOOOoOOoOoOOooooOoooooooooooXoXOXXXoXXoXXXXXXX....... .  .    .. ....X..XXX.XXoXooXXoXoXOooooooooOoOooOOOOoOOOOOOOo+++OO+++++++++++++O++OOOOOoOOOoOoOooooooooooOXXooXXooXXoXX..XX ...  .   .  .",
"XXXX.XXXXXX.X..X........ ...            . ..... ..X..X.X.XXXXXXXXXXXXoXXXXXXXXoXoXXoXoXXXXoXoXXXoXoXoXXoXXoXXXXXX.X...X.............. . . .  . . .  .  ..                                   .  . .   .... .... ..........X.X.XX..X.XX..X.X.XXXXXXXX.XXXXXX.XXX.XX.X..XX...X...X........ . .  .            ..............X...X.X..X.XXXXooXXXoXoXXXXoXXoXoXXooXoXXoXoooXooooXoXoooXoXXXXooXXXXoXXXXXXXXoXooXXXXXXXXX......X.X...X.X....................X...... . . .. ....    .. . . ....  ...   .         .               .     . ...  .. .......X.XXXXX.XXXXXXXoXXooXXoXoXoXoXXooXooooXoXooXoXoooXoooXoooooXooOOooXoXoXoXoXoXOoXoXoXooXXXX.o..XX........ ..  .     .  .. .....X.X.XXXXXXXXXXoXXoXOoXOXOoXoXooooooooooXoXoooOooXXoXoOXoXoXoXXoXXoXoXoX.X.XX.X..... .   .    .    .......XX.XXXXXooXXXXoXooXoooXoooooooooooooooooooooooooooooooXoXoXOooXoooooXXXooXXXXXX.XXX..X.....  . .     .  .......XX.XXXoXXXXXXoXooooXoXooooooooooooooOoooOOoOoOoOoOOOOOoOOOoOOOoOooOoOOoOoOoOooOooooooooooooOXXooXooXoXXoXXoXoX.XXX..X...... .   .     .   .. .....X.X.XX.XXXXXoXXXoooXoOXoooOoXooooooOOoooooOOoOoOoOoOoo+++++ooOo+o+o+o+oOoOOOOoOOOOooOOoooOooooooooXooooXoOXOXXoXXXoXXX.X........         .  ...X.XXXoXXXXXXoXoooXXooooooooooOOoooOOOoOOOOOO++O++O+++++++++++O++OOOOOOOOOOOoOoOooOooooooooooXoXoXXXXXXXXX..X.....      .",
"oXXXXXXX.XXXXX............   ..       . .. ...........X..XX.XXXXXXXoXXoXXXXoXXXXXXoXXXoXXoXoXXXXXXXXXXXXXXXX.X...XX.X..X...X.... ...... .  ..   . . .                                    . .     . .. .. ..   ..........XX. ..X.X.XXX.X.X.XXXX.X.XXXXXXXXXXXXXX..XXX.X.X.X...X.XX........... . ..        .    . . . ... .....X.XX...XXX.XXXXXXXXoXXoXoXoXXXXXoXXoXXoXXXXXoooooXXooXXXXXooXXXXXooXoXoXoXXXXXXXXXoXXXXXXXXXXXXX.X...XXX.X..X.X..XX......... ............... ... ... .............. . .. . . . .  .            . ..   . ............X..XX.XXX.XXXXXXXXXXXXXXXoXoXoXXXooXooooooXoooXooOoooOooXXOOXoXXoXoooXoXoXooXXXXoXXXoXXXXXXX....X..X..... .           .......X.X.XXXXXXXoXoXXooXXXXoXoXXOXoXoXooooXoXooooooooooOooXoXoXoXoXXoXooXXXXX.X...X.X.. .... .        . . ....XX.X.oXoXXXoXXooXXoOXoXoooXooXOooooooooooooooooooooooooooooooXooXXooXOXXooXXXooXoX.XX.XXX... .  . .    ... ....X..XXXXXXXoXXoXooXXXoXooooooooooooooOoooOooOoOoOoOOoOOOoOoOOOOOOOOOoOoooOooOoOooooOooooooooXoooXooXooXoXXoXoXXXoXX.XXX.XXX.....    ..    .. .   ....X.X..X.XXXXXXooXXXoXooXOoXXoooooooooOoOOoOoOoOoOOO+oo+Oo+o++OO+OOOOOOOOooOOoOOOoOOOOoOOOooooOooooooXoooXXOXXoXXXXoXoXXXX.XX. . .. . .. . .... ...X.X.XXXXoXoXoXOooXoOoooOooooOoOOOOOoOOO++o++O++++++++++++O+O++OOOOOOOOoOoOoOoooooooooXoOXooXXXoXXoXXX.X.... . ..     ",
"XXXXoXXXXXX.X.X.X..... . ...        ..    ... ......X...XX.XX.XXXXXXXXXXoXXXXoXXXXXXoXoXXXXXXXoXXXoXX.XXXXXXXXX.XX..X..X............  ....  . .   .                                      .   ..  .  .   . ........X....X.X.XX..XXX.X.XXX.X.XXXXXXXXXX.XXX.XXXXXXXXXXXXXXX.XX.X............ .......    .   .  .  .  .. ...........XXX..XX..oXXXoXXXXXXoXXXooXXXXoXXoXXooXoXXXXXooXXXoooXXXXoooXXXXXXoXXoXXXXXoXXXXoXXXX.X.XXX.XXXX.X..XX..X..X.....X X... X.....................X.... ... ... .. . .. . ..   .     . . .          ..  .  .. . ......X..XXXX.XX.XoXXoXXooXoooXXoXooooXoXoXXoooooooXoXoXoXoooooooooooooOXOXOXooXoOXoXoXXXXooXXoXXXXXXX.X......   .      ..   ......XX.X.XXXXoXXoXXXooooXoXooXOXooooXoooooXoooooXoXoooXoXOXoXooooXoXXXoXoXXXo.X....X..... ..     .  ........X.X.X..XoXXXoXoXoXXoXOoXoOXoooooooooooooooooooooooooooooooooooooOoXoXooXXXooXXXXXX.oX.X....... . . ..    . . ......X.XXXXXXXoXXXooooXooooXoooooooooooOoooOOoOoOooOoOOOOOOoOOOoOoOOOoOOoOOoOoOOoooooooooooOoooOoXXooXooXXXXXoXXXoXX.XX.X.X.......     .    . ... ....X.X.XXXXXoXXXXoXXoXooXoXOooXoooooooooooooOOooOOo++oO+oO+o+OOOOOOOOOOOOOOOOOOOOoOOOOoOXOoOooooooooooooooXoooXooXXX.oXXX.X........      .  ......X..XXXoXoXXXooXoXooXooooooOooOoOOoOOOOOo+++O++++++++++++++++++OOOO++OOOOOOOOOOoOoooooooXoOXoXXXoXXXXoX.X......   .   ",
"XXXXXXX..XXX.X.......... ..   ..     .   .. . .....X..X...X.X.XXX.X.XXXXXXXXXXXoXoXXXXXoXoXXoXXoXXXXXXXX.XXX.XXXXX....X....... ...... .. .       .                                        .      .. . .... ...............X.XX..X.X.XXXXXXXX.XXXXXXXXXXXXXXXXoXXXXXXXXXXX.XXXXXXXX.X..X....... .. .. . .   .    .    . ...........X.X.XX.X.XXXXXXXXXXXXXXXXXooXXXoXXXooXXXoXXoXXoXXXXXXooXXXXXXoooXXoXXXXXXXXXXXXXoXXXXo.XXXX.X..XXX..XX.X.X.X.X....X.X..XX....X.X..X..X..XX.........X. .......X.X .... . . ...   .  .           .. . . . .......X...X.XXXXXXXXXXXXooXXXXoXoXXoooooXXooooXOoooooXoooooooooooooXooOoooXOooXoXXoXooOXoOoXXoXXXXo..X.X.X.X.... . . .    .. .  .....X.X.XXXXXXXXXXXoXXXoooXOXoXOooXooooXooXooooooXooXoooooXOXoXooXoXXoXoXXoXXXX.XX........ .      .    ....X.XXXX.oXXXXoXoXXXooXoXOooXoooooooooooooooooOOoooooooooooooooooooXoXoXXoXOXXXoXoXoXXoX.X.XXX..X.....    .  .   ........XX.XXX.XXoXXoXXOoXXOOXoooooooooOoooooOOoOoOoOOOOOoOoOoOOOOoOOOoOoOOoOooOoOoo+oooooooooooooooXoooXooXOooXXXXXoXXXXXXX.X.X. .X... .      ..   . ....X.X.X.XXXXXoXXXXXXoXoXOooooOooooooooOoOoooOOOoOoo+oo++OOOOOOOOO+OOOOoO+OOOoOOOOOOOOoOoOooooooooooooXXoXoXXXXoXXXX.X.X......... .   .  . .....X..XXXXoXXXXoXOooooooooooOoOoOooOOoo+OOO+++++++++++++++++++O+++++O+OOOoOOoOoOoooOooooooXOXOooXooXXXoX.XX. X.. ..   ",
"XoXXX.oXX.X.XX.X.X......... .            . ..........X..XX.X.X.XXXXXXXXXXXXoXoXXXXXXXXXXXXXXXXXXXXXXXXXXX.X.X.X....XX............   .  . .. . ..                                            . ... . .. .. .....  ...X.X..X.X.XXX.XXX.XXXXX.XoXXooXoXoXXXXXXXXXXXoXXXXXXXXXXXXXXXXX.X.XX.X..X....... .. . .  .      .    ... .........X.X.X.XXX..XXXXoXXXooXoXXXoXoXoXXXXXoXXXXoXXXooXoXXXXoXooXXXXXoXXoXoXoXXXoXXXXXXXXXoX.X.oXXXXX.XXX.XX.XXX.X.XX.X.X..XX..X...XXX..XX...X......X.. .XX  X. ............   .. . .  . ..      .      . .. . ....X..X..X.XXXXXXXoXXXXXooXXoXoXXXXXooOXXooooooXoXOooooooooooooooooXXooooXooooooOXXXoXXXXoXXoXXXXoXX.XX....... ..         ........XX.X.XXXXXXoooXXooXoXXoXOXoXoooooooooooooXoooooooooXoXoXOXOXoXoXXXXoXoXXoXXXX..X.X ... .  .     .. ........XXX.XXoXXXoXoXoXoXOXoooooooooooooooOooOoooooOoOoOooOoooooooooooOoOooOXoOXoXoXoXXXoXXX.XX....... ...     .. . .....X..XXXXoXXXXoXoXoXooXXoooXooooooooOoOoooOoOoOoOoOOOOOOOoOoO+OooOOO+OoOOOoOoooooOoOoooOoooooooooooooXoXXXXoXoXoXXXXXX.XXX..XX  ...   . .    .. ........X.XXX.oXXXooXooXOXooXXooXooooooOooooOoOoOOOOO++++oOOOOOOO+O+++++OOOOOOOOOOOOOOOoOOOoooOooOoooooooooOXoOoXoXoXXoXX.XX.X...  .     . . .......X.X.oXXoXoXXoXoXooooooooooOoOOOOOOOOO+o+++++++++++++++++++++++O+OOOO+OoOOOoOOoooooooooooXoXOXXXoX.XXXXXX....  .. ",
"oXoXXo.o.XXX.XX..X...... ....          .  ... . ... ...X....X.XXX.X.X.XXXXXXXXXXXXXoXoXXXXXXX.XXXXXXX..X.X.XXX.X...X........... . ..   .                         . ..  ..                   .    .   ... . ... .....X......X.XXXXXXXXXXXXoXoXXXXXXXXXoXoXoXoXXXoXXXXoXoXXXXXXXXX.XX..X.XX..XX.X.......    .  . .    . .  .   . ..........X..XX.XXXXXXXXXXXXXXXXXX.XXoXXoXXooooXXXoXXoXoXXoXoXXoXXXXoXoXooXXXXooXXXXXoXXXXXXXoXXXo.XXXXXXXXXX..XXXX.XXX.XoXXXX.XX.XX..XX..XX.X.XX.X...XX.X.XX.X...X............ . .. X .   .    .  . .     ..............XXX.X.XXXXXXXoXXoXXoXoXoooXoXooooXoXoooooooooooooooooooooooooXooOXoooXXOoXoXoooXXoXoXXXXXXX.X...... ..   .        .....X..XXXX.XXXoXXXoXXXoXXOXOXOXoooooooooooooXooXooXoooooXooXXoXOXoXoooXXXXooXX.XX..XX...... ..     .. .......X.XXXXXXXoXXXoXXXOXoXXooXooooooooooooOoOoooOoOoOoooOoOooooOoooooooooooXoXoXXoXoXoXXXXXXXX.XX........ . .   . .  . .....XXX.XXXXXXXoXXoXXOOXXOooooooooooOooooOOoOoOoOOOoOoOOOoOOOo++OO+oOOOOoOoOOo+oOooooOoooOoooooooXXooXOXoooXoXXXXoXoXX.X.X.XXX.. ... .    ..    ........XX..XXXXXoXXXXXXoooXXOoOoXOoooooooooOoOooOOOOoOO++OOOO++o++oOOo++O+OOOOOOOOOOOOOOOoOOOoOOoooooooooooXoXoXOXXXooXoXXX..X..... .        ...XX.X..XXXXXXXXooXoXoXooooooOoOooOOOOOOOOO+oO+O+++++++++++++++++O+O++O+OOOoOOOOooOoooooooooooXoXXOXoXXoX.X.X X..... ",
"XXXXXXXXXXX.X.X....X......   ...          .  ........X.....XXX.X.XXXXXXXXXXXXXX.XXXXXXXXXXo.XX.XXXX.XXXXX.XX..XXXX......... ......  ..  . .                . .   .     .   . . .               .   . .  ... ..........XX.X.XX.XX.X.XXXXoXXXXXXXXXXoXXXXXXXXoXoXXXoXoXXXXXoXXXXXXXXoXXX.XXX.X.X..X........... .  . .        . . . ... .....XX...XX.XX.XX..oXXXXoXXXoXoXXXoXXXXXXoXXoXXXoXXoXXXoXXooXXXoXXXXoXXXXXXXXoXXXoXXoXXXXXXXoXXX.XX.oXXXXXXXXXXXXX....XX.XX.XX.XX.XX.XXX.XXX.X.X..XX....X.....X...X..........  .. . .  .          .  .  ... .X..X..XXXXXXXXXoXXXoXXooooXoooXoooXoooooooooooooooooooooooooooooooooooooXoooXXOXoXXXoXoXXoXXXXXXX.XXX..... ..  .   . .  ........X.XXXXXXXXoXXoooXXooXoXooXooooXooXoooOoooooooooooooOoOXoXoXooXXoXoXXXXXXXoXX........    .    .  . .........XXXXoXoXXXOoXoXOXooOXoooooooooOoooXoOOoooooooOooooOoooOoooooooooooOXooOXoXoXXoXooXXXXXX.XX....... .       . .. ....X.XXXXXXoXXoXXXXXXooXXooXooooooooOooooooOoOoOoOOOoOOOOo++oO+oo+OoOoOOOOOOOOoOoOOoOoooooOoooooooooooOXXoXoXoXoXXoXXXXXX.X.X..... ..  .   .. .  ..... X..X.XXXXXXXooXXXXooXoXooXooooooOOooOoOOooO+oOoo+OOOOo++++++O+OO+O+OOOOOOOOOOOoOOOOOoOooooOoOoooooXooOXoXXOXXXX.XXXXX......   .   ... ......XXXXoXXooXXooXooooooooooooOOoOOOOOoOOO++O+++++++++++++++++++O+++OOOOOOOoOOOOOOoooooooooooXoXoXXoXoXXXXX.X.. . .",
"XXXXXoXX.XXX.X.XX..X...... ...  .         . ... .. . .XXX.X...XXXX..XXX..XXXXXXXXXXXXXXXXXXXXXXXX.XX.X.XXX..................  . .. .. .              . .   .      . .    ..    . .              .   .. . ............X...XX.X.XXXXX.XXXXXXXoXXoooXXXXXXooXXoXXXoXXooXXXoXooXXXXXoXXoXXXXXXX.XXXX...XX......... . ..   .     .   .... .........X.X..X.XXXXX.XXXXXXXXXXXXooXoXXXXXooXXoXXXXXoXXXooXXoXXXoXXoXXXoXXoXXXXXXXXoXXXoXXXXXXXXXXXoXXXoXXXXoXXX.Xo.XXoXXX.X..XXX.XX.XXX...X..X.XXXXXXX..X.X.XX.....X....... ... . .. . . .      ...   .. .X ...X....XX.XX.XoXoXoXXooXXoXoooXoOXXooXoooooooooooooooooooooooooooooooXoooooooXoXoXoXXXoXXoXXXXXXX.XX..X....   ..     .. ....X.X.X.XXXXXoXXooXXoXooooXOXooooXooXoooooooooooooooXooXoooooXoXOXOXoXoXXXoXoX...XXX.X...... . ..    .. .....XXX.XXXXoXXXoOXXooXooXOooooooooooOoooOOoooOOoOoOoOoOooooOooooooooooooooooXOXOXoXXoXXXooXXoX..X..XX... . . .       .........X.XXXXXoXoooXXoooXoooooooooooooOoOooOOoOoOOoOooOoOo++o++o+OoOOOOOoOooOOOOoooOoooOooooooooooooooooXoXoXoXoXXXXoXoX..XXXXX.X. ...  . . .  .   ...X.X...X.XXXXXoXXoXXXXOXooooooooooooOooOoOoOOOoO+o++OOOO++++OO+O+O+O+O++OOO+O+OOo+O+OOOOOOoooOoooooooooXXoXXoXoXo.XXX.X.X....  .     .   ...X..XX.XoXoXXXoooXOooooooooooOoOoOOOO++OO+O+OO+++++++++++++++++++O++O+OOOOOOOOooOOoOooooooooooooXXXXXXXXXX.X..X .",
"oXoXXXX.XXX.XX.XX..X.... . .. . .       . .  . ....... .X...X..XX.XX.X.XXXXXX.XXXXXoXXXXXX.XXX.XXXX.XXX..X.X.XX..X...... .. ... .                 .      . ..  ..  .. ..    ..     ..           . .    ... ..  ........X...XX.XX.XXXXXXoXXXXXXXXXXooooXXoXXoXoXXoXXXXoXoXXXXoXoXXXXXoXXoXXXoXX...X...X.X........ .  . . .      .  .  ..... .....X...X.X.X.X.XXX.Xo.oXXXXXXXXXXoXXXXXXXXooXoXoXXXXoXXoXoXXoXoXXXoXXXXoXoXXXXXXXoXXoXXXoXoXXXXXXXXXXXXoXXoXXXXXXXXoXoXXXoXXXXXX.XX.oXXXX.XX....Xo.XXX..XX.X..X...X..X......  . .    .          .   ........X.XXX.XXoXXoXXXXXXXoXoXXoXoXoOoooooooooooooooooooooooooooooooooooooXoXoooooOXXooXoXXoXoXXXXXX.X.X.... ...     .  ..... ..X.XXXXXXXXoXXXXooXXXoXoXooXoooXooooooooooooooooooooooooXooXOXoXoXoXooooXXXXoo.X...X.....       .     ......X.XXXXXXoXXXXoXXOoXooOXoooooooooooOoooOoOoOoOoOoOoOOoOoOoOoOoOooooooooooooXOXoOoXoOXXXoX.o.XXX..X..... .  .   .  . ....XXXXXXXXX..oXXXoXXXooXXoOXXoooooooooOoooOoOoOoOOOOOO+oo+o++oOOoOoOOOOOOOoOOoOOOOOooOOoOoooooooooooooooXoXooXXoXXXoXoXXXXX.X.X.X....         .   . ...X..X.XXoXXXXoXoOXoXOXXoooooooooooooOooOOoOOo+oOOOOOo++oOOO+O++++++O+O+O+oOOOOOoOOoOOooOooooooooooOoOXOoXooXXXXoXXXXX..... . . .   ........X.X.XXoXoXXoXoXXoXooooooOoooOOoOooOOOO+O++++++++++++++++++++++OO+O++OO+OOOOOoOoooooooooXOoXXoXooXo.XoXX.X....",
"XoXXXXXXXXXXX.XX......... .  .. .        .   .. .....X...X.X.....XX.XXXXXX.X.X.XX.X..XXX.X.XX.XXXX.X.XX....X......... . ...   .   .            .     ..  ..  . . . .. ...  .  .    . ..                . ..  ........X.XX.X.X..XXXX.XXoXXXXXXoXoXoXXXXoXXXoXoXoXXXoXoXoXooXoXXXXXXXoXXoXXXXXXX.oXXX.X.X.X....... ... .  .       .      ..... .......X......XXXXXX.X.XXXXXXXXXXXXoXoXoXXXXoXXoXXXXoXoXXXXoXXooXoXoXXoXoXXXXXXXoXXoXoXXXXXXXXoXXoXoXXX.XXXXXXooXXXXXXXXXXXXooXXXXoXXXXXoXoo.XXXXXXXXXXXXXX.X oX..X..XX. ....... ...   .      .  .... ... .....X.XXX.XXXXoooXXoXooooXooooXooooXooooooooooooooooooooooooooooooooooooooXoXoXOooXoXXoXoXXX.X.X..XX.....       . ... ......X.X.XXXoXXoXXoXoooXOXOXooooooooooooooooooooooooooooooooooXoXXOXoXXXXXXXXXXXXXX.X.XX.. . . .    ... .......XX..XooXoXXoXooXoXXOoooooooooOOoOoooooOoOoOoOoOoOooOoOOoOooooooooooooooooooXoXoXoXXoXoXoXXXo.XXX...... . ..   ..     .......XXXXXXXXXoXooXXOooXooooooooooooooooOoOoOoOOOOoO++++oo+OOOOOOOoOOOOOOOOOOOOOOOoOooOOooOoooooooooooooXoooooXXXoXoXXXXXXX.X.. ......       .   . .X..XX.XXXXXXXXXoXXoXoXoXooXoooooooOoOOoOOOOOoOOOOOO+O++OO+O+O++O+O+O+O+OOOO+OOOOoOOOOOOoOOoOooooooXoooXXooXXoX.XoX.X.......   .       .....XXXXXXXXooXXXOXOooooooooOoOOoOoOOOOOO++O++++++++++++++++++++++OO+O++OOOoOOo+OoOOoooooooXoOoXoXoXoXXXXXX.X...",
"XXXXXXXoX.X.XX.X.XX......... . .  .        ..  . .... .X....X..X.XXX.XXXX.X.XXX..X.X.XXXX.XXXX.X.X.XX..X.X.............. .. .   ..           .   ..   .  . ...  ... .   ... ..  ..       .         ...    ... .............XXXXX.XXXXXXXXXoXXoXXXXoXXoXXXooXXXooooXooXoXXXXoXoooooXXoXXXXoXXXoXXXXXoXX.X..X...X.X.. ....  ... .      .     ... ... ......XXXX.X..XXXX.XXXXXXXXXXXXXXXXXXXXXXXXXXXXXXXoXXXXXXXXXXXXXXXXXXoXXXXXXXXXXXXXoXXoXXoXXXXXoXXoXoXoXXXXXoXoXooXoXXXXXXoXoXXoXXXXXXXoXoXXXX.XXXX.X.XXX.XX.X....X.........  . .        .  . .. ......X..XXXXXXXXXXXoXXoXXoXoooXXoooXoooOXooooooooooooooooooooooooooooooooXOXoooOXoXXXoXoXXXXXXXXX..X.... ..  . .       . .....X.XXXXXXXoXXXoXXoXXoXoXooooXooooooooooooooooooooooooooXoooooooXoXoooXXooXoXXXX.XXX.X......         . ....X...XX..XXoXXoXoXOXOoXoXooooooooooooOoOOoOoOoOoOoOoOOoOooOoOoOOoOoOooooooooooooooXoXXoXXXoXoXXXXX.XXX.....    .    . ...  .X...XXX.XXoXXXoXoXXXoOXXoooooooooooOoooooOoOOOoOOoo+o+o++OOOOoOOOoOOoOoOOOoOooOOoOOOoOoOoOooooooooooXoooXXoOXoXXXXXXoXXX.XXX.X.... ... . .    .. . ....X..XXX.oXoXXoXoXoooXoooooooooooooOoOooOOOOOOOO++o+O+O+O+O++O+O+O++++O+OO+OO+OOoOoOOOoOoooooooooooooooXoXooXXXXXXX.X.X...    .. .. .......XXXXoXXXoXXoXXoooooooooooOoOOOOoOOOO+O+++++++++++++++++++++++O+++OOOOOO+oOOOoOOoooooooXooXOXoXXoXXX.XXXX.",
"oXXXoXXXXX.X.XXXX.......... .. . ..      . .. . . ..X .......X...X..XX.XXX.XXX.X.X.XXXX.X.X.XXX.X.X...X.X...X... . .  .  ..  . .           .      .. ...... ....... . ... ......    .. .   .  .       .   ...  ...........XX.X.XX..XXXXXoXXXXooXooXXXXooXXoooXoXooXXooXooXoXoXXooXXXXXoXXoXoXXXXXXXXXXXXX....X...X.X .... .. . .           .    . .. . . .....X..X...X...XXXX.XX.X.XXXoXXXXXoXoXXoXXoXXXXXoXXXoXoXXXXoXXXXoooXXXXoXXoXXooXXoXXoXooXXoXXXoXXXXXoXoXXXXXXoXXoXoXXXoXXXoXXXXXoXXoXXXXXXXXXXXXXX.XXX...XX X........... . . .          .......XXXXX.XXXXXXXXXXXXoXXoXXoOXoXOoooXooooooooooooooooooooooooooooooooooooooooooXoXoXXXoXXooXoXoXX.X....... ..  .    .  .. ....X.X..XXoXXXooXoXoooXXooooooooooooooooooooooooooooooooooooooooOXoXoXXXoXXXXoXoX..XXX.X. ... .     . .. ....X..XXXXXoXoXXXoXXoXoooXoooooooooOooooOOoOoOoOOOOOOOOOOOOooOooOoOoOoooooooooooooooooooXoXoXoXXoXX...XX.X.... .  ..   .   ... ...XX.XXXXXXXXoXoXXOooXoooooooooooooooOoOoOooOOOOOOOoooOOOOOOOOOOOOOOoOOoOOOOOOOOOOooOoOooOOoooooooooooooXooXoXoXXoXXo.XXXXX.X.... ..  .    .  . .. .X.X.XX.XXXXXoXoXXXOooooooooooooooOOoOOOOOOOOOO+o+O+O+O+++O++++++++OOO++O+O+OOOOOOOOOoOoooOooooooooXXOoXXXXooXXXXXX..... .    . . . ....XXX.XXXXoXoXXXOXOooooooOooooOoOoOoO+O+++++O+++++++++++++++++++++++OOO+OOOOOOoOooOooooooooooXXoXoXoXoXXXXXX",
"XXoXXXXoX.XX.X.X..XX........ .             .  ... ... X ...X..X..XXX.XX.X.XXXXXXXXXXXX.X.X.X.X.X.X..X.X................. . .             . . ....  ...  . .. ..  ....... . . . ..... . . .. .           .   ... . ......X...XXX.XXXXXXXoXXXoXXXXXXXooXXoooXXoXooXXoXoXoXoXoooXoXoXooooXXXXXoXoXooXoXXXoXXXo.XXXXX.XX.......  . .... .. .     . ..   ..........X.....XX..XXX..XXXXXXXXXX.XXXXoXXXXXXXXXXoXXXXXXXXXXXoXXXXoXXXXXooXXoXoXXooXXoXoXXXXXoXXoXXXoooXoXXXoXooXXoXoXXXoXoXoXoXoXXoXXXXoXXoXXXoXXXXXXXXX.XXXXXXXXX..X.. ....   .. .     ..    . .. ....XXX.XXXXXXXoXXoXoXXXXoooXoooooooooooooooooooooOoooOoooooooooooooooooXOooooooOXoXoXXXXXXXXXXXX..X.... .      . . ....X...XXX.XXXXXoXXoXXoXoOXXOoXoooooooooooooooooooooooooooooooXoooXOXOXoooXOooXoX.XXX.X.X...... . .       .......XX.X.XoXXXoXXXooOXoOooXoooooooooOoOooOoOoOoOoOoOOoOoOoOOOOOoOoOoOoOooOooooooooXOooXoooXooXXooXXoX..X..X.....    .   . . .....X. XXXXXXoXoXXXXXoXOXoXoooooooooooOoooOoOOoOoOoOo+OOOOOOOOOOOOOOOOOO+OOOOoOoOoOOOOOOooOooOoooooooooooXooXoooooXoXXoXXXXX..XXX..... .  ..      ... .X.X.XXXXXoXXoXoXXXXOXOoooooooooOooOooOOooOoOOO+O+O+O++++++++++++++O++++O+OOOOOOOOoOOoOoOooOooooooOoXXooXXXXXoXXX.XX...X....       ..X .XXX.XXXXooXoOXoXXooooooooOOoOOOOOo+OOo++O+O+++++++++++++++++++++++O+O+OOOOO+OOOOooOOooooooooooXXXXoXoXX.X",
"XoXXXXXXXoXXX..XXXX.X...... ...    .          . .  ..X.X.....X..X...XXXX.X.XX.X..XX.X.XXX.XXX.X.X..X.X............ ....     ..        .   .   .  . . ...  .... ...... ......... .X. .. . ..   ...       .     .. ..........X..X.X.XXXXXXXXXXoXooXXXooXXXXXooooXXXooXXXooXoXoooXooXXoXXooooXXXXXXXXoXXXXXXXXXXXXX.X.XX...X......  ..   . .       . . .   . ... .....X...X...XXX..XXXXXXXXXXXXX.XX.XXoXXXXoXXXoXXXXXXXoXoXXXXoXoXXooXXXXXXXXXXXXooXXXoXooXXXXXoXXoXoXXoXOXXXoXXoXXooXXooXXXXooooXXXooXXXXXXXXXXXXXXXX.X.X.X.X...... ....  .       . . . .......X...X.XXoXXXXoXoXXXOooXoooXXooooooooooooooooooooOoOoOoOOooooooooooooooXooooXoXooXooXXoXXXXXXXXX.X....... .    . .........X.XXXXXoXXXoXooooXXoXoooXoooooooooooooooooooooooooooooooooXoooXooXoXXXXoXXXooXX.XX.XX... ...     .  .  .....X.XXXXXoXoXoXoXXoXooOoOooooOoooooOOoOoOOOoOOOooOOOo+OOOOOOOOoOoOOoooOOoOoooooooooXXooXoXXXXXXXXXXXX....X......   .    .   .....X.XXXX.XoXoooXXXoXOOXoooXooooooOooooOoOOoOOOOOOoOoOOOOOOOOOOOOOOOOOOOOOOOOoOooOOOooOooOoOOoOoooooooooXXXooXXXXXXoXXXXX.X.X..... . .       . .. . ..X..X.XXoXoXXOXXXXOXoXooooooooooOOoOOOOOOOOOOO+O++++++++++++++++OO++OO+O+OOOOoOOOOoooooooooooooooOXoXoXooXXX.XXXX.X... .  .   .  ......XXXXXXXXXXoOXOooooooooooOooOOOOO+OO+O+O+++++++++++@++@+++++++++OO+O+OOOoOoOOoOoooooooooooXXOooXXXoXXXX",
"XXoXXoXXXXX.XXXX.......... .. . .  .      .  . . . . ......X...X..XX..X.XXX.XX.XX.XX.X.XXX.X.X.X............... .. ...  .  .         .  .  .... ... ............................. ... . .   ..    .        .. .   .......X...X...XXXXXXXXoXXXXXXooXXoXooooXXXXoooXoooooXooXoXoooXooXooXooXoXoooXXoXXoXoXXXooXXX.XXX.X.X......... ..    .    .  .  .   .  .. .. . ......X..X..X...X.X.XX.X.XX.X.XXXXXXXXXXXXoXXXoXXXXXXXXoXXXXXoXXXXoXooXXooXoXXXooXXXXoXooXooXoXXooooXXXoooXXooOXXXOXXXooXXXXXXooXXXoXoooXoXoXoXXXXX.X.X.XX..X.X....... .   .     .  .  ........XXX..XoXXXoXXXOoXXXoXoXooooXoooooooooooooOoOooooooooooOooooooooooooooXoXOXOXoXXXooXXXoXXXX.X..... ....        . .. ..X.XXXXXXXoXXXXoXXXOOXoooXooooooooooooooOooOOoooOoooooooooooOooXoOXOXoooXXXoXXXXoX.XX..X....    .   .  . ...XX..X.X.XXXXXooXXOXOXoXoXooooooOoOoOoOoOoOOOoOOO+OOo++oooOoOOoOOOOoOOoooooooooooooooXOXoXoOXXooXXooXXXXXX..X...  . ..     .  .......XXXXXXXXXXXoXoXXXoXXooooooooooooOooOoOooOoOoOOOoOoOOOOOOOOOOOOOOOOOOOOOOOOOOOoOOoOOooOooooOoooooooOoooXOXOoXXXXooXXo.XXX.X..... . . .    . ......XXXXXXXXXXooXooXXoXooooooooOoOooOooOoOOoOOO+O+O++++++++++++++++++O++OOOOOOOOOOoOOOOOOOooOooooooooXOXoXXXoXoX.X.X.. ....  .   . . ......XXXXXooXXXoXoXooooooOoOoOoOooOoOOO+O+O+++++++++++++++++++++++++O+O+OOOOOoOoOOoOooOoooooooXoXooXXXoXX",
"ooXXXXXXX.XXX.XX..XX..........   ..       .     .. . ..... X....X...X..X.XX.X.XX.X.XX.X.XXX.X..XXX................ ..  .            .   .  .. .. ............................X... ........ .....   ..         .   .. . ......X.XX.XXXXXXXoXXXoXoXXXooXoXXoXoXooooXoooXXooXooXooXoooXooXXoXoXXoXXXXoXoXXXoXoXXXoXXXXXXXXXXX.X..XX... .....  ..          . . .   . ... .X. .....X....XX....X.XXXXXXX..X.XXXXX.XXoXXXXXXXXXXXXXoXXXXooXoXXXXooXoXXXXoXoXoXooXoXXoXoXXoXOXXXOXoXoXoXOXoXXoOXXXoooooXoXoXoXXoXXXXooXXoXXXXXXX.XXXX......... ..  .   .     .  ...X...X.X.XXXXXXoXXoXXXoooXOXoXoooooXooooooooooooOoooooOoOoooooooOoooooooooooXooOXOXoXoXXXoXoXXXX.X.X.... .            .....X..XXXXoXXoooXooooXooXOooXooooooooooooooOoooOooooOooooooooooooooooXooXoXoXXoXXXXoXX.XX.XX... ... .   .  ........X.XXoXXXXoXoXOXooooooooooooooOoOoOooOOOOoOoOoo++o+O+++ooOoOOOoooOOoOooooOoooooooooooXoXXooXXXXX.XXXXXXX.X.... . .     . .   ...X.X.XXXXXXXXooXXXOoooXoooooooooooOooOoOoOoOOooOOOOOOOOOOOOOOO+o+OOOOOOOOOOOO+oOOOOOOOoOooOooooOoooooooXoXoXOoXXoXXooXXXXXXX..X....     .     ........XXXXXXXXXXooXoXooooooooooOoooOoOOOOOOOOOOOOO+O+++++++++++++++++O++O+O+Oo+OOOOOOOooOooooooooXooooooXoXXXoXXX.X.....  .       ......X.XXXXXXoXXXOXXoOoooooooooOoOOOOOoOOOOOO+O+++++++++@+@++@++++++++++++o+OOOOOOOoOOOooooooooooXXOXXXoXX",
"XXoXXoXoXoXXXX.XX...X....... ...            .. .... . X .....X.X..X...X..X.XXX.XXXX..XXX....X......X.......... .. . .  . .       . .  .... . ...... .........XX..XX.X.X....X...X.............   ..     .      . .  . ...........XXX.XX.XXXXXXXXXXoXXXooXoooXoXoXoXoXooooooXoXooXoXooXoooooXooXooOXOXXXoXoXXXoXoXoXXXX.XXXXX.XX..X....... . .. .. ..    .     . .   . .  ......X......X..X.X....XX.XXX.X.X..oXXX.oXXoXXXoXoXXXXXoXXXXXXooXXXXXXoXoXoXoXoXXoXooXoXOXoXoXoOoXOXoXoXXoXooXXoOXoXXXXo.o.oXXXoXooXXXXoXoXXXXXXXXX..XXXX..X...... ...        .    . .....XX.XXXXXXXXXoXXXooXoXoXoXooooooooooooooOoooOoOoooooOoOoOooooooooooooOooXoXOXoXXooXXoXXoXX.X..XX.......     .. . ...X.XX.XX.XXXXXXXXXXooXoXooooooooooooooOoooooooOooOoooooooooooooooooooXOXooooXXoXXXXXXX.X.......  .  .   .  ....XX.XXXXoXoXoXXoXooXoXXoooooooOoOooOoOOoOoOOOOO++oo+oOooOOOOOOo++OOoOOoOOooooOoooooooXooOooXoXooXooXXXXX.XX.X......  ..    . ..  .......XXX.oXXXXoXoXXXoXooooooooooooooooOoOoOOOoOOoOOOOOOOOO+oO++O@oOoO++OOOOO+OOOOoOoOOOOoOOooooOooooooooooXoooXooXXXXXX.XXXXX..X ...      . .  ......X.XXXXXoXXoXXOXoXOoooooooooOoOoooOOOoOOOOO+O+O++++++++++++++++++O+O++++O+OOOOOOOOooOOooooooooXoXoXoXooXXXXXXXX.X.X.. ..     . .....XX.XoXXooXXoooXXoooooooooOoooOOOOOOOO+O+O++++++++++++++@+++++++++++OO+OOOOOOoOooOoooooooooooXXOXoXo",
"XoXXXXoXXXXXXXX.XX.......... . ..  .       .   ........... ..X.X.X.X..X.X.XXX.X..X.XXXX..X.X..X.......... . .. . ..              .  .  .   .................X.....XX..X.X...X....X....X.......... ...  .        .   .... ..........XX.X.XXXXXXXXoXoXXXoXXXoXXXoXooXoXooXXXooooooXoXoXooooXooooXoXoXXXooXXXooXoXXXXoXXXXXXXXXX.XXXXX.X .........     . .         .  .   .. .   .........XXX.X......XXXXXXX..XXXXX.XXXoXXXoXoXXXXXoXXoXoXXoXXoXoXoXo.oXoXooXoXoXooOXOXoXOXXoXoXOoXoXOXXOXoXoXoXOXooXooXoooo.oXXXoXXXoXoXXoXoXXXXX..X.X.... .... . .       . .......XX.XXXX.XoXXoXoXoXXoXooooooooooooooooooooooOoooooOoOooooooooooooooooooXoooXoXXOooXoXXoXXXXXX..XX. . .. ..      .......X...XXoXXoXoXooXoXoXoooooooooooooooooOoooooooooooooOooooooooooooXoOXoXoXooooXXXooXXXXXX......  .          ......XX.XXXXXXXXoXXooXooXOooooooooOooOoOOOOoOOoo++++oO+OOOoOo+o++oOOOoOoOOOOooooooOoooooXoXOXOXooXoXoXoXoXXX.XX.X.... ..     ..  ........X.X.XXXXXXXoXoXOoXOoXooooooooOoOoOOoOoOOOoOOOo+OOOOo+++++++++O++++O+OOO+OOOOOoOoOOOOoOoOoooooooooooooXoXoXXXoooXXXoX..XXX....... .   .  ... ....XX.XXXXXooXXXoOoXXooooooooOoOOOoOoOOOOOOOO+O+++++++++++++++++++++O+O+O+OOOOOOoOOOOOooooooooooXOXOXXXXXoXoXX.XX.X... .    ..  .......XXXXXXXoXoXXoXOooooooOooOOooOoOoOOOOOO+++++++++++++++++@+++++++++++O+OO+OOoOoOOoOOoooooooXooXoXoX",
"XXXoXXXXXX.X.XX...XX.X...........  .       . . .. . . ...........X..X..X...X.XXXXXXX....X....X..XX...........  ..    ..        .  . ... .............X.X.XX..XX.X.X..X.XX.XX.XX....X.......  ... . ..   .  .   .  ..    . .......X.X.XXXXXXXoXoXXXoXoXXoXoXoooXoXoooXooXoooXoXXoooXooooXoooXXoooOXooooXooXXXXXXooXXXoXXXXXXXXX.XX.XX......X. .......    .  .     .  .  . .. ...  .... ..  ...X.XXX..XX..XXXX..XXXXXX.XXXXXXXXoXXXXXoXXoXoXXoXXoXoXoXoXoX.oXoXoXoXoXoXoXoOXOXoXooXOXoXoOXOXOXoXoooooXoXoXooXoXoXooXXXXXoXXXXXXXX.X.X.X.XX..... .  ..    ..  . .......X.X.XoXXXoXXXXooXoXoXXoooXoooooooooooOoOoooOoOoooooOoOoOooOooooooooooXooOXoXXoXXoXXXXXoXXX.X.X......  .    . .   ...XX.X.XXXXXoXXXoXOXOXoooXooooooooOoooOooOOoOooOoOoOoooOoooooooooooXooOXOXXoXXoXXXXXXX.XX.X.....  . .  ..  .....X..XX.XoXXoXXooXXOXoooooooooooooooOoOoOOoO++o++o++OOO++OOOOOOO+o+oOOOoOoOoOOoOoooooooooooXooXooXXXXXXXX.XX.X. .....  . .   . . . .....XXX.XXXooXXXXoXXoXoXOXoooooooooooooOOOoOOooOOOOOOOOOO+o++o+++o++o+O+++o+OOOOOOOOOoOOOOoOOoOoooooooooooOXoooXXXXoXXXXX.X...X....  .     . .. ...X.X.XXXXXXXooXXXoXoXoooooooooooOoOoOOoOOO+O+O+++O+++++++++++++++++++O++++OOOOOOOoOoOooOoooooooooXoOoXXXXXXXX.X........      .  ...XX..XX.XoXXoXoXoXooooooooOooO+oOOOOOOOO+OO+++++++++@++@++++@++++++++++OOO+OOOOOOOOoOooooooooooOXOXo",
"oXXoXXXXXXXXXXX.X........... . . .        . .      ....X. ..XX...X...X...X.XX.X..XX...XX..X...XX............. ..  .. .        . ....  . ....... ..X....X.XXX.X.XXXX.XXXXX.XXX.X....X..X.X............ .  ..   .     .  .. . .......X.XX.XX.XXXXXXXXoXXXXoXoooXoXoXoooXoooooXoXoXXooooooXXoXXoooXXoXOXoXoXoXOoXoXXoXXXXXooXXoXXX.XXXX.X.XX.X.......... ..    . .            . .  ..   .. .. .....XX......XX.XXX...X.XX.XXX.XXXXoXoXXXXoXXXXXooXXoXoXoXoXooXooXXooOXoXoXoXoXoXXOooooXOoooooXoXoooXoXoXoooooooooXoXXoXo.oXXXoXXoXoX.XX.X.X....... .   .    .    . .....XX.X.oXoXXoXooXXoXOooooooXooooooooooooooooOoooooOooooooooooooooooooooooooXoooXXOoXXoXXXXXX.X.X.. .. . .    ...  . ....XXXXXXXXXoXoXooooXXoooooooooooooOoOooooooOoOooooooooOooOoOooooooooooXOXOXoXoXXoXXXXX.X.XXX... ..  .  .. . .....X.XXXXXXoXXXXXOoXoooXoooooooOoooOoOOOOoo++o++OOOOOOOOOOOOOOOOo++o+oOoOooOOoOoooooooooooooXoXOXoOXXXooXXXXXX.X....... .   .  .  .....X.XXX.XXXoXXooXXoXOoXOooooooooooooooOOoOOOOOOoOOOOOO+o+++o++++++O+Oo++O+O+OOOOOo+OOoOOOooOooooooooooooooXXoXXXoXXXoXXXXXX.X...... ..    .  .....XX.XXXXXXXoXXXoOOXoOooooooooOoOoOOO+OOOO+OO+++O+++++++++++++++++++++++++OO+OOOO+OOoOOooooooooXooXoXooXXoXo.XX...X...... . . .  .X...X.XoXXoXXXoXooXXooooooooooOoOOOOOOO+o+++++++++++++@++++++@+++++++O+O+O+OOOOOoOOooOooooooooooXoX",
"oXXoXXXoXXXX.X.X.XX.XX........ ..  .          . .. .. . .X.. .X..X.X...X..X..XXXX.X.X...X.X.X...X........... .. .           .        .X. ...X........X..X.X.X..X.X.X.X.X.X.X.XXXXXX.XX.X.X.X........... .   . .  .      . .. ........X.X.XXXXXXXXoXXXooXXXXXoXXoXooXooXoXXoooooooooXXoooooooXooXOXoXOXOXoXoXoXOXXoXoooXXoXXoXoXXXXXXXXXX.X.X.XX.X.... ... .. .. . .            .  .  ..... X. X ..............XXXX.XXX.X.oo.XoXXXXXoXoXoXoXXXXoXoXoXoXoXXoXooooXXoXOXOXoOXooooXooooooooXoooOXooooooooooXoXoXoXoXoXoXoXoXXXXoXXXXXXXX.XXX........ .. .     . . .. ..X..X...XXXXXXXXXoXooXoXXooooooooooooooOoOoOoooOoOoooOoOoOOoOoooooooooooXoooooXOXooXXoXoXXXXXX.X.X. . .         .....X.....XXooXXooXXoXoXOXoooooooooooooooooOooOoOOoOOOoOOOooooooooooooooooXXooXoXoXooXoXXoXo.X.X...... ..    .  ......XX.X.XXXoXoooXXXoXooOoooooooooOoOOoooOO+o++ooOOOOOOOOOO+oOOOOOOOO+O+OOOoOoOoOOoooOooooooooooXoXXXoOXXoXXXXXX.X...... ...     . . . ....X.X.XXXXXXXXoXXXXOoXoXooooooooOooooOooOOOOOOoOOOOO++++++o++OO+O+++O+O+O+OOOOOOOOOOOoOOoOOooOooooooooooOXoooXooXXXooX.XXX...... . ..   .  .. ... X.XXXoXoooXXXXOXXoooooooooooOooOOOo+OO+O+OO++O++++++++++++++++++++++O+++OO+ooo+OOoOooOooooooooXOXXoXoXXXX..o...X..         . .. X.X..XXXXoXXoXXOXoooooooOooOOoOoOOOO+++o+++++++++++++@@++++++++++++++O+++OOOOOoOOOOoooOoooooooXo",
"XXXXXXXXo.XXX.XX.X.X........  .. .  .     .  . .. .... X...X......X.X.X.XX...XX.....X....X..X.............. .....                 .................X.X.XXXXXX.XXXXXXXXXXXXXXXXXXXXXXXXX.X.X.X.XX...X.... ....               ... ......X...X.XXXXXXXoXXXXXoXooXooooXoXXooooXoXooooooooooooXooooooooXoXooXXOXooXoXXXXoXXoXXXXXXXooXXXXoXXXX.XXX.X...............  . . .. ..         .  .   .. . ... .........X.X.X.XXX.XX..X.XX.XXXXXXXXXooXoXXoXoXoXo.oXooXoXoooXOXOXOoooooXoooooXoXooXoooXoooooXooXoXooooXooooooXoooXoXoooXXXXXXXoX.XXX.X..X.X ..... .     . .. ......XX.X.XoXXXXXXOXoXooXooooooooooooooOoooooooooooOoOooooooooOOOooooooooOoXooXoXOXXXXXoXoXXXXXXXX.X... . .    . . ......XX.XXXXXXXXXooXOoXooooXooooooooOooooooOoOooOoOoOoOOoOooOoooOOoooooooooOooXoXXXXXooXXXXXX.XXX.. .. .     ..  . .. .XXXXXXoXXXoXoooXXOoooooooooOoOOoOoOoOo+o+o+OOOOOO+++++++OOOOOOOOo+o+OoOoOooOoOOooooooooXoXOooXoXoXXXoXXXXXXX.X...... .. .    .   ....X..XXX.XXoXoXoXXXXoXOoooooooooooooooOoOOoOOOOOOOOO++o+oO+O++++O+O+O+++OO++oO+OOOOoOoOOOoOo+OoooooooooooOooXoXooXXoXXXXX.X...... .      .   .....XX..XXXXXoXXoXoXooooooooooOoOOoOOOoO+OOOOO+O+++++++++++++++++++++++++++OOOO+OOooOoOooooooooXOoXOXXXooXXoXX....XX....     ...........XXXXXoXOXXXoXoooooooooooOoOOOOOOOOO+OO+++++++++++++@++@+@@++++++++++O+OOOOOoOOooOoooooooooo",
"XooXXoXXXXXXXXXXXX...X.........    .      .  .  .   ...... X..X.X...X..X...XXX.XXXX...XX...X..XX..X........  .    ...      . ..  . .  .... ..XX..XX.XXXXX.XXXXXXXXXXXXXXXXXoXXXXXXXXXX.XXX.X.XX........... . ....  .     .. .  .........XX.X.XXXXXXXoXXoXXoXXoXXXXoooooXoXooXoXooXooooXoooooooXooXOoooXooXooXooXOXoXooXoXooXoXXXXXXoXXXXXXXX.XXX.XX.X.X...X ....X.     .    .  ..     ..     ..  .. .............X...XXXXX.XXXX.XoXXXXXXXXoXXoXXXooXoXoXXoooXXooXoXooXoooXOooXoXOooooooooooooooooooooooXooXXooXooXoXooo.XXXoXooXXXXXXX.XXX...... .     .    . . .....X...XX..XXoooXXXoXXoooXXooooooooooooooOoOoOooOOoOoOOoOOOooooooOoooooooooOXoooXoXOOXoXXXoXXX.XXX.X....   .    .   ..X...XXXXXXoXXoXXXXXoXooXoooooooooooOoOoOoOoOOoOoOoOooOoOOoOoooooooooooooXooOXooOoXXXXooXX.XXX.......  ..     .. ...XX.X..X.XXoXXXXXooXXooooooooooooOoOOOOOOo++oOOOOOOo+O++o++O+O++OOOOOOOOOOOOoOOoOooOoOoooooooooOXooXooXXoXXXXXXX.X.......   .    . . .....X.X.XXXXXXoXoXoXoXoXoXoooooooOoOooOoOoOoOOoOOO+oO++++O+O++O+O+O+++++OO+++O+O+O+O+OOoOOOooOOooooooooooXooXoXXoXXXoXXX.X.X.X.... . .    .   .....XX.XXXoXXoXoXoXoXoooooooooOoOoOOOooOOOO+++OO+++++++++++++++++++++++++OOOOOO+oOOOoOOoOOoooooXoooooXXXoXXXoXXX... .. .        ....XXXX.XXoXXXoOXOoXoooooooOooOoooOOOOOOO++++++++++@++@+++++++++++++++++O+OOOOOOOOOOOOOooooooooo",
"XXXooXXXXoXXX.XX..XX............ ..       ..  .  ..... . . X...X..XX..X..X.XXXX.XXX....X.X...X............ ....  .   .     .   .... . .....X...XX.X.X.XXXXXXX.XXXXoXXoXXXXXXoXXXXXXXXX.XXXXXXXX.XX...X........   . .  .     .    ............XX.XXXXXXXXoXXoXXXooXXoXoooooXoXooooooooooooXoooXooXoooXoooooXXOXXOOXoXoXoXoXoXoooXoXoXXXXXoXX.XXXX..XX.XXX....X......... ...  .              . .   .   .. . .........X.....XXXX..XXXXXXXXXXXoXoXoXoXXoXoXooooooooXOXoooXoXoOooooooooooooooooooooooooooooooooooooXoooXooXXooXoXoXXooXXXXXXX.XXX.XX.........    ..  . . ...X.XXXXoXXXXoXXXoooooXXOXoooooooooooooOoooOoOoOoOoOoOoOoooooooOoOooooooXooooXOOXXooXXoXXXXX.XX.X..... .       ... ..X.X.X.XXoXoXXXoXOXoXooooooooooooooOooOOoOooooOooOooOOooOoOooOooOoOoooooooXoooXooXXXooXXXXX.XXX.X... ...     .  ........XXXXoXoXXXoXooXXooXOooooooooOoOoOOOo+OOOOOOOO+O++++o++oo++oo+OOOOo+oOOOOoOOoOOoOooooooooXooXoXXXoXXXoXoX.XX.XX.....  ...      . .. .X ..XXXXXoXXoXXoXXooXooXoooooooOooOOoOOOOOOOOOOOO+OO++O+O+O+O++++++O+++++O+O+OO+OOoo+ooOOoOOoooOoooooooooXoXXoXoXoXX.X.XXX...X....    .   ......XXXXXXoXoXXXXOOXoXooooooooOOoOOOOOOOOOOOOO+++++++++@++++++++++++++++O+O+OOOOOOOOoOooOooooooOXXOXXXXoXXoXX.XX...... .    .  ......XXX.XXoXXXXoXooooooooooOoOOoOOOoOOO+O+O+O+++++++++++++++++++++++++++O+O++OOOOOOOoOOooooooo",
"ooXXXXXoXXXXXXX.XX...X...... .               .  . . .......X....X.........XX.X.X.XXX.X...X.X..X.X........ ..  .  . .      .  . .  . .............XXX.XXXXXXXXXoXXXXXXXoXXoXXXXXXXooXXXXXXXXXXX.X.XXXX........... ..  .         . . . ......XX.XXX..XXXoXXXXoXooXoXoXoXXXXoXoooXoXXooXoXoooooooXoOooXOooXOXoooooXXoXOXOXoooXXXXXXXoXXoXXoXXXooXXXoXXXXXXXX.XXX........... ... ... .. .         .    .  .  . ..........XX..X.XXXXX.X.oXoXXXXXXoXXXXXoXoXoXXXoXXXooXoXOoooooXoXoooooooooooooooooooooooooooooooooooooooooooooooXoXoXoXXooXXXXXXXXX.......    .    . .........X...XXoXoXXoXXooXXooXoooooooooooOoOoooOoOoOoOoOoOoOOoOoOoOoooooooooooOXXooXXooXoXXoXoXXXX.X..XX. ... .    . .... ...X.XX.XXXXooooXoXOooXoooooooOoOoOooOoOoOOOOOOOOOOoOOOoOoOooOoooooOooooooOXoooXoOoXXXXoXXX.X.X... ..   .. .   . ....XX.X.X.XoooXXXoXOoXooooooooOoooOoOoOoOOoOoOO+OOO+o++o+++++++++O+OOO+oOOOo+oOoOoOoOoooOoooooooOoooXOXoXXXoooXXX..X...X...   .      .. ......X..XXXXoXoXoXoXooXoooooooooooooOoOooOooOOOOOO++oO+O+O++++++++++O+++++O+O+++O++OO+OoOOooOoOooooooooooooOXXooXXXXoXX.X.X....         .  ........XXXXXXXoOXXXOXoooooooooooOooOOOoOOOO+O+O+++++++++++@@++@++++++++++O+O+OOOOOOoOOooooooooooooXOooOoXXoXXX..X......  .    .. .....X.XXXoXoXoXoXXooooooooooooOOOOOoOOO+O+O+O+++++++++@@++@+@+@+++++++++O+OO+OOOOOoOooOOoOooo",
"XXoXXXXXXoXXXXX..X.X..............      .     .... .........X.X.X..XX..X.X.XX.XXXXX.X.X...X.XX....... ... . ...   .          .  ....... .......XXXX.XXXXXXoXXoXXoXXXXoXXXoXoXoXoXXoXoXXXoXXXXXXXXXXX.X.X..XX.X...... . ...        ..   .......X.XXXXXXXXXXXXoXXXoXXoXXooXooooXoXooXooXoooooooXooXoXOXoXOoooOooooooXXoXoXXoXOoXXooXooXooXXoXoXXXXXXXXXXXX.XXXXXX.X..X..X.. X  ... . .  . . .     .   .  ...... . ........X...X.XXXXX.XXoXXoXoXoXoXoXoXooXoXooXoXoOXOXoXOooooooooooooooooooooooooooooooooooXooooooXoooooXooXoXo.oXXXXXXoXXXXXX.XX...... . .         ......X.XXXX.XXXoooXXXXoXoXoooooooooooooOoOoOoOoOoOoOoOoOooOoOoooOoOoOooooooooOooooXOXXXXXXXoXXXXXX........  .    .   ....X.XXXXXXXXXXXXoooXoooooooooooOooooOoOoOoOOoOoOoOOOoOoOOOoOOoOooooOooooooooXooooXXoXOXXooXXXX.X.X.X.. .  .     ......X....XXXXXoXoXXXXooooOoooooooOoOoOoOOOOo+Oo+OOOO++++++++O+++O++o+OO+OOOOOOoOOOoOooOoooOoooooooXooXooOXoXXXXXXXXXXXX.X........   .  .....X ...XX.X.oXXXXXoXXoXOXooooooooOoooOOoOOOOooOO+O++o++O+O++++++++++++++++O++O+O+OOOOOOOoOOOOoOoooooooooXoXooXoXoooXoXXXXX.... .. ...   . . ...XX.XX.XoXXooXXoXoXOoooooooOoOoOOooOOOOOO+O++++++++++@+++++++++++++++++O+OOOOOOOoOOooOooooooooXoXoXXXXXXXoo.XX.X.... . .    .. ....XXXXX.o.XXXoooXOXoooooooooooOoOOOOOOOO+OO++++++++++@++@+++++@++++++++OO+O+OO+OoOOOOoOoooo",
"XoXoXXXXXX.XX.XXX...X....... ...  .       ...   . ............X......XX.XXX.XX.X.X.X.XX.X......X.X..........  ...          .  . . ........XX.XXX.XXXXXXXXXXXXXXXXXoXXXXoXXXoXXXooXXXXXXoXXXoXXoXXX.XXXXXX.X........... .   .    .   ...  .........X..XXXXoXXXXXoXXoXXoXooXoXoXoooXooXoooXooooooooooooooooXoXXOXooXOoXOXOOXoXoooooXXoXXoXXoXXXooXXXoXXXXXX.XX.XXXX.X.X....X.X......X...       . .    .  .    . .. . ..........X....X.XXX.XXXXXXXXXXXoXo.oXoXoooXoXoXoooXooXoooooooooooooooooooooooooooooooooooooooooooXoooooooXXoXooXXXXoXXXXX.XXX........   .   .   . .....X...XXXXXXXoooXooOXXOoXoooooooooooooooOoOoOoOoOoOOoOoOOoOoooooOoooooooooXoOXoXOoXooXXXXXX.XX.X.. .    .   ...... ...XXXXXoXoXXoXXXoXooooooooooooOoOoOoOooOoOOOOOOOoOOOOOoOOoOoOOoOooOooooooooOXoooXoXoXXXoXXXXXXXX.X.....  . .     ....X.X.X.XoXXoXooXoXoXXoXoooooooooooOooOO+o+oOOOO+o++o++o+O+O++++O++O++OOO++OOoO+OOoOOooooooooooooooXoXoXXooXXooX.X.X..... ...      .  . .......XX..XXooXXooXoXOXoXoooooooOoooOoOoOOOOOo+O+++O+O++++++++++++++++++OO+O+O+O+OOOOOOOoOOooOOoooooooooOXoXoXXoXXXXoX.X.X......   .  .. . ......XXXXXXXXoXXOoXoXoooooooooOoOOOoOOOOO+O+++O++++++++++@+@+++++++++++O+OOOOOOOOOOOOOoOoooooooOXooXoOXXXXXXXXXX.X.... .      . .. .X.X.XXoXoXXoXXoXooooooooOooOoOoOOOOO+OO++++++++++++++++@++++@+@++++++++O++oOOOOOOOoOoOo",
"XXoXXoXXXoXXX.XXX......X .X. . ..              . . ... ..X.X...X.X.XXX.X.XXXX.X.X.XXXX.XX.XX................  .   ..        .    ......XX..X...XXXXXX.oXXXoXXXXoXXooXooXooXXoXXXoXXXXXoXoXXXoXXXXXXXXXXXXXX.X..XX.........   .        .  .  ......X.X.XXXXXXXXXXXoXoXoXoXoXooXooXooXoooooooXoooooooXoooXoooooooXoooooooXoXooXXoXXoXoooXooXXXXXXXoXoXXoXX.XXXX.XXX.X.XXXX.XX.X........... .. .  .. .       .   . .  .  ...........XXX..XXXXXXXXXXoXoXXoXooXXoooXoXOXoXoooXXoooooooooooooooooooOooOoOoOoOooooooooooooooXooooXooooXoXXooXoXoXXX..X.X.X........   .   ..  . ...X.XX.XXXoXXXoXXOXXooooXOoooooooooOoOoOoOoOoOoOoOoOoOooOOoOoooooooooooooooXoXXoXoXXXXooXXXX.X.X.X..... .    .  .....X..XXXoXXXoXXXoXOXooXooooooOooOooOOoOoOOoOoO++o++oo++o+O+OoOooooOoooOoooooooooooXOOXoXXXoXoX.X.X.X. . .       . .   .XX..XXX.XXXXXXoXoXXooOoooooooOoOooOoOOOOOoOOOOO++O+o++O+O+++++++++O+O+OOOOOOooOOOOooOoOooooooooooOXXOoXXOXoXXX.XXX.XX..........    .  ......X..XXXXXXXXXooXXoXoXoooooooooOoooOoOoOoO+OOo++O+O++++O++++++++++++++O+O+O++O+OOOOOOOOOooOooooooooooXoXXoXXoXXXo.oXX.X.X..... .     .  ........X.oXoXoXoXoXoXooooooOooOoOOOOoOOOOO+OOO+++++++@@++@@++@++@+++++++O++++OOOOOOOoOOooooooooooXOXXoOoXXoX.X.X......  .. ..   ....X..X.XXXXXoXXXOXooooooooooOoOoOOOOOOOOo+O+++++++++++++++@++@++++++++++O+O+OOOOOoOOOooO",
"oXoXXXXXXX.XXX.X.XX..X.... .....  ..       . .. .  X.........X....X.X.XXX.X.X.XX.XX.X.X..X..XX.XX.X....... ... ..          .  ... . .........XX.XX.XXXXXXXXXXoXXoXXXXXXXXXooXXOXXXoooXoXXXoXXXoooXoXXXoXXX.XXXX....X..... .. . . .      . .. . .....X..XX..XXXoXXXXXXXXoXoXXXXXoXooooXoXooooooXoooooXoooooXoooooooXoXooooooXooooOXOXoXoXOXXoXooooXoXXoXoXoXoXoXXoXoXX.XXX..XXX....... ...... .  .     .       .   . ... .......X....XXX..XXXoXXoXXoXXoXoXooXXoXooXooOooXOooooooooooooooooOOoooOooooooooooOooOoooooooooooXooooXooXOXXoXoXXXoXXoXX.XX......  .. .     ...........XXXXXXoXXoXoXoXoooooXoooooooOoooooOoOoOoOoOoOoOoOOooOoOoOOoOoooooooooooOoXooXXOXXXXoXXXXX.XX. ..  .    . .. .....X.X...oXXXooXoXoXooooooooooOoooooOoOOoOOOOo++oo+O+o++oo+OOOOOOoOOoooOoooooooOXoXXoXooXoXXXXXX.X.XX.....   ..    .... .X.XXX..ooXXoXoooOXXooooooooooOOoOooOOoOOoOOOOO+o++++O+O+++++++O+O+O++O+OOOOOoOOOOoOoOoOoOooooooooXXooXXoXoXoXXXXX.X.X.. .    .        ....X .XX.XXoXXXXXoXoooooooooooooooOoOoOOOOooOOOO+O++O++++++++++++++++++++O++++OO++OOOoOOOOooOooOoooooOoOOXOoXXoXoXXXXXXXX......  .   .  .....XXXX.XXXXXXoXoOoXoooooooOooOoOOoOOO+OO+OO+O+++++++++++++++@+++++++++++O+O+OOOooOOooOOooooooooXXooXXXXoXXXXXXXX......  .    .  ....XXX.XoXoXXooXoXoooXoooooOooOOOOoOOOOO++O++++++++++@++++++++++++++++++O+O++OOOOOOOOOo",
"XoXXXXXoXXX.X.XXX..X..... .  .  .        .  .   . .............XX.XX.X.X.X.XXX.XXX.XX.XXX.X............... ...  .   .      . . .. ......X..XXXXXXXXXXXXXXooXXXoXoXXXooXooXXXXoXXXOXooXXXXOXoXoXXXoXXoXXXXXXXXX.XXXXX..X......  .. .     .   ...........X..XXX.XXXXoXoXXXXooooooXooXooooXoXoXoXoooooooooooXoooooooXoXoooooooXooooXoXOXOXOXoXOooXOoXXXXXXXoXXXoXoXXXX.XXXX.XXX.XXXXX.X.X ......... ....  ..        .. . ... . ....X.X..X.XXXXX.XXXXXXXXXoXXoXoXoooXOooXoXOooooooooooooooooooooooooooOoooOoooOooooooooooooooooooXXooXoooXXoXoXoXXXXXXXX..........      .  .......XXXXXXXXoXoXXXooXoOXooooooooooooOoOoOoOoOoOooOOOOoooOoOoOooooOOoOoooooooooOXXOXXoXXoXXXXX.XX.....X.  .      . ..X..X.XX.XXXoXooXOXOXXooooooooooooOOoOoOOOOoOoo++++OooO++oooOOOOoOooOOOoooooooooooooXoXOXXXXoXooXoX.X..X....      ..   ....XXXXXXoXoXXXooXXOXoOXooooooOoOoOoOOO+o+OOOOO+++++O+O+O+O+++++O+O++++O+O+OOOoOOoOOOoOoOoooooooooooooXoXoXOXXo.oXX.XXX XX. . ...    .  ..  .X..XXXXXXXXoXoXXXXXoooooooooooooOOoOO++OO+O++OO+++O++++++++++++++++++++++O+O+O+O+OoOOOOoOOoooooooooooXOXoXXXoXoX.XXXX....... ..     . ....X..X.ooXoXXXXoooXOoXoooooooOoOOOOOOOOO+++O+++++++++++++++++++++++++++++O+OOOOOOOOoOoOoooooooooXoOXXoXoXXXXX.........     .... .....XXXXXXooXXoooOXoooooooooooOOOOOOOOO++O+++++++++++@++@@++@@+++++++++O+O+O+OOOOOoOO",
"XXXooXXXXXXXXX.XXX...X....... ..  .        .. ... ..........X..X.X.XX.X.XXXXX.XXX.XX.XX.XX.XXX..XX....X. .. ....  ..         . .. .. .......X.XXXXX..XXXXXXXooXXXXooXXoXoXoooXOoXXoXoXooXoXoXXoXoXXoXXoXoXXoXXXXX..X.X.......... .  . .    .  .  ...X....XX..X.XXXXXXXXoXXXXXXooXXoXXXoooXooXoXoooXoooXoooXoooXoooooooooXooooXooOXoooXoXOXoXoXoXoXooXooooXoXXXoXXoXoXXXXoXXXX.X.X.XXXX.XX. X...... . . .   .        .   . .............X.XX.XXXXXoXXoXXXoXoXXooXoXoXoooooooooooooooooooOoOoOOoOooOoooOoooOoooOOooOoooooooooooooXOooXXooXXoXXXoXoXX..XX......   .    .  . ....X.X.X.XXoXXXXOoXXoXXooooooooooooOoooOoOoOoOoOOoOOoOOOOooOoOOoOooooooooooOXooooXOOXoXoXXXoXXX......... ..   .   ....X.XXXoXoXXXoXoXoXooooXoooooooOOooOoOOoOOOOOOoo+oO+++OoOOOOOoOoOOOoOoOoOoooooooooXOOXXoXOXoXXX.XXX.XX.... ..  .    ... ....X.X..XX.oXXXXOXoXXooXooooooOooOooOOO+o+oOOOOo+O+O+O+O+++++O+O+O+O++OOoOOOOOOOOOoOOOoOoOoooooooooXOooXXoXXoXXXoXXXX..X....X  ...     . ....X.X.XXXXXoXXXooooXXoooooooooOoooOoooOO+oOOOO+O+O+O+++++++++O++++++++++++O+O+OO+OOOooOOOoOOoOoooXoooXooXOOXXXoXoXX.X.X... ...  . .  .......XXX..XoXoXoXXoXoooooooOoooOooOoO+o+O++O++++++++++@@++@+++@++++++++++O+OOOOOOOO+oooOoooooooooooXoXXXoXoXXX.XX...... . .      ......XXXXXXXXXXoXXoXooooooooOoooooOOOO+o++O+++++++++++++++++++++++++++++++OOOoOOOOOOO"
};
