/* XPM */
static char * toolbuttonbg_xpm[] = {
"46 40 85 1",
" 	c None",
".	c #121212",
"+	c #000000",
"@	c #A5A5A5",
"#	c #A4A4A4",
"$	c #A1A1A1",
"%	c #9A9A9A",
"&	c #949494",
"*	c #8C8C8C",
"=	c #878787",
"-	c #818181",
";	c #7C7C7C",
">	c #757575",
",	c #6F6F6F",
"'	c #6A6A6A",
")	c #636363",
"!	c #5D5D5D",
"~	c #585858",
"{	c #525252",
"]	c #4C4C4C",
"^	c #454545",
"/	c #404040",
"(	c #3C3C3C",
"_	c #3D3D3D",
":	c #383838",
"<	c #5A5A5A",
"[	c #656565",
"}	c #626262",
"|	c #515151",
"1	c #2A2A2A",
"2	c #131313",
"3	c #575757",
"4	c #616161",
"5	c #606060",
"6	c #5F5F5F",
"7	c #565656",
"8	c #3E3E3E",
"9	c #010101",
"0	c #5B5B5B",
"a	c #5C5C5C",
"b	c #535353",
"c	c #3A3A3A",
"d	c #212121",
"e	c #090909",
"f	c #4D4D4D",
"g	c #555555",
"h	c #434343",
"i	c #272727",
"j	c #0D0D0D",
"k	c #4A4A4A",
"l	c #505050",
"m	c #4F4F4F",
"n	c #3B3B3B",
"o	c #1E1E1E",
"p	c #040404",
"q	c #484848",
"r	c #1D1D1D",
"s	c #222222",
"t	c #070707",
"u	c #313131",
"v	c #151515",
"w	c #363636",
"x	c #373737",
"y	c #252525",
"z	c #0C0C0C",
"A	c #323232",
"B	c #303030",
"C	c #2E2E2E",
"D	c #202020",
"E	c #2C2C2C",
"F	c #2B2B2B",
"G	c #2D2D2D",
"H	c #030303",
"I	c #232323",
"J	c #262626",
"K	c #0B0B0B",
"L	c #181818",
"M	c #101010",
"N	c #171717",
"O	c #060606",
"P	c #020202",
"Q	c #464646",
"R	c #333333",
"S	c #1B1B1B",
"T	c #191919",
".++++++++++++++++++++++++++++++++++++++++++++.",
"++@@@##################$%&*=-;>,')!~{]^/(_::++",
"++#<[[[[[[[[[[[[[[[[[[[[[[[[[[[[[[[[[[}|(12:++",
"++#3444555444554554645444444444545781.++++9:++",
"++#{000aa0000aa0a00a000000<00<bcde++++++++9:++",
"++#fgbgg7gbgbg7bggbgbbggbgghij+++++++++++++:++",
"++#klmlllllmllmmmmmllfmmnop++++++++++++++++:++",
"++#^kqkqqkkqqqqkqkqkqcrp+++++++++++++++++++:++",
"++#8hhhhhhhhhhhhhh_st++++++++++++++++++++++:++",
"++#n___________(uv+++++++++++++++++++++++++:++",
"++#wxxxwwxxxxxyz+++++++++++++++++++++++++++:++",
"++#uuAABBBBCDt+++++++++++++++++++++++++++++:++",
"++#EE11FFGrH+++++++++++++++++++++++++++++++:++",
"++#iIJyJot+++++++++++++++++++++++++++++++++:++",
"++#doDrK+++++++++++++++++++++++++++++++++++:++",
"++#oLM+++++++++++++++++++++++++++++++++++++:++",
"++#NH++++++++++++++++++++++++++++++++++++++:++",
"++#t+++++++++++++++++++++++++++++++++++++++:++",
"++#O+++++++++++++++++++++++++++++++++++++++:++",
"++#O+++++++++++++++++++++++++++++++++++++++:++",
"++$p+++++++++++++++++++++++++++++++++++++++:++",
"++%p+++++++++++++++++++++++++++++++++++++++:++",
"++&p+++++++++++++++++++++++++++++++++++++++:++",
"++*p+++++++++++++++++++++++++++++++++++++++:++",
"++=p+++++++++++++++++++++++++++++++++++++++:++",
"++-p+++++++++++++++++++++++++++++++++++++++:++",
"++;P+++++++++++++++++++++++++++++++++++++++:++",
"++>H+++++++++++++++++++++++++++++++++++++++:++",
"++,H+++++++++++++++++++++++++++++++++++++++:++",
"++'H+++++++++++++++++++++++++++++++++++++++:++",
"++)P+++++++++++++++++++++++++++++++++++++++:++",
"++!P+++++++++++++++++++++++++++++++++++++++:++",
"++~P+++++++++++++++++++++++++++++++++++++++:++",
"++{P+++++++++++++++++++++++++++++++++++++++:++",
"++]P+++++++++++++++++++++++++++++++++++++++:++",
"++^P+++++++++++++++++++++++++++++++++++++++:++",
"++/P+++++++++++++++++++++++++++++++++++++++:++",
"++(P+++++++++++++++++++++++++++++++++++++++:++",
"++_(qqqqqqqqqqqqqqqqqqqqqqqqqqqqQ8:REJdSLT22++",
"++++++++++++++++++++++++++++++++++++++++++++++"};
