/* XPM */
static char *dummy[]={
"24 24 3 1",
"a c #000000",
". c #cccccc",
"# c #ffcc33",
"........................",
".######################.",
".######################.",
".######################.",
".######################.",
".######################.",
".######################.",
".######################.",
".######################.",
".######################.",
".######################.",
".######################.",
".######################.",
".######################.",
".######################.",
".######################.",
".######################.",
".######################.",
".######################.",
".aa..aaaaaaaaaaaaaaaaaa.",
".a.##.aaaaaaaaaaaaaaaaa.",
".a....aaaaaaaaaaaaaaaaa.",
".aa..aaaaaaaaaaaaaaaaaa.",
"........................"};
