/* XPM */
static char *dummy[]={
"49 23 2 1",
". c #000000",
"# c #ffffff",
".................................................",
".................................................",
".........................#.......................",
"........................###......................",
"........................###......................",
"........................####.....................",
".......................#####.....................",
".......................######....................",
"......................##..####...................",
"......................##....###.......#..........",
"............##.......##......##.......##.........",
"............##.......##.......##.....###.........",
"..........####......##.........##...#####........",
".........######....##...........##..##.###.......",
"........########...#.............####...###......",
".......####...##..##..............##......#......",
"......###......##.#.......................##.....",
".....##.........##.........................#.....",
"....##...........................................",
"....#............................................",
".................................................",
".................................................",
"................................................."};
