/* XPM */
static char *dummy[]={
"383 22 2 1",
". c #333333",
"# c #ffcc33",
"...............................................................................................................................................................................................................................................................................................................................................................................................",
"...............................................................................................................................................................................................................................................................................................................................................................................................",
"...............................................................................................................................................................................................................................................................................................................................................................................................",
"...............................................................................................................................................................................................................................................................................................................................................................................................",
"...............................................................................................................................................................................................................................................................................................................................................................................................",
"...............................................................................................................................................................................................................................................................................................................................................................................................",
"...............................................................................................................................................................................................................................................................................................................................................................................................",
"...............................................................................................................................................................................................................................................................................................................................................................................................",
"...............................................................................................................................................................................................................................................................................................................................................................................................",
"...............................................................................................................................................................................................................................................................................................................................................................................................",
"...............................................................................................................................................................................................................................................................................................................................................................................................",
"...............................................................................................................................................................................................................................................................................................................................................................................................",
"...............................................................................................................................................................................................................................................................................................................................................................................................",
"...............................................................................................................................................................................................................................................................................................................................................................................................",
"...............................................................................................................................................................................................................................................................................................................................................................................................",
"...............................................................................................................................................................................................................................................................................................................................................................................................",
"...............................................................................................................................................................................................................................................................................................................................................................................................",
"...............................................................................................................................................................................................................................................................................................................................................................................................",
"...............................................................................................................................................................................................................................................................................................................................................................................................",
"...............................................................................................................................................................................................................................................................................................................................................................................................",
"..###########################################################################################################################################################################################################################################################################################################################################################################################..",
"..###########################################################################################################################################################################################################################################################################################################################################################################################.."};
