/* XPM */
static char *dummy[]={
"383 22 2 1",
". c #000000",
"# c #cc9933",
"...............................................................................................................................................................................................................................................................................................................................................................................................",
"...............................................................................................................................................................................................................................................................................................................................................................................................",
"...............................................................................................................................................................................................................................................................................................................................................................................................",
"...............................................................................................................................................................................................................................................................................................................................................................................................",
"...............................................................................................................................................................................................................................................................................................................................................................................................",
"...............................................................................................................................................................................................................................................................................................................................................................................................",
"...............................................................................................................................................................................................................................................................................................................................................................................................",
"...............................................................................................................................................................................................................................................................................................................................................................................................",
"...............................................................................................................................................................................................................................................................................................................................................................................................",
"...............................................................................................................................................................................................................................................................................................................................................................................................",
"...............................................................................................................................................................................................................................................................................................................................................................................................",
"...............................................................................................................................................................................................................................................................................................................................................................................................",
"...............................................................................................................................................................................................................................................................................................................................................................................................",
"...............................................................................................................................................................................................................................................................................................................................................................................................",
"...............................................................................................................................................................................................................................................................................................................................................................................................",
"...............................................................................................................................................................................................................................................................................................................................................................................................",
"...............................................................................................................................................................................................................................................................................................................................................................................................",
"...............................................................................................................................................................................................................................................................................................................................................................................................",
"...............................................................................................................................................................................................................................................................................................................................................................................................",
"...............................................................................................................................................................................................................................................................................................................................................................................................",
"###############################################################################################################################################################################################################################################################################################################################################################################################",
"###############################################################################################################################################################################################################################################################################################################################################################################################"};
