/* XPM */
static char *dummy[]={
"24 24 3 1",
"# c #000000",
". c #ffcc33",
"a c #ffffff",
".................#######",
"...........a.a.a.#######",
".................#######",
".###############.#######",
".##.................####",
".##...........a.a.a.####",
".##.................####",
".##.############.##.####",
".##.##.................#",
".##.##...........a.a.a.#",
".##.##.................#",
".................##.##.#",
"###.##.############.##.#",
"###.##.############.##.#",
"###.##.############.##.#",
"###.................##.#",
"######.###############.#",
"######.###############.#",
"######.###############.#",
"######.................#",
"########################",
"########################",
"########################",
"########################"};
