/* XPM */
static char *closeI[] = {
/* width height ncolors chars_per_pixel */
"20 48 35 1",
/* colors */
"  c #EE5051",
". c #494949",
"X c #262626",
"o c #4A4A4A",
"O c #4C1919",
"+ c #272727",
"@ c #A74142",
"# c #282828",
"$ c #F15152",
"% c #A84142",
"& c #4C4C4C",
"* c #292727",
"= c #A94142",
"- c #A94242",
"; c #2A2727",
": c #AA4242",
"> c #4F2F2F",
", c #191919",
"< c #3D3D3D",
"1 c #D04445",
"2 c #502F2F",
"3 c #AC4243",
"4 c #3E3E3E",
"5 c #AD4243",
"6 c #2D2D2D",
"7 c #522F2F",
"8 c #2E2E2E",
"9 c #532F30",
"0 c #AF4343",
"q c #E94F50",
"w c #FC5354",
"e c #481818",
"r c #EC4E4F",
"t c #EC5051",
"y c #C84243",
/* pixels */
"####################",
"XXXXXXXXXXXXXXXXXXXX",
"XXXXXXXXXXXXXXXXXXXX",
"XXXXXXXXXXXXXXXXXXXX",
"XXXXXXXXXXXXXXXXXXXX",
"XXXXXXXXXXXXXXXXXXXX",
"XXXXXXX6<..<6XXXXXXX",
"XXXXXX<&&&&&&<+XXXXX",
"XXXXX4&&&&&&&&4XXXXX",
"XXXX6&&&&&&&&&&6XXXX",
"XXXX<&&&&&&&&&&4XXXX",
"XXXX.&&&&&&&&&&oXXXX",
"XXXX.&&&&&&&&&&.XXXX",
"XXXX<&&&&&&&&&&<XXXX",
"XXXX8&&&&&&&&&&6XXXX",
"XXXXX<&&&&&&&&<XXXXX",
"XXXXX+<&&&&&&4+XXXXX",
"XXXXXXX84o.<6XXXXXXX",
"XXXXXXXXXXXXXXXXXXXX",
"XXXXXXXXXXXXXXXXXXXX",
"XXXXXXXXXXXXXXXXXXXX",
"XXXXXXXXXXXXXXXXXXXX",
"XXXXXXXXXXXXXXXXXXXX",
",,,,,,,,,,,,,,,,,,,,",
"####################",
"XXXXXXXXXXXXXXXXXXXX",
"XXXXXXXXXXXXXXXXXXXX",
"XXXXXXXXXXXXXXXXXXXX",
"XXXXXXXXXXXXXXXXXXXX",
"XXXXXXXXXXXXXXXXXXXX",
"XXXXXXX>@qq@2XXXXXXX",
"XXXXX*%wwwwww@*XXXXX",
"XXXXX3r1wwww1r5XXXXX",
"XXXX>w1OywwyO1w2XXXX",
"XXXX-wwyOyyOyww3XXXX",
"XXXXtwwwyeOywww$XXXX",
"XXXXtwwwyOeywwwqXXXX",
"XXXX:wwyOyyOyww@XXXX",
"XXXX7w1OywwyO1w>XXXX",
"XXXXX%r1wwww1r%XXXXX",
"XXXXX;=wwwwww0*XXXXX",
"XXXXXXX93  :>XXXXXXX",
"XXXXXXXXXXXXXXXXXXXX",
"XXXXXXXXXXXXXXXXXXXX",
"XXXXXXXXXXXXXXXXXXXX",
"XXXXXXXXXXXXXXXXXXXX",
"XXXXXXXXXXXXXXXXXXXX",
",,,,,,,,,,,,,,,,,,,,"
};
