/* XPM */
static char *closeO[] = {
/* width height ncolors chars_per_pixel */
"20 48 47 1",
/* colors */
"  c #363333",
". c #ED5152",
"X c #5B2F30",
"o c #5B393A",
"O c #EF2124",
"+ c #373333",
"@ c #373434",
"# c #EF5152",
"$ c #5D2F30",
"% c #4C0A0B",
"& c #5D3A3A",
"* c #4C1919",
"= c #F22124",
"- c #F25152",
"; c #D01A1D",
": c #191919",
"> c #AC2829",
", c #D04445",
"< c #AC4647",
"1 c #AD2729",
"2 c #AD2829",
"3 c #AD4647",
"4 c #AE2729",
"5 c #AE4747",
"6 c #AF2729",
"7 c #AF4747",
"8 c #B12729",
"9 c #B14748",
"0 c #FC2023",
"q c #EA2224",
"w c #B32729",
"e c #FC5354",
"r c #B34748",
"t c #333333",
"y c #EA5051",
"u c #EC1E21",
"i c #C8191C",
"p c #592F30",
"a c #48090A",
"s c #593939",
"d c #ED2124",
"f c #481818",
"g c #EC4E4F",
"h c #353535",
"j c #5A2F30",
"k c #C84243",
"l c #5A3939",
/* pixels */
"hhhhhhhhhhhhhhhhhhhh",
"tttttttttttttttttttt",
"tttttttttttttttttttt",
"tttttttttttttttttttt",
"tttttttttttttttttttt",
"tttttttttttttttttttt",
"tttttttp>qq2jttttttt",
"ttttt 4000000> ttttt",
"ttttt8u;0000;u8ttttt",
"ttttp0;%i00i%;0Xtttt",
"tttt400i%ii%i008tttt",
"ttttd000ia%i000=tttt",
"ttttd000i%ai000qtttt",
"tttt600i%ii%i00>tttt",
"tttt$0;%i00i%;0jtttt",
"ttttt1u;0000;u1ttttt",
"ttttt+4000000w ttttt",
"ttttttt$8OO6jttttttt",
"tttttttttttttttttttt",
"tttttttttttttttttttt",
"tttttttttttttttttttt",
"tttttttttttttttttttt",
"tttttttttttttttttttt",
"::::::::::::::::::::",
"hhhhhhhhhhhhhhhhhhhh",
"tttttttttttttttttttt",
"tttttttttttttttttttt",
"tttttttttttttttttttt",
"tttttttttttttttttttt",
"tttttttttttttttttttt",
"ttttttts<yy3lttttttt",
"ttttt 5eeeeee< ttttt",
"ttttt9g,eeee,g9ttttt",
"ttttse,*keek*,eotttt",
"tttt5eek*kk*kee9tttt",
"tttt.eeekf*keee-tttt",
"tttt.eeek*fkeeeytttt",
"tttt7eek*kk*kee<tttt",
"tttt&e,*keek*,eltttt",
"ttttt3g,eeee,g3ttttt",
"ttttt@5eeeeeer ttttt",
"ttttttt&9##7lttttttt",
"tttttttttttttttttttt",
"tttttttttttttttttttt",
"tttttttttttttttttttt",
"tttttttttttttttttttt",
"tttttttttttttttttttt",
"::::::::::::::::::::"
};
