/* XPM */
static char *dframeITR[] = {
/* width height ncolors chars_per_pixel */
"15 26 17 1",
/* colors */
"  c #252525",
". c #262626",
"X c #272727",
"o c #282828",
"O c #292929",
"+ c #3B3B3B",
"@ c #191919",
"# c #3D3D3D",
"$ c #3E3E3E",
"% c #3F3F3F",
"& c #414141",
"* c #303030",
"= c #313131",
"- c #434343",
"; c #222222",
": c #232323",
"> c None",
/* pixels */
"@@@@@@@@@o>>>>>",
"########++;@>>>",
"ooooooooO=%&@>>",
"..........o+-@>",
"...........o%:>",
"............*$X",
"............O+@",
"............o#@",
"............o#@",
"............o#@",
"............o#@",
"............o#@",
"............o#@",
"............o#@",
"............o#@",
"............o#@",
"............o#@",
"............o#@",
"............o#@",
"............o#@",
"............o#@",
"............o#@",
"............o#@",
"............o#@",
"............o#@",
"@@@@@@@@@@@@@ @"
};
