/* XPM */
static char *dframeATL[] = {
/* width height ncolors chars_per_pixel */
"15 26 18 1",
/* colors */
"  c #363636",
". c #484848",
"X c #494949",
"o c #272727",
"O c #282828",
"+ c #4C4C4C",
"@ c #191919",
"# c #3D3D3D",
"$ c #3E3E3E",
"% c #313131",
"& c #434343",
"* c #333333",
"= c #454545",
"- c #222222",
"; c #464646",
": c #232323",
"> c #353535",
", c None",
/* pixels */
",,,,,o@@@@@@@@@",
",,,@:=;XXXXXXXX",
",,@X+# >>>>>>>>",
",@;.>**********",
",-+>***********",
"O&$************",
"@; ************",
"@X>************",
"@X>************",
"@X>************",
"@X>************",
"@X>************",
"@X>************",
"@X>************",
"@X>************",
"@X>************",
"@X>************",
"@X>************",
"@X>************",
"@X>************",
"@X>************",
"@X>************",
"@X>************",
"@X>************",
"@X>************",
"@%@@@@@@@@@@@@@"
};
