/* XPM */
static char *restoreA[] = {
/* width height ncolors chars_per_pixel */
"20 48 38 1",
/* colors */
"  c #468E49",
". c #235525",
"X c #468F4A",
"o c #46914A",
"O c #394F3A",
"+ c #39503A",
"@ c #39513A",
"# c #39523B",
"$ c #191919",
"% c #4EB954",
"& c #29C631",
"* c #2AB931",
"= c #2ABB31",
"- c #2ABC31",
"; c #2ABF31",
": c #4FBB54",
"> c #4FBC55",
", c #4FBF55",
"< c #2D8C32",
"1 c #2D8D32",
"2 c #2D8E32",
"3 c #2D8F32",
"4 c #2D9132",
"5 c #51C657",
"6 c #409D45",
"7 c #314F33",
"8 c #315033",
"9 c #315133",
"0 c #315233",
"q c #333333",
"w c #333533",
"e c #333534",
"r c #333633",
"t c #317835",
"y c #343634",
"u c #353535",
"i c #458C49",
"p c #458D49",
/* pixels */
"uuuuuuuuuuuuuuuuuuuu",
"qqqqqqqqqqqqqqqqqqqq",
"qqqqqqqqqqqqqqqqqqqq",
"qqqqqqqqqqqqqqqqqqqq",
"qqqqqqqqqqqqqqqqqqqq",
"qqqqqqqqqqqqqqqqqqqq",
"qqqqqqq7<**<8qqqqqqq",
"qqqqqw1&&&&&&<wqqqqq",
"qqqqq3&&&&&&&&3qqqqq",
"qqqq7&&&&&&&&&&8qqqq",
"qqqq1&&&&&&&&&&3qqqq",
"qqqq=&&&&&&&&&&;qqqq",
"qqqq=&&&&&&&&&&*qqqq",
"qqqq2&&&&&&&&&&<qqqq",
"qqqq9&&&&&&&&&&7qqqq",
"qqqqq<&&&&&&&&<qqqqq",
"qqqqqr1&&&&&&4wqqqqq",
"qqqqqqq03--27qqqqqqq",
"qqqqqqqqqqqqqqqqqqqq",
"qqqqqqqqqqqqqqqqqqqq",
"qqqqqqqqqqqqqqqqqqqq",
"qqqqqqqqqqqqqqqqqqqq",
"qqqqqqqqqqqqqqqqqqqq",
"$$$$$$$$$$$$$$$$$$$$",
"uuuuuuuuuuuuuuuuuuuu",
"qqqqqqqqqqqqqqqqqqqq",
"qqqqqqqqqqqqqqqqqqqq",
"qqqqqqqqqqqqqqqqqqqq",
"qqqqqqqqqqqqqqqqqqqq",
"qqqqqqqqqqqqqqqqqqqq",
"qqqqqqqOi%%i+qqqqqqq",
"qqqqqwp556655ieqqqqq",
"qqqqqX555tt555Xqqqqq",
"qqqqO5555tt5555+qqqq",
"qqqqp5555tt5555Xqqqq",
"qqqq:6ttt..ttt6,qqqq",
"qqqq:6ttt..ttt6%qqqq",
"qqqq 5555tt5555iqqqq",
"qqqq@5555tt5555Oqqqq",
"qqqqqi555tt555iqqqqq",
"qqqqqyp556655owqqqqq",
"qqqqqqq#X>> Oqqqqqqq",
"qqqqqqqqqqqqqqqqqqqq",
"qqqqqqqqqqqqqqqqqqqq",
"qqqqqqqqqqqqqqqqqqqq",
"qqqqqqqqqqqqqqqqqqqq",
"qqqqqqqqqqqqqqqqqqqq",
"$$$$$$$$$$$$$$$$$$$$"
};
