/* XPM */
static char *titleIQ[] = {
/* width height ncolors chars_per_pixel */
"7 24 10 1",
/* colors */
"  c #262626",
". c #282828",
"X c #292929",
"o c #3B3B3B",
"O c #191919",
"+ c #3F3F3F",
"@ c #414141",
"# c #303030",
"$ c #313131",
"% c #434343",
/* pixels */
"..X$+@O",
"    .o%",
"     .+",
"      #",
"      X",
"      .",
"      .",
"      .",
"      .",
"      .",
"      .",
"      .",
"      .",
"      .",
"      .",
"      .",
"      .",
"      .",
"      .",
"      .",
"      .",
"      .",
"      .",
"OOOOOOO"
};
