/* XPM */
static char * rolldown_xpm[] = {
"25 44 15 1",
" 	c None",
".	c #8F8F8F",
"+	c #868686",
"@	c #7C7C7C",
"#	c #767676",
"$	c #000000",
"%	c #A2A2A2",
"&	c #797979",
"*	c #707070",
"=	c #666666",
"-	c #555555",
";	c #FFFFFF",
">	c #414141",
",	c #2E2E2E",
"'	c #222222",
".........................",
"+++++++++++++++++++++++++",
"@@@@@@@@@@@@@@@@@@@@@@@@@",
"#########################",
"$$$$$$$$$$$$$$$$$$$$$$$$$",
"$%%%%%%%%%%%%%%%%%%%%%%%$",
"$%&&&&&&&&&&&&&&&&&&&&&%$",
"$%*********************%$",
"$%=======$=====$=======%$",
"$%------$;$---$;$------%$",
"$%>>>>>>>$;$>$;$>>>>>>>%$",
"$%,,,,,,,,$;$;$,,,,,,,,%$",
"$%$$$$$$$$$$;$$$$$$$$$$%$",
"$%,,,,,,,,,,$,,,,,,,,,,%$",
"$%>>>>>>>>>>>>>>>>>>>>>%$",
"$%---------------------%$",
"$%%%%%%%%%%%%%%%%%%%%%%%$",
"$$$$$$$$$$$$$$$$$$$$$$$$$",
"$$$$$$$$$$$$$$$$$$$$$$$$$",
"$$$$$$$$$$$$$$$$$$$$$$$$$",
"$$$$$$$$$$$$$$$$$$$$$$$$$",
"'''''''''''''''''''''''''",
".........................",
"+++++++++++++++++++++++++",
"@@@@@@@@@@@@@@@@@@@@@@@@@",
"#########################",
"$$$$$$$$$$$$$$$$$$$$$$$$$",
"$%%%%%%%%%%%%%%%%%%%%%%%$",
"$%&&&&&&&&&&&&&&&&&&&&&%$",
"$%*********************%$",
"$%=======$=====$=======%$",
"$%------$;$---$;$------%$",
"$%>>>>>>>$;$>$;$>>>>>>>%$",
"$%,,,,,,,,$;$;$,,,,,,,,%$",
"$%$$$$$$$$$$;$$$$$$$$$$%$",
"$%,,,,,,,,,,$,,,,,,,,,,%$",
"$%>>>>>>>>>>>>>>>>>>>>>%$",
"$%---------------------%$",
"$%%%%%%%%%%%%%%%%%%%%%%%$",
"$$$$$$$$$$$$$$$$$$$$$$$$$",
"$$$$$$$$$$$$$$$$$$$$$$$$$",
"$$$$$$$$$$$$$$$$$$$$$$$$$",
"$$$$$$$$$$$$$$$$$$$$$$$$$",
"$$$$$$$$$$$$$$$$$$$$$$$$$"};
