/* XPM */
static char * rollupO_xpm[] = {
"25 44 24 1",
" 	c None",
".	c #8F8F8F",
"+	c #868686",
"@	c #7C7C7C",
"#	c #767676",
"$	c #000000",
"%	c #A2A2A2",
"&	c #707070",
"*	c #666666",
"=	c #555555",
"-	c #414141",
";	c #FFFFFF",
">	c #2E2E2E",
",	c #700000",
"'	c #A60000",
")	c #BF0000",
"!	c #FF3F3F",
"~	c #EFBCBC",
"{	c #222222",
"]	c #580000",
"^	c #760000",
"/	c #910000",
"(	c #CB0101",
"_	c #CD9B9B",
".........................",
"+++++++++++++++++++++++++",
"@@@@@@@@@@@@@@@@@@@@@@@@@",
"#########################",
"$$$$$$$$$$$$$$$$$$$$$$$$$",
"$%%%%%%%%%%%%%%%%%%%%%%%$",
"$%&&&&&&&&&&&&&&&&&&&&&%$",
"$%*********************%$",
"$%==========$==========%$",
"$%---------$;$---------%$",
"$%>>>>>>>>$;$;$>>>>>>>>%$",
"$%$$$$$$$$;$$$;$$$$$$$$%$",
"$%,,,,,,$;$,,,$;$,,,,,,%$",
"$%'''''''$'''''$'''''''%$",
"$%)))))))))))))))))))))%$",
"$%!!!!!!!!!!!!!!!!!!!!!%$",
"$%~~~~~~~~~~~~~~~~~~~~~%$",
"$$$$$$$$$$$$$$$$$$$$$$$$$",
"$$$$$$$$$$$$$$$$$$$$$$$$$",
"$$$$$$$$$$$$$$$$$$$$$$$$$",
"$$$$$$$$$$$$$$$$$$$$$$$$$",
"{{{{{{{{{{{{{{{{{{{{{{{{{",
".........................",
"+++++++++++++++++++++++++",
"@@@@@@@@@@@@@@@@@@@@@@@@@",
"#########################",
"$$$$$$$$$$$$$$$$$$$$$$$$$",
"$%%%%%%%%%%%%%%%%%%%%%%%$",
"$%&&&&&&&&&&&&&&&&&&&&&%$",
"$%*********************%$",
"$%==========$==========%$",
"$%---------$;$---------%$",
"$%>>>>>>>>$;$;$>>>>>>>>%$",
"$%$$$$$$$$;$$$;$$$$$$$$%$",
"$%]]]]]]$;$]]]$;$]]]]]]%$",
"$%^^^^^^^$^^^^^$^^^^^^^%$",
"$%/////////////////////%$",
"$%(((((((((((((((((((((%$",
"$%_____________________%$",
"$$$$$$$$$$$$$$$$$$$$$$$$$",
"$$$$$$$$$$$$$$$$$$$$$$$$$",
"$$$$$$$$$$$$$$$$$$$$$$$$$",
"$$$$$$$$$$$$$$$$$$$$$$$$$",
"$$$$$$$$$$$$$$$$$$$$$$$$$"};
