/* XPM */
static char * closeO_xpm[] = {
"24 58 33 1",
" 	c #000000",
".	c #393939",
"+	c #141414",
"@	c #121212",
"#	c #1D1D1D",
"$	c #111111",
"%	c #AA3434",
"&	c #AC2B2B",
"*	c #B23232",
"=	c #B83B3B",
"-	c #4D0000",
";	c #BC4242",
">	c #FFFFFF",
",	c #BD4A4A",
"'	c #C35454",
")	c #C55B5B",
"!	c #E37878",
"~	c #E58080",
"{	c #E78585",
"]	c #E88E8E",
"^	c #EC9898",
"/	c #D35D5D",
"(	c #E05F5F",
"_	c #E36A6A",
":	c #E47373",
"<	c #E57A7A",
"[	c #EA8585",
"}	c #EC8F8F",
"|	c #DB8F8F",
"1	c #DD9999",
"2	c #E0A4A4",
"3	c #E3B2B2",
"4	c #E1ABAB",
"                        ",
"........................",
"++++++++++++++++++++++++",
"@@@@@@@@@@@@@@@@@@@@@@@@",
"########################",
"########################",
"########################",
"$$$$$$$$$$$$$$$$$$$$$$$$",
"$%%%%%%%%%%%%%%%%%%%%%%$",
"$%&&&&&&&&&&&&&&&&&&&&%$",
"$%********************%$",
"$%======--====--======%$",
"$%;;;;;->>-;;->>-;;;;;%$",
"$%,,,,,,->>-->>-,,,,,,%$",
"$%'''''''->>>>-'''''''%$",
"$%)))))))->>>>-)))))))%$",
"$%!!!!!!->>-->>-!!!!!!%$",
"$%~~~~~->>-~~->>-~~~~~%$",
"$%{{{{{{--{{{{--{{{{{{%$",
"$%]]]]]]]]]]]]]]]]]]]]%$",
"$%^^^^^^^^^^^^^^^^^^^^%$",
"$%%%%%%%%%%%%%%%%%%%%%%$",
"$$$$$$$$$$$$$$$$$$$$$$$$",
"########################",
"########################",
"########################",
"########################",
"########################",
"########################",
"                        ",
"........................",
"++++++++++++++++++++++++",
"@@@@@@@@@@@@@@@@@@@@@@@@",
"########################",
"########################",
"########################",
"$$$$$$$$$$$$$$$$$$$$$$$$",
"$//////////////////////$",
"$/((((((((((((((((((((/$",
"$/____________________/$",
"$/:::::::::::::::<::::/$",
"$/<<<<<<--<<<<--<<<<<</$",
"$/[[[[[->>-[[->>-[[[[[/$",
"$/}}}}}}->>-->>-}}}}}}/$",
"$/^^^^^^^->>>>-^^^^^^^/$",
"$/|||||||->>>>-|||||||/$",
"$/111111->>-->>-111111/$",
"$/22222->>-32->>-22222/$",
"$/444443--4444--444444/$",
"$/33333333333333333333/$",
"$//////////////////////$",
"$$$$$$$$$$$$$$$$$$$$$$$$",
"########################",
"########################",
"########################",
"########################",
"########################",
"########################"};
