/* XPM */
static char * close_xpm[] = {
"24 58 18 1",
" 	c #000000",
".	c #393939",
"+	c #141414",
"@	c #121212",
"#	c #1D1D1D",
"$	c #3C3C3C",
"%	c #2A2A2A",
"&	c #2C2C2C",
"*	c #2E2E2E",
"=	c #303030",
"-	c #FFFFFF",
";	c #353535",
">	c #323232",
",	c #5F5F5F",
"'	c #616161",
")	c #636363",
"!	c #656565",
"~	c #676767",
"                        ",
"........................",
"++++++++++++++++++++++++",
"@@@@@@@@@@@@@@@@@@@@@@@@",
"########################",
"########################",
"########################",
"                        ",
" $$$$$$$$$$$$$$$$$$$$$$ ",
" $%%%%%%%%%%%%%%%%%%%%$ ",
" $&&&&&&&&&&&&&&&&&&&&$ ",
" $********************$ ",
" $======--====--======$ ",
" $=======--==--=======$ ",
" $;>>>>>>>---->>>>>>>>$ ",
" $>>>>>>>;----;>;;;;;;$ ",
" $,,,,,,,--,,--,,,,,,,$ ",
" $''''''--))))--''''''$ ",
" $))))))))))))))))))))$ ",
" $!!!!!!!!!!!!!!!!!!!!$ ",
" $~~~~~~~~~~~~~~~~~~~~$ ",
" $$$$$$$$$$$$$$$$$$$$$$ ",
"                        ",
"########################",
"########################",
"########################",
"########################",
"########################",
"########################",
"                        ",
"........................",
"++++++++++++++++++++++++",
"@@@@@@@@@@@@@@@@@@@@@@@@",
"########################",
"########################",
"########################",
"                        ",
" $$$$$$$$$$$$$$$$$$$$$$ ",
" $%%%%%%%%%%%%%%%%%%%%$ ",
" $&&&&&&&&&&&&&&&&&&&&$ ",
" $********************$ ",
" $======--====--======$ ",
" $=======--==--=======$ ",
" $;>>>>>>>---->>>>>>>>$ ",
" $>>>>>>>;----;>;;;;;;$ ",
" $,,,,,,,--,,--,,,,,,,$ ",
" $''''''--))))--''''''$ ",
" $))))))))))))))))))))$ ",
" $!!!!!!!!!!!!!!!!!!!!$ ",
" $~~~~~~~~~~~~~~~~~~~~$ ",
" $$$$$$$$$$$$$$$$$$$$$$ ",
"                        ",
"########################",
"########################",
"########################",
"########################",
"########################",
"########################"};
