/* XPM */
static char * closeA_xpm[] = {
"24 58 19 1",
" 	c #000000",
".	c #393939",
"+	c #141414",
"@	c #121212",
"#	c #1D1D1D",
"$	c #4D0000",
"%	c #6B0000",
"&	c #760000",
"*	c #7C0000",
"=	c #870000",
"-	c #FFFFFF",
";	c #8C0000",
">	c #960000",
",	c #9B0000",
"'	c #9D3E3E",
")	c #A74C4C",
"!	c #AE5757",
"~	c #B66464",
"{	c #B86969",
"                        ",
"........................",
"++++++++++++++++++++++++",
"@@@@@@@@@@@@@@@@@@@@@@@@",
"########################",
"########################",
"########################",
"                        ",
" $$$$$$$$$$$$$$$$$$$$$$ ",
" $%%%%%%%%%%%%%%%%%%%%$ ",
" $&&&&&&&&&&&&&&&&&&&&$ ",
" $******$$****$$******$ ",
" $=====$--$==$--$=====$ ",
" $;=;;;;$--$$--$;;;;;;$ ",
" $>>>>>>>$----$>>>>>>>$ ",
" $,,,,,,,$----$,,,,,,,$ ",
" $''''''$--$$--$''''''$ ",
" $)))))$--$))$--$)))))$ ",
" $!!!!!!$$!!!!$$!!!!!!$ ",
" $~~~~~~~~~~~~~~~~~~~~$ ",
" ${{{{{{{{{{{{{{{{{{{{$ ",
" $$$$$$$$$$$$$$$$$$$$$$ ",
"                        ",
"########################",
"########################",
"########################",
"########################",
"########################",
"########################",
"                        ",
"........................",
"++++++++++++++++++++++++",
"@@@@@@@@@@@@@@@@@@@@@@@@",
"########################",
"########################",
"########################",
"                        ",
" $$$$$$$$$$$$$$$$$$$$$$ ",
" $%%%%%%%%%%%%%%%%%%%%$ ",
" $&&&&&&&&&&&&&&&&&&&&$ ",
" $******$$****$$******$ ",
" $=====$--$==$--$=====$ ",
" $;=;;;;$--$$--$;;;;;;$ ",
" $>>>>>>>$----$>>>>>>>$ ",
" $,,,,,,,$----$,,,,,,,$ ",
" $''''''$--$$--$''''''$ ",
" $)))))$--$))$--$)))))$ ",
" $!!!!!!$$!!!!$$!!!!!!$ ",
" $~~~~~~~~~~~~~~~~~~~~$ ",
" ${{{{{{{{{{{{{{{{{{{{$ ",
" $$$$$$$$$$$$$$$$$$$$$$ ",
"                        ",
"########################",
"########################",
"########################",
"########################",
"########################",
"########################"};
