/* XPM */
static char * maximizeA_xpm[] = {
"24 58 19 1",
" 	c #000000",
".	c #393939",
"+	c #141414",
"@	c #121212",
"#	c #1D1D1D",
"$	c #103439",
"%	c #134E55",
"&	c #17535A",
"*	c #1B575E",
"=	c #205B62",
"-	c #FFFFFF",
";	c #235E65",
">	c #286168",
",	c #2D656C",
"'	c #4D8B94",
")	c #528D96",
"!	c #59919A",
"~	c #63969E",
"{	c #6A99A0",
"                        ",
"........................",
"++++++++++++++++++++++++",
"@@@@@@@@@@@@@@@@@@@@@@@@",
"########################",
"########################",
"########################",
"                        ",
" $$$$$$$$$$$$$$$$$$$$$$ ",
" $%%%%%%%%%%%%%%%%%%%%$ ",
" $&&&&&&&&&&&&&&&&&&&&$ ",
" $*****$$$$$$$$$$*****$ ",
" $=====$--------$=====$ ",
" $;;;;;$-;;;;;;-$;;;;;$ ",
" $>>>>>$->>>>>>-$>>>>>$ ",
" $,,,,,$-,,,,,,-$,,,,,$ ",
" $'''''$-''''''-$'''''$ ",
" $)))))$--------$)))))$ ",
" $!!!!!$$$$$$$$$$!!!!!$ ",
" $~~~~~~~~~~~~~~~~~~~~$ ",
" ${{{{{{{{{{{{{{{{{{{{$ ",
" $$$$$$$$$$$$$$$$$$$$$$ ",
"                        ",
"########################",
"########################",
"########################",
"########################",
"########################",
"########################",
"                        ",
"........................",
"++++++++++++++++++++++++",
"@@@@@@@@@@@@@@@@@@@@@@@@",
"########################",
"########################",
"########################",
"                        ",
" $$$$$$$$$$$$$$$$$$$$$$ ",
" $%%%%%%%%%%%%%%%%%%%%$ ",
" $&&&&&&&&&&&&&&&&&&&&$ ",
" $*****$$$$$$$$$$*****$ ",
" $=====$--------$=====$ ",
" $;;;;;$-;;;;;;-$;;;;;$ ",
" $>>>>>$->>>>>>-$>>>>>$ ",
" $,,,,,$-,,,,,,-$,,,,,$ ",
" $'''''$-''''''-$'''''$ ",
" $)))))$--------$)))))$ ",
" $!!!!!$$$$$$$$$$!!!!!$ ",
" $~~~~~~~~~~~~~~~~~~~~$ ",
" ${{{{{{{{{{{{{{{{{{{{$ ",
" $$$$$$$$$$$$$$$$$$$$$$ ",
"                        ",
"########################",
"########################",
"########################",
"########################",
"########################",
"########################"};
