/* XPM */
static char * minimizeO_xpm[] = {
"24 58 32 1",
" 	c #000000",
".	c #393939",
"+	c #141414",
"@	c #121212",
"#	c #1D1D1D",
"$	c #1B565E",
"%	c #458F98",
"&	c #4C929B",
"*	c #56969E",
"=	c #5D99A1",
"-	c #649FA7",
";	c #70A5AC",
">	c #82B0B6",
",	c #103439",
"'	c #A8CBD0",
")	c #FFFFFF",
"!	c #ACCFD4",
"~	c #B4D3D7",
"{	c #BAD6DA",
"]	c #BFDADE",
"^	c #4D929B",
"/	c #5597A0",
"(	c #5C9CA4",
"_	c #629FA7",
":	c #6AA3AB",
"<	c #71A8AF",
"[	c #7BADB3",
"}	c #9FDAE1",
"|	c #AAE0E7",
"1	c #B4E4EA",
"2	c #BFEAEF",
"3	c #C7F0F5",
"                        ",
"........................",
"++++++++++++++++++++++++",
"@@@@@@@@@@@@@@@@@@@@@@@@",
"########################",
"########################",
"########################",
"                        ",
" $$$$$$$$$$$$$$$$$$$$$$ ",
" $%%%%%%%%%%%%%%%%%%%%$ ",
" $&&&&&&&&&&&&&&&&&&&&$ ",
" $********************$ ",
" $====================$ ",
" $--------------------$ ",
" $;;;;;;;;;;;;;;;;;;;;$ ",
" $>>>>>,,,,,,,,,,>>>>>$ ",
" $''''',)))))))),'''''$ ",
" $!!!!!,)))))))),!!!!!$ ",
" $~~~~~,,,,,,,,,,~~~~~$ ",
" ${{{{{{{{{{{{{{{{{{{{$ ",
" $]]]]]]]]]]]]]]]]]]]]$ ",
" $$$$$$$$$$$$$$$$$$$$$$ ",
"                        ",
"########################",
"########################",
"########################",
"########################",
"########################",
"########################",
"                        ",
"........................",
"++++++++++++++++++++++++",
"@@@@@@@@@@@@@@@@@@@@@@@@",
"########################",
"########################",
"########################",
"                        ",
" ^^^^^^^^^^^^^^^^^^^^^^ ",
" ^////////////////////^ ",
" ^((((((((((((((((((((^ ",
" ^____________________^ ",
" ^::::::::::::::::::::^ ",
" ^<<<<<<<<<<<<<<<<<<<<^ ",
" ^[[[[[[[[[[[[[[[[[[[[^ ",
" ^>>>>>>>>>>>>>>>>>>>>^ ",
" ^}}}}},,,,,,,,,,}}}}}^ ",
" ^|||||,)))))))),|||||^ ",
" ^11111,)))))))),11111^ ",
" ^22222,,,,,,,,,,22222^ ",
" ^33333333333333333333^ ",
" ^^^^^^^^^^^^^^^^^^^^^^ ",
"                        ",
"########################",
"########################",
"########################",
"########################",
"########################",
"########################"};
