/* XPM */
static char * titleAR_xpm[] = {
"200 29 29 1",
" 	c #0A0A0A",
".	c #313131",
"+	c #141414",
"@	c #0E0E0E",
"#	c #0F0F0F",
"$	c #101010",
"%	c #111111",
"&	c #121212",
"*	c #050505",
"=	c #060606",
"-	c #070707",
";	c #080808",
">	c #090909",
",	c #0B0B0B",
"'	c #0C0C0C",
")	c #0D0D0D",
"!	c #131313",
"~	c #151515",
"{	c #161616",
"]	c #171717",
"^	c #181818",
"/	c #191919",
"(	c #1A1A1A",
"_	c #1B1B1B",
":	c #1C1C1C",
"<	c #030303",
"[	c #040404",
"}	c #1D1D1D",
"|	c #1E1E1E",
"                                                                                                                                                                                                        ",
"........................................................................................................................................................................................................",
"++++++++++++++++++++++++++++++++++++++++++++++++++++++++++++++++++++++++++++++++++++++++++++++++++++++++++++++++++++++++++++++++++++++++++++++++++++++++++++++++++++++++++++++++++++++++++++++++++++++++",
"@@@@@@@@@@@@@@@@@@@@@@@@@@@@@@@@@@@@@@@@@@@@@@@@@@@@######################$$$$$$$$$$$$$$$$$$$$$$$$$$$$$$$$$$$$$$$$$$$$$$$$$$$$$$$$$$$$$$$$$$$$$$$$$$$$$$$%%%%%%%%%%%%%%%%%%%%%%&&&&&&&&&&&&&&&&&&&&&&&&&",
"********=======-------;;;;;;;;>>>>>>>              ,,,,,,,,'''''''''''''')))))))@@@@@@@@#######$$$$$$$$%%%%%%%&&&&&&&!!!!!!!!+++++++~~~~~~~{{{{{{{{{{{{{{]]]]]]]]^^^^^^^^/////////////((((((((_______:::",
"<<<<<<<[[[[[[[[*******=======-------;;;;;;;;>>>>>>>       ,,,,,,,,''''''')))))))@@@@@@@@#######$$$$$$$$%%%%%%&&&&&&&&!!!!!!!++++++++~~~~~~~{{{{{{{]]]]]]]]^^^^^^^///////((((((((_______:::::::}}}}}}}|||",
"<<<<<<<[[[[[[[[*******========-------;;;;;;;>>>>>>>       ,,,,,,,,''''''''))))))@@@@@@@@#######$$$$$$$$%%%%%%&&&&&&&&!!!!!!!+++++++~~~~~~~~{{{{{{{]]]]]]]^^^^^^^^///////(((((((_______::::::::}}}}}}}|||",
"<<<<<<<[[[[[[[[*******========-------;;;;;;;>>>>>>>       ,,,,,,,,''''''''))))))@@@@@@@@#######$$$$$$$$%%%%%%&&&&&&&&!!!!!!!+++++++~~~~~~~~{{{{{{{]]]]]]]^^^^^^^^///////(((((((_______::::::::}}}}}}}|||",
"<<<<<<<[[[[[[[[*******========-------;;;;;;;>>>>>>>       ,,,,,,,,''''''''))))))@@@@@@@@#######$$$$$$$$%%%%%%&&&&&&&&!!!!!!!+++++++~~~~~~~~{{{{{{{]]]]]]]^^^^^^^^///////(((((((_______::::::::}}}}}}}|||",
"<<<<<<<[[[[[[[[*******========-------;;;;;;;>>>>>>>       ,,,,,,,,''''''''))))))@@@@@@@@#######$$$$$$$$%%%%%%&&&&&&&&!!!!!!!+++++++~~~~~~~~{{{{{{{]]]]]]]^^^^^^^^///////(((((((_______::::::::}}}}}}}|||",
"<<<<<<<[[[[[[[[*******========-------;;;;;;;>>>>>>>       ,,,,,,,,''''''''))))))@@@@@@@@#######$$$$$$$$%%%%%%&&&&&&&&!!!!!!!+++++++~~~~~~~~{{{{{{{]]]]]]]^^^^^^^^///////(((((((_______::::::::}}}}}}}|||",
"<<<<<<<[[[[[[[[*******========-------;;;;;;;>>>>>>>       ,,,,,,,,''''''''))))))@@@@@@@@#######$$$$$$$$%%%%%%&&&&&&&&!!!!!!!+++++++~~~~~~~~{{{{{{{]]]]]]]^^^^^^^^///////(((((((_______::::::::}}}}}}}|||",
"<<<<<<<[[[[[[[[*******========-------;;;;;;;>>>>>>>       ,,,,,,,,''''''''))))))@@@@@@@@#######$$$$$$$$%%%%%%&&&&&&&&!!!!!!!+++++++~~~~~~~~{{{{{{{]]]]]]]^^^^^^^^///////(((((((_______::::::::}}}}}}}|||",
"<<<<<<<[[[[[[[[*******========-------;;;;;;;>>>>>>>       ,,,,,,,,''''''''))))))@@@@@@@@#######$$$$$$$$%%%%%%&&&&&&&&!!!!!!!+++++++~~~~~~~~{{{{{{{]]]]]]]^^^^^^^^///////(((((((_______::::::::}}}}}}}|||",
"<<<<<<<[[[[[[[[*******========-------;;;;;;;>>>>>>>       ,,,,,,,,''''''''))))))@@@@@@@@#######$$$$$$$$%%%%%%&&&&&&&&!!!!!!!+++++++~~~~~~~~{{{{{{{]]]]]]]^^^^^^^^///////(((((((_______::::::::}}}}}}}|||",
"<<<<<<<[[[[[[[[*******========-------;;;;;;;>>>>>>>       ,,,,,,,,''''''''))))))@@@@@@@@#######$$$$$$$$%%%%%%&&&&&&&&!!!!!!!+++++++~~~~~~~~{{{{{{{]]]]]]]^^^^^^^^///////(((((((_______::::::::}}}}}}}|||",
"<<<<<<<[[[[[[[[*******========-------;;;;;;;>>>>>>>       ,,,,,,,,''''''''))))))@@@@@@@@#######$$$$$$$$%%%%%%&&&&&&&&!!!!!!!+++++++~~~~~~~~{{{{{{{]]]]]]]^^^^^^^^///////(((((((_______::::::::}}}}}}}|||",
"<<<<<<<[[[[[[[[*******========-------;;;;;;;>>>>>>>       ,,,,,,,,''''''''))))))@@@@@@@@#######$$$$$$$$%%%%%%&&&&&&&&!!!!!!!+++++++~~~~~~~~{{{{{{{]]]]]]]^^^^^^^^///////(((((((_______::::::::}}}}}}}|||",
"<<<<<<<[[[[[[[[*******========-------;;;;;;;>>>>>>>       ,,,,,,,,''''''''))))))@@@@@@@@#######$$$$$$$$%%%%%%&&&&&&&&!!!!!!!+++++++~~~~~~~~{{{{{{{]]]]]]]^^^^^^^^///////(((((((_______::::::::}}}}}}}|||",
"<<<<<<<[[[[[[[[*******========-------;;;;;;;>>>>>>>       ,,,,,,,,''''''''))))))@@@@@@@@#######$$$$$$$$%%%%%%&&&&&&&&!!!!!!!+++++++~~~~~~~~{{{{{{{]]]]]]]^^^^^^^^///////(((((((_______::::::::}}}}}}}|||",
"<<<<<<<[[[[[[[[*******========-------;;;;;;;>>>>>>>       ,,,,,,,,''''''''))))))@@@@@@@@#######$$$$$$$$%%%%%%&&&&&&&&!!!!!!!+++++++~~~~~~~~{{{{{{{]]]]]]]^^^^^^^^///////(((((((_______::::::::}}}}}}}|||",
"<<<<<<<[[[[[[[[*******========-------;;;;;;;>>>>>>>       ,,,,,,,,''''''''))))))@@@@@@@@#######$$$$$$$$%%%%%%&&&&&&&&!!!!!!!+++++++~~~~~~~~{{{{{{{]]]]]]]^^^^^^^^///////(((((((_______::::::::}}}}}}}|||",
"<<<<<<<[[[[[[[[*******========-------;;;;;;;>>>>>>>       ,,,,,,,,''''''''))))))@@@@@@@@#######$$$$$$$$%%%%%%&&&&&&&&!!!!!!!+++++++~~~~~~~~{{{{{{{]]]]]]]^^^^^^^^///////(((((((_______::::::::}}}}}}}|||",
"<<<<<<<[[[[[[[[*******========-------;;;;;;;>>>>>>>       ,,,,,,,,''''''''))))))@@@@@@@@#######$$$$$$$$%%%%%%&&&&&&&&!!!!!!!+++++++~~~~~~~~{{{{{{{]]]]]]]^^^^^^^^///////(((((((_______::::::::}}}}}}}|||",
"<<<<<<<[[[[[[[[*******========-------;;;;;;;>>>>>>>       ,,,,,,,,''''''''))))))@@@@@@@@#######$$$$$$$$%%%%%%&&&&&&&&!!!!!!!+++++++~~~~~~~~{{{{{{{]]]]]]]^^^^^^^^///////(((((((_______::::::::}}}}}}}|||",
"<<<<<<<[[[[[[[[*******========-------;;;;;;;>>>>>>>       ,,,,,,,,''''''''))))))@@@@@@@@#######$$$$$$$$%%%%%%&&&&&&&&!!!!!!!+++++++~~~~~~~~{{{{{{{]]]]]]]^^^^^^^^///////(((((((_______::::::::}}}}}}}|||",
"<<<<<<<[[[[[[[[*******========-------;;;;;;;>>>>>>>       ,,,,,,,,''''''''))))))@@@@@@@@#######$$$$$$$$%%%%%%&&&&&&&&!!!!!!!+++++++~~~~~~~~{{{{{{{]]]]]]]^^^^^^^^///////(((((((_______::::::::}}}}}}}|||",
"<<<<<<<[[[[[[[[*******=======-------;;;;;;;;>>>>>>>       ,,,,,,,,''''''')))))))@@@@@@@@#######$$$$$$$$%%%%%%&&&&&&&&!!!!!!!++++++++~~~~~~~{{{{{{{]]]]]]]]^^^^^^^///////((((((((_______:::::::}}}}}}}|||",
"[[[[[[[[*******=======--------;;;;;;;>>>>>>>        ,,,,,,,'''''''''''''')))))))@@@@@@@@#######$$$$$$$$%%%%%%&&&&&&&&!!!!!!!++++++++~~~~~~~{{{{{{{]]]]]]]]]]]]]]^^^^^^^^///////(((((((________:::::::}}}"};
