/* XPM */
static char * closeO_xpm[] = {
"16 32 41 1",
" 	c None",
".	c #0A0A0A",
"+	c #E1E1E1",
"@	c #1E2021",
"#	c #000000",
"$	c #F3F7FA",
"%	c #F8FBFC",
"&	c #FEFFFF",
"*	c #E9F0F5",
"=	c #E4ECF2",
"-	c #DEE8EF",
";	c #F6F9FB",
">	c #F9FCFD",
",	c #F8FAFC",
"'	c #EEF3F7",
")	c #E9EFF5",
"!	c #E3ECF2",
"~	c #2B2D2F",
"{	c #F4F7FA",
"]	c #F3F7F9",
"^	c #EFF5F7",
"/	c #EBF1F6",
"(	c #E7EEF3",
"_	c #EEF2F7",
":	c #EBF2F6",
"<	c #E8EEF4",
"[	c #E8EFF5",
"}	c #E8EFF4",
"|	c #E6EDF3",
"1	c #E0E9F0",
"2	c #E3EBF2",
"3	c #E2EBF2",
"4	c #DEE8F0",
"5	c #DCE7EE",
"6	c #DBE6EE",
"7	c #DBE6EF",
"8	c #DDE7EF",
"9	c #DAE5EE",
"0	c #DFE1E3",
"a	c #101111",
"b	c #18191A",
"..............++",
"...............+",
"................",
"................",
"..@###@.@###@...",
"..#$%&#@#*=-#...",
"..@#;>,#')!#~...",
"...@#{]^/(#@....",
"....@#_:<#@.....",
"...@#[}|=1#@....",
"..@#223#456#@...",
"..#788#@#999#...",
"..@###@.@###@...",
"................",
"...............+",
"..............00",
"..............++",
"...............+",
"................",
"................",
"..a###a.a###a...",
"..#$%&#a#*=-#...",
"..a#;>,#')!#b...",
"...a#{]^/(#a....",
"....a#_:<#a.....",
"...a#[}|=1#a....",
"..a#223#456#a...",
"..#788#a#999#...",
"..a###a.a###a...",
"................",
"...............+",
"..............00"};
