/* XPM */
static char * closeA_xpm[] = {
"16 32 37 1",
" 	c None",
".	c #0A0A0A",
"+	c #E1E1E1",
"@	c #1A1B1C",
"#	c #010101",
"$	c #C5C8CA",
"%	c #C9CBCC",
"&	c #CECECE",
"*	c #BDC2C6",
"=	c #B9BFC4",
"-	c #B4BCC2",
";	c #C7CACB",
">	c #CACCCD",
",	c #C9CACC",
"'	c #C1C5C8",
")	c #B8BFC4",
"!	c #242627",
"~	c #C6C8CA",
"{	c #C2C6C8",
"]	c #BEC3C7",
"^	c #BBC1C5",
"/	c #C1C4C8",
"(	c #BEC4C7",
"_	c #BCC1C6",
":	c #BCC2C6",
"<	c #BAC0C5",
"[	c #B6BDC2",
"}	c #B8BEC4",
"|	c #B7BEC4",
"1	c #B2BBC1",
"2	c #B2BAC1",
"3	c #B2BAC2",
"4	c #B3BBC2",
"5	c #B1BAC1",
"6	c #DFE1E3",
"7	c #0F0F0F",
"8	c #151617",
"..............++",
"...............+",
"................",
"................",
"..@###@.@###@...",
"..#$%&#@#*=-#...",
"..@#;>,#'*)#!...",
"...@#~${]^#@....",
"....@#/(_#@.....",
"...@#::<=[#@....",
"..@#}}|#-12#@...",
"..#344#@#555#...",
"..@###@.@###@...",
"................",
"...............+",
"..............66",
"..............++",
"...............+",
"................",
"................",
"..7###7.7###7...",
"..#$%&#7#*=-#...",
"..7#;>,#'*)#8...",
"...7#~${]^#7....",
"....7#/(_#7.....",
"...7#::<=[#7....",
"..7#}}|#-12#7...",
"..#344#7#555#...",
"..7###7.7###7...",
"................",
"...............+",
"..............66"};
