/* XPM */
static char * frameIBR_xpm[] = {
"22 22 4 1",
" 	c None",
".	c #E1E1E1",
"+	c #F1F1F1",
"@	c #4A4E51",
"               .....+@",
"               .....+@",
"               .....+@",
"               .....+@",
"               .....+@",
"               .....+@",
"               .....+@",
"               .....+@",
"               .....+@",
"               .....+@",
"               .....+@",
"               .....+@",
"               .....+@",
"               .....+@",
"               .....+@",
"....................+@",
"....................+@",
"....................+@",
"....................+@",
"...................+@ ",
"+++++++++++++++++++@  ",
"@@@@@@@@@@@@@@@@@@@   "};
