/* XPM */
static char * maximizeA_xpm[] = {
"16 32 23 1",
" 	c None",
".	c #0B0B0B",
"+	c #0A0A0A",
"@	c #010101",
"#	c #CDCECE",
"$	c #CACCCD",
"%	c #C6C8CA",
"&	c #C1C5C8",
"*	c #BDC2C6",
"=	c #B8BEC4",
"-	c #B3BBC2",
";	c #B1BAC1",
">	c #CACBCD",
",	c #C9CBCC",
"'	c #BCC2C6",
")	c #B7BEC4",
"!	c #B3BBC1",
"~	c #B2BAC1",
"{	c #C6C9CA",
"]	c #C2C5C9",
"^	c #B3BCC2",
"/	c #B2BBC2",
"(	c #B2BAC2",
"...+++++++++++++",
".+++++++++++++++",
"++++++++++++++++",
"++++++++++++++++",
"+++@@@@@@@@@@@++",
"+++@#$%&*=-;;@++",
"+++@>,%&')!~;@++",
"+++@{@@@@@@@~@++",
"+++@]@+++++@~@++",
"+++@*@+++++@;@++",
"+++@=@@@@@@@;@++",
"+++@^/(;;~~~;@++",
"+++@@@@@@@@@@@++",
".+++++++++++++++",
".+++++++++++++++",
"..++++++++++++++",
"..++++++++++++++",
"..++++++++++++++",
".+++++++++++++++",
".+++++++++++++++",
".++@@@@@@@@@@@++",
".++@#$%&*=-;;@++",
".++@>,%&')!~;@++",
".++@{@@@@@@@~@++",
".++@]@+++++@~@++",
".++@*@+++++@;@++",
".++@=@@@@@@@;@++",
".++@^/(;;~~~;@++",
".++@@@@@@@@@@@++",
".+++++++++++++++",
".+++++++++++++++",
"...+++++++++++++"};
