/* XPM */
static char * minimizeI_xpm[] = {
"16 32 6 1",
" 	c None",
".	c #E1E1E1",
"+	c #707070",
"@	c #F0F0F0",
"#	c #DDE3E7",
"$	c #DFE1E3",
"................",
"................",
"................",
"................",
"................",
"................",
"................",
"................",
"...+++++++++++..",
"...+@@@@@@@@@+..",
"...+#########+..",
"...+++++++++++..",
"................",
"................",
"................",
"$$$$$$$$$$$$$$$$",
"................",
"................",
"................",
"................",
"................",
"................",
"................",
"................",
"...+++++++++++..",
"...+@@@@@@@@@+..",
"...+#########+..",
"...+++++++++++..",
"................",
"................",
"................",
"$$$$$$$$$$$$$$$$"};
