/* XPM */
static char * restoreA_xpm[] = {
"16 32 40 1",
" 	c None",
".	c #0B0B0B",
"+	c #0A0A0A",
"@	c #010101",
"#	c #CDCECE",
"$	c #CACCCD",
"%	c #C6C8CA",
"&	c #C1C5C8",
"*	c #BDC2C6",
"=	c #B8BEC4",
"-	c #B3BBC2",
";	c #B1BAC1",
">	c #CACBCD",
",	c #C9CBCC",
"'	c #C6C9CA",
")	c #CCCCCD",
"!	c #CBCCCE",
"~	c #C7CACB",
"{	c #C3C6CA",
"]	c #BEC3C6",
"^	c #BAC0C4",
"/	c #B5BCC2",
"(	c #C2C5C9",
"_	c #CACBCC",
":	c #C2C6C9",
"<	c #BEC2C6",
"[	c #BAC0C5",
"}	c #B4BDC2",
"|	c #B2BAC1",
"1	c #B3BCC2",
"2	c #B2BBC2",
"3	c #B2BAC2",
"4	c #B8BFC4",
"5	c #B4BBC2",
"6	c #CBCCCD",
"7	c #C6CACA",
"8	c #C2C6C8",
"9	c #C6C9CB",
"0	c #B7BEC4",
"a	c #C7C9CB",
"...+++++++++++++",
".+++++++++++++++",
"++++++++++++++++",
"+@@@@@@@@@@@++++",
"+@#$%&*=-;;@++++",
"+@>,%&@@@@@@@@@@",
"+@'@@@@)!~{]^/;@",
"+@(@++@_$':<[}|@",
"+@*@++@%@@@@@@;@",
"+@=@@@@:@@;@+@;@",
"+@123;@*@|;@+@;@",
"+@@@@@@4@@@@@@;@",
"++++++@152|;|;;@",
".+++++@@@@@@@@@@",
".+++++++++++++++",
"..++++++++++++++",
"..++++++++++++++",
"..++++++++++++++",
".+++++++++++++++",
".@@@@@@@@@@@++++",
".@#$%&*=-;;@++++",
".@>,%&@@@@@@@@@@",
".@'@@@@6678*4-|@",
".@(@++@669:*02|@",
".@*@++@a@@@@@@;@",
".@=@@@@8@@;@+@|@",
".@123;@*@|;@+@;@",
".@@@@@@=@@@@@@;@",
".+++++@2-2;;;;|@",
".+++++@@@@@@@@@@",
".+++++++++++++++",
"...+++++++++++++"};
