/* XPM */
static char * restoreO_xpm[] = {
"16 32 46 1",
" 	c None",
".	c #0B0B0B",
"+	c #0A0A0A",
"@	c #000000",
"#	c #FDFEFE",
"$	c #FAFCFD",
"%	c #F5F7FA",
"&	c #EEF3F7",
"*	c #E9EFF4",
"=	c #E3EBF2",
"-	c #DDE7EF",
";	c #DAE5EE",
">	c #FAFBFD",
",	c #F8FBFC",
"'	c #F4F7FA",
")	c #F5F8FA",
"!	c #FCFCFD",
"~	c #FBFCFE",
"{	c #F6F9FB",
"]	c #F1F5F9",
"^	c #EBF1F5",
"/	c #E5EDF2",
"(	c #DFE8F0",
"_	c #EFF3F8",
":	c #F9FBFC",
"<	c #EFF4F8",
"[	c #EAF0F5",
"}	c #E5EDF3",
"|	c #DEE9F0",
"1	c #DBE6EE",
"2	c #E9F0F5",
"3	c #DAE6EE",
"4	c #DDE8EF",
"5	c #DCE7EF",
"6	c #DBE6EF",
"7	c #DBE5EE",
"8	c #E3ECF2",
"9	c #DEE7EF",
"0	c #FBFCFD",
"a	c #F5F9FA",
"b	c #EFF4F7",
"c	c #F5F8FB",
"d	c #E2EBF2",
"e	c #F6F8FB",
"f	c #F0F4F7",
"g	c #E9F0F4",
"...+++++++++++++",
".+++++++++++++++",
"++++++++++++++++",
"+@@@@@@@@@@@++++",
"+@#$%&*=-;;@++++",
"+@>,'&@@@@@@@@@@",
"+@)@@@@!~{]^/(;@",
"+@_@++@:$)<[}|1@",
"+@2@++@%@@@@@@3@",
"+@=@@@@<@@3@+@;@",
"+@4563@*@7;@+@;@",
"+@@@@@@8@@@@@@;@",
"++++++@4957313;@",
".+++++@@@@@@@@@@",
".+++++++++++++++",
"..++++++++++++++",
"..++++++++++++++",
"..++++++++++++++",
".+++++++++++++++",
".@@@@@@@@@@@++++",
".@#$%&*=-;;@++++",
".@>,'&@@@@@@@@@@",
".@)@@@@00ab28-7@",
".@_@++@00c<2d57@",
".@2@++@e@@@@@@3@",
".@=@@@@f@@3@+@7@",
".@4563@g@7;@+@;@",
".@@@@@@=@@@@@@;@",
".+++++@5-533331@",
".+++++@@@@@@@@@@",
".+++++++++++++++",
"...+++++++++++++"};
