/* XPM */
static char * restoreI_xpm[] = {
"16 32 29 1",
" 	c None",
".	c #E1E1E1",
"+	c #707070",
"@	c #EFEFEF",
"#	c #EDEEEF",
"$	c #EBECED",
"%	c #E7EAEC",
"&	c #E5E8EA",
"*	c #E2E6E9",
"=	c #DEE4E8",
"-	c #DDE3E7",
";	c #ECEEEE",
">	c #EAECED",
",	c #EEEEEF",
"'	c #EBEDEE",
")	c #E9EBED",
"!	c #E6E9EB",
"~	c #E3E7E9",
"{	c #DFE4E8",
"]	c #E8EAEC",
"^	c #EDEEEE",
"/	c #E5E8EB",
"(	c #E3E7EA",
"_	c #DFE5E8",
":	c #DDE3E8",
"<	c #DFE1E3",
"[	c #EBEDED",
"}	c #EBECEE",
"|	c #E1E6E9",
"................",
"................",
"................",
".+++++++++++....",
".+@#$%&*=--+....",
".+#;>%++++++++++",
".+$++++,,')!~{-+",
".+]+..+^#$]/(_-+",
".+/+..+$++++++-+",
".+*++++]++-+.+-+",
".+==:-+&+--+.+-+",
".++++++*++++++-+",
"......+={=-----+",
"......++++++++++",
"................",
"<<<<<<<<<<<<<<<<",
"................",
"................",
"................",
".+++++++++++....",
".+@#$%&*=--+....",
".+#;>%++++++++++",
".+$++++,,[]/*=-+",
".+]+..+,,}]/|=-+",
".+/+..+}++++++-+",
".+*++++]++-+.+-+",
".+==:-+&+--+.+-+",
".++++++*++++++-+",
"......+===-----+",
"......++++++++++",
"................",
"<<<<<<<<<<<<<<<<"};
