/* XPM */
static char * a_xpm[] = {
"10 22 53 1",
" 	c None",
".	c #7C7C7C",
"+	c #767676",
"@	c #717171",
"#	c #6B6B6B",
"$	c #656565",
"%	c #5F5F5F",
"&	c #585858",
"*	c #B0B0B0",
"=	c #CACACA",
"-	c #505050",
";	c #5C5C5C",
">	c #F7F7F7",
",	c #ECECEC",
"'	c #464646",
")	c #959595",
"!	c #C9C9C9",
"~	c #A1A1A1",
"{	c #BBBBBB",
"]	c #353535",
"^	c #D8D8D8",
"/	c #797979",
"(	c #4E4E4E",
"_	c #F6F6F6",
":	c #404040",
"<	c #242424",
"[	c #4C4C4C",
"}	c #F1F1F1",
"|	c #2A2A2A",
"1	c #C8C8C8",
"2	c #7A7A7A",
"3	c #1A1A1A",
"4	c #9D9D9D",
"5	c #C0C0C0",
"6	c #4F4F4F",
"7	c #9A9A9A",
"8	c #CBCBCB",
"9	c #131313",
"0	c #181818",
"a	c #EDEDED",
"b	c #C4C4C4",
"c	c #383838",
"d	c #0C0C0C",
"e	c #5D5D5D",
"f	c #DFDFDF",
"g	c #ACACAC",
"h	c #8E8E8E",
"i	c #020202",
"j	c #B7B7B7",
"k	c #858585",
"l	c #E6E6E6",
"m	c #040404",
"n	c #000000",
"..........",
"++++++++++",
"@@@@@@@@@@",
"##########",
"$$$$$$$$$$",
"%%%%%%%%%%",
"&&&&*=&&&&",
"---;>,.---",
"''')!~{'''",
"]]]^/(_:]]",
"<<[}|<12<<",
"3345667833",
"90a=bbb>c9",
"defddddghd",
"ijkiiii(lm",
"nnnnnnnnnn",
"nnnnnnnnnn",
"nnnnnnnnnn",
"nnnnnnnnnn",
"nnnnnnnnnn",
"nnnnnnnnnn",
"nnnnnnnnnn"};
