/* XPM */
static char * m_xpm[] = {
"12 22 59 1",
" 	c None",
".	c #7C7C7C",
"+	c #767676",
"@	c #717171",
"#	c #6B6B6B",
"$	c #656565",
"%	c #5F5F5F",
"&	c #585858",
"*	c #505050",
"=	c #464646",
"-	c #A4A4A4",
";	c #686868",
">	c #AFAFAF",
",	c #C3C3C3",
"'	c #7D7D7D",
")	c #4A4A4A",
"!	c #9F9F9F",
"~	c #C5C5C5",
"{	c #9B9B9B",
"]	c #353535",
"^	c #ECECEC",
"/	c #D1D1D1",
"(	c #808080",
"_	c #F6F6F6",
":	c #BEBEBE",
"<	c #848484",
"[	c #6E6E6E",
"}	c #E3E3E3",
"|	c #242424",
"1	c #EBEBEB",
"2	c #6A6A6A",
"3	c #C1C1C1",
"4	c #A1A1A1",
"5	c #8A8A8A",
"6	c #ADADAD",
"7	c #1A1A1A",
"8	c #EAEAEA",
"9	c #424242",
"0	c #B0B0B0",
"a	c #7B7B7B",
"b	c #777777",
"c	c #B3B3B3",
"d	c #131313",
"e	c #E9E9E9",
"f	c #3B3B3B",
"g	c #AEAEAE",
"h	c #737373",
"i	c #B2B2B2",
"j	c #0C0C0C",
"k	c #ACACAC",
"l	c #727272",
"m	c #6F6F6F",
"n	c #020202",
"o	c #E8E8E8",
"p	c #2D2D2D",
"q	c #A8A8A8",
"r	c #6D6D6D",
"s	c #696969",
"t	c #000000",
"............",
"++++++++++++",
"@@@@@@@@@@@@",
"############",
"$$$$$$$$$$$$",
"%%%%%%%%%%%%",
"&&&&&&&&&&&&",
"************",
"=-;>,')!~{==",
"]^/@(_:<[}(]",
"|12||34||56|",
"789770a77bc7",
"defddg+ddhid",
"je]jjkljjm>j",
"nopnnqrnnskn",
"tttttttttttt",
"tttttttttttt",
"tttttttttttt",
"tttttttttttt",
"tttttttttttt",
"tttttttttttt",
"tttttttttttt"};
