/* XPM */
static char * n0_xpm[] = {
"10 22 58 1",
" 	c None",
".	c #7C7C7C",
"+	c #767676",
"@	c #717171",
"#	c #6B6B6B",
"$	c #656565",
"%	c #5F5F5F",
"&	c #585858",
"*	c #5B5B5B",
"=	c #B5B5B5",
"-	c #E8E8E8",
";	c #DDDDDD",
">	c #8D8D8D",
",	c #505050",
"'	c #B0B0B0",
")	c #D3D3D3",
"!	c #616161",
"~	c #7B7B7B",
"{	c #F5F5F5",
"]	c #707070",
"^	c #464646",
"/	c #484848",
"(	c #F3F3F3",
"_	c #727272",
":	c #B7B7B7",
"<	c #B1B1B1",
"[	c #353535",
"}	c #4F4F4F",
"|	c #FFFFFF",
"1	c #3E3E3E",
"2	c #888888",
"3	c #D0D0D0",
"4	c #242424",
"5	c #4E4E4E",
"6	c #FDFDFD",
"7	c #DADADA",
"8	c #1A1A1A",
"9	c #3D3D3D",
"0	c #1E1E1E",
"a	c #131313",
"b	c #FAFAFA",
"c	c #393939",
"d	c #909090",
"e	c #ABABAB",
"f	c #0C0C0C",
"g	c #B4B4B4",
"h	c #989898",
"i	c #E3E3E3",
"j	c #595959",
"k	c #020202",
"l	c #1F1F1F",
"m	c #D4D4D4",
"n	c #D5D5D5",
"o	c #939393",
"p	c #000000",
"q	c #010101",
"r	c #222222",
"s	c #141414",
"..........",
"++++++++++",
"@@@@@@@@@@",
"##########",
"$$$$$$$$$$",
"%%%%%%%%%%",
"&&*=-;>&&&",
",,')!~{],,",
"^/(_^^:<^^",
"[}|1[[23[[",
"456444@744",
"89|088_388",
"a8bcaadeaa",
"ffghf8ijff",
"kklmn-okkk",
"pppqrspppp",
"pppppppppp",
"pppppppppp",
"pppppppppp",
"pppppppppp",
"pppppppppp",
"pppppppppp"};
