/* XPM */
static char * n1_xpm[] = {
"10 22 39 1",
" 	c None",
".	c #7C7C7C",
"+	c #767676",
"@	c #717171",
"#	c #6B6B6B",
"$	c #656565",
"%	c #5F5F5F",
"&	c #585858",
"*	c #858585",
"=	c #B6B6B6",
"-	c #D2D2D2",
";	c #A2A2A2",
">	c #505050",
",	c #A1A1A1",
"'	c #A9A9A9",
")	c #D1D1D1",
"!	c #B8B8B8",
"~	c #464646",
"{	c #B1B1B1",
"]	c #B4B4B4",
"^	c #353535",
"/	c #AAAAAA",
"(	c #ADADAD",
"_	c #242424",
":	c #A3A3A3",
"<	c #A6A6A6",
"[	c #1A1A1A",
"}	c #9E9E9E",
"|	c #131313",
"1	c #9B9B9B",
"2	c #9F9F9F",
"3	c #0C0C0C",
"4	c #999999",
"5	c #9C9C9C",
"6	c #020202",
"7	c #848484",
"8	c #FFFFFF",
"9	c #888888",
"0	c #000000",
"..........",
"++++++++++",
"@@@@@@@@@@",
"##########",
"$$$$$$$$$$",
"%%%%%%%%%%",
"&&*=-;&&&&",
">>,')!>>>>",
"~~~~{]~~~~",
"^^^^/(^^^^",
"____:<____",
"[[[[};[[[[",
"||||12||||",
"3333453333",
"6678888966",
"0000000000",
"0000000000",
"0000000000",
"0000000000",
"0000000000",
"0000000000",
"0000000000"};
