/* XPM */
static char * n2_xpm[] = {
"10 22 48 1",
" 	c None",
".	c #7C7C7C",
"+	c #767676",
"@	c #717171",
"#	c #6B6B6B",
"$	c #656565",
"%	c #5F5F5F",
"&	c #585858",
"*	c #5B5B5B",
"=	c #AFAFAF",
"-	c #DCDCDC",
";	c #ECECEC",
">	c #D5D5D5",
",	c #838383",
"'	c #505050",
")	c #B8B8B8",
"!	c #777777",
"~	c #9C9C9C",
"{	c #FAFAFA",
"]	c #686868",
"^	c #464646",
"/	c #E1E1E1",
"(	c #898989",
"_	c #353535",
":	c #444444",
"<	c #F7F7F7",
"[	c #5D5D5D",
"}	c #242424",
"|	c #272727",
"1	c #C2C2C2",
"2	c #ADADAD",
"3	c #1A1A1A",
"4	c #1C1C1C",
"5	c #B0B0B0",
"6	c #BEBEBE",
"7	c #1F1F1F",
"8	c #131313",
"9	c #141414",
"0	c #A9A9A9",
"a	c #C0C0C0",
"b	c #0C0C0C",
"c	c #0D0D0D",
"d	c #A4A4A4",
"e	c #151515",
"f	c #020202",
"g	c #212121",
"h	c #FFFFFF",
"i	c #000000",
"..........",
"++++++++++",
"@@@@@@@@@@",
"##########",
"$$$$$$$$$$",
"%%%%%%%%%%",
"&*=-;>,&&&",
"'&)!$~{]''",
"^^^^^^/(^^",
"_____:<[__",
"}}}}|12}}}",
"3334567333",
"8890a38888",
"bcd1ebbbbb",
"fghhhhh@ff",
"iiiiiiiiii",
"iiiiiiiiii",
"iiiiiiiiii",
"iiiiiiiiii",
"iiiiiiiiii",
"iiiiiiiiii",
"iiiiiiiiii"};
