/* XPM */
static char * n3_xpm[] = {
"10 22 56 1",
" 	c None",
".	c #7C7C7C",
"+	c #767676",
"@	c #717171",
"#	c #6B6B6B",
"$	c #656565",
"%	c #5F5F5F",
"&	c #585858",
"*	c #AFAFAF",
"=	c #DFDFDF",
"-	c #EDEDED",
";	c #DDDDDD",
">	c #989898",
",	c #505050",
"'	c #898989",
")	c #646464",
"!	c #F8F8F8",
"~	c #7E7E7E",
"{	c #464646",
"]	c #D2D2D2",
"^	c #959595",
"/	c #353535",
"(	c #474747",
"_	c #575757",
":	c #808080",
"<	c #E8E8E8",
"[	c #4E4E4E",
"}	c #242424",
"|	c #8B8B8B",
"1	c #DADADA",
"2	c #F6F6F6",
"3	c #949494",
"4	c #1A1A1A",
"5	c #2B2B2B",
"6	c #D4D4D4",
"7	c #7A7A7A",
"8	c #131313",
"9	c #8F8F8F",
"0	c #A9A9A9",
"a	c #0C0C0C",
"b	c #121212",
"c	c #303030",
"d	c #212121",
"e	c #D7D7D7",
"f	c #7B7B7B",
"g	c #020202",
"h	c #0F0F0F",
"i	c #E7E7E7",
"j	c #E3E3E3",
"k	c #D9D9D9",
"l	c #A0A0A0",
"m	c #080808",
"n	c #000000",
"o	c #1C1C1C",
"p	c #272727",
"q	c #0B0B0B",
"..........",
"++++++++++",
"@@@@@@@@@@",
"##########",
"$$$$$$$$$$",
"%%%%%%%%%%",
"&&*=-;>&&&",
",,'@)'!~,,",
"{{{{{{]^{{",
"///(_:<[//",
"}}}|123}}}",
"4444456744",
"8888889088",
"abcaadefaa",
"ghijk2lmgg",
"nnnopqnnnn",
"nnnnnnnnnn",
"nnnnnnnnnn",
"nnnnnnnnnn",
"nnnnnnnnnn",
"nnnnnnnnnn",
"nnnnnnnnnn"};
