/* XPM */
static char * n4_xpm[] = {
"10 22 48 1",
" 	c None",
".	c #7C7C7C",
"+	c #767676",
"@	c #717171",
"#	c #6B6B6B",
"$	c #656565",
"%	c #5F5F5F",
"&	c #585858",
"*	c #616161",
"=	c #CFCFCF",
"-	c #B2B2B2",
";	c #505050",
">	c #B9B9B9",
",	c #E2E2E2",
"'	c #CECECE",
")	c #464646",
"!	c #757575",
"~	c #9D9D9D",
"{	c #CBCBCB",
"]	c #353535",
"^	c #3C3C3C",
"/	c #DCDCDC",
"(	c #525252",
"_	c #949494",
":	c #C6C6C6",
"<	c #242424",
"[	c #9E9E9E",
"}	c #8B8B8B",
"|	c #C2C2C2",
"1	c #1A1A1A",
"2	c #494949",
"3	c #D8D8D8",
"4	c #282828",
"5	c #C1C1C1",
"6	c #232323",
"7	c #131313",
"8	c #6C6C6C",
"9	c #F1F1F1",
"0	c #F7F7F7",
"a	c #FBFBFB",
"b	c #E9E9E9",
"c	c #0C0C0C",
"d	c #7E7E7E",
"e	c #BBBBBB",
"f	c #020202",
"g	c #797979",
"h	c #B8B8B8",
"i	c #000000",
"..........",
"++++++++++",
"@@@@@@@@@@",
"##########",
"$$$$$$$$$$",
"%%%%%%%%%%",
"&&&&*=-&&&",
";;;;>,';;;",
")))!=~{)))",
"]]^/(_:]]]",
"<<[}<}|<<<",
"1234<}5611",
"789990ab77",
"cccccdeccc",
"fffffghfff",
"iiiiiiiiii",
"iiiiiiiiii",
"iiiiiiiiii",
"iiiiiiiiii",
"iiiiiiiiii",
"iiiiiiiiii",
"iiiiiiiiii"};
