/* XPM */
static char * n5_xpm[] = {
"10 22 52 1",
" 	c None",
".	c #7C7C7C",
"+	c #767676",
"@	c #717171",
"#	c #6B6B6B",
"$	c #656565",
"%	c #5F5F5F",
"&	c #585858",
"*	c #B0B0B0",
"=	c #D5D5D5",
"-	c #CDCDCD",
";	c #505050",
">	c #CBCBCB",
",	c #ADADAD",
"'	c #7B7B7B",
")	c #797979",
"!	c #464646",
"~	c #C8C8C8",
"{	c #8B8B8B",
"]	c #353535",
"^	c #C3C3C3",
"/	c #D8D8D8",
"(	c #CFCFCF",
"_	c #B2B2B2",
":	c #575757",
"<	c #242424",
"[	c #727272",
"}	c #646464",
"|	c #5A5A5A",
"1	c #A0A0A0",
"2	c #F4F4F4",
"3	c #424242",
"4	c #1A1A1A",
"5	c #C1C1C1",
"6	c #8D8D8D",
"7	c #131313",
"8	c #A9A9A9",
"9	c #979797",
"0	c #0C0C0C",
"a	c #121212",
"b	c #2F2F2F",
"c	c #373737",
"d	c #F0F0F0",
"e	c #020202",
"f	c #111111",
"g	c #E4E4E4",
"h	c #DBDBDB",
"i	c #828282",
"j	c #000000",
"k	c #1F1F1F",
"l	c #272727",
"m	c #080808",
"..........",
"++++++++++",
"@@@@@@@@@@",
"##########",
"$$$$$$$$$$",
"%%%%%%%%%%",
"&&*===-&&&",
";;>,'');;;",
"!!~{!!!!!!",
"]]^/(_:]]]",
"<<[}|123<<",
"4444445644",
"7777778977",
"0ab00cd&00",
"efdgh2ieee",
"jjeklmjjjj",
"jjjjjjjjjj",
"jjjjjjjjjj",
"jjjjjjjjjj",
"jjjjjjjjjj",
"jjjjjjjjjj",
"jjjjjjjjjj"};
