/* XPM */
static char * n6_xpm[] = {
"10 22 58 1",
" 	c None",
".	c #7C7C7C",
"+	c #767676",
"@	c #717171",
"#	c #6B6B6B",
"$	c #656565",
"%	c #5F5F5F",
"&	c #585858",
"*	c #878787",
"=	c #D6D6D6",
"-	c #ECECEC",
";	c #D9D9D9",
">	c #777777",
",	c #505050",
"'	c #808080",
")	c #F0F0F0",
"!	c #888888",
"~	c #636363",
"{	c #797979",
"]	c #686868",
"^	c #464646",
"/	c #DADADA",
"(	c #8F8F8F",
"_	c #353535",
":	c #404040",
"<	c #FFFFFF",
"[	c #7B7B7B",
"}	c #C1C1C1",
"|	c #C9C9C9",
"1	c #242424",
"2	c #424242",
"3	c #D7D7D7",
"4	c #595959",
"5	c #5E5E5E",
"6	c #E6E6E6",
"7	c #838383",
"8	c #1A1A1A",
"9	c #333333",
"0	c #6A6A6A",
"a	c #7D7D7D",
"b	c #D0D0D0",
"c	c #131313",
"d	c #141414",
"e	c #F3F3F3",
"f	c #545454",
"g	c #0C0C0C",
"h	c #A3A3A3",
"i	c #A4A4A4",
"j	c #B5B5B5",
"k	c #A0A0A0",
"l	c #020202",
"m	c #151515",
"n	c #C7C7C7",
"o	c #DDDDDD",
"p	c #C4C4C4",
"q	c #000000",
"r	c #1E1E1E",
"s	c #1D1D1D",
"..........",
"++++++++++",
"@@@@@@@@@@",
"##########",
"$$$$$$$$$$",
"%%%%%%%%%%",
"&&&*=-;>&&",
",,')!~{],,",
"^^/(^^^^^^",
"_:<[}|!___",
"12<3456711",
"89<088ab88",
"cdefcc]/cc",
"gghiggjkgg",
"llmn;opmll",
"qqqqrsqqqq",
"qqqqqqqqqq",
"qqqqqqqqqq",
"qqqqqqqqqq",
"qqqqqqqqqq",
"qqqqqqqqqq",
"qqqqqqqqqq"};
