/* XPM */
static char * n7_xpm[] = {
"10 22 40 1",
" 	c None",
".	c #7C7C7C",
"+	c #767676",
"@	c #717171",
"#	c #6B6B6B",
"$	c #656565",
"%	c #5F5F5F",
"&	c #585858",
"*	c #595959",
"=	c #D5D5D5",
"-	c #A2A2A2",
";	c #505050",
">	c #7B7B7B",
",	c #7D7D7D",
"'	c #F7F7F7",
")	c #878787",
"!	c #464646",
"~	c #EFEFEF",
"{	c #494949",
"]	c #353535",
"^	c #BEBEBE",
"/	c #A4A4A4",
"(	c #242424",
"_	c #363636",
":	c #FAFAFA",
"<	c #484848",
"[	c #1A1A1A",
"}	c #818181",
"|	c #CDCDCD",
"1	c #131313",
"2	c #D8D8D8",
"3	c #707070",
"4	c #0C0C0C",
"5	c #414141",
"6	c #F5F5F5",
"7	c #181818",
"8	c #020202",
"9	c #9B9B9B",
"0	c #A1A1A1",
"a	c #000000",
"..........",
"++++++++++",
"@@@@@@@@@@",
"##########",
"$$$$$$$$$$",
"%%%%%%%%%%",
"&*=====-&&",
";;>>>,');;",
"!!!!!.~{!!",
"]]]]]^/]]]",
"((((_:<(((",
"[[[[}|[[[[",
"1111231111",
"4445674444",
"8889088888",
"aaaaaaaaaa",
"aaaaaaaaaa",
"aaaaaaaaaa",
"aaaaaaaaaa",
"aaaaaaaaaa",
"aaaaaaaaaa",
"aaaaaaaaaa"};
