/* XPM */
static char * n8_xpm[] = {
"10 22 67 1",
" 	c None",
".	c #7C7C7C",
"+	c #767676",
"@	c #717171",
"#	c #6B6B6B",
"$	c #656565",
"%	c #5F5F5F",
"&	c #585858",
"*	c #6D6D6D",
"=	c #C9C9C9",
"-	c #EBEBEB",
";	c #E4E4E4",
">	c #ABABAB",
",	c #595959",
"'	c #505050",
")	c #DBDBDB",
"!	c #BEBEBE",
"~	c #5E5E5E",
"{	c #707070",
"]	c #EAEAEA",
"^	c #999999",
"/	c #464646",
"(	c #F5F5F5",
"_	c #737373",
":	c #B6B6B6",
"<	c #AFAFAF",
"[	c #353535",
"}	c #ADADAD",
"|	c #BBBBBB",
"1	c #525252",
"2	c #E6E6E6",
"3	c #666666",
"4	c #242424",
"5	c #414141",
"6	c #DCDCDC",
"7	c #E8E8E8",
"8	c #F4F4F4",
"9	c #A5A5A5",
"0	c #262626",
"a	c #1A1A1A",
"b	c #1F1F1F",
"c	c #E3E3E3",
"d	c #747474",
"e	c #222222",
"f	c #C2C2C2",
"g	c #929292",
"h	c #131313",
"i	c #383838",
"j	c #FFFFFF",
"k	c #1C1C1C",
"l	c #CBCBCB",
"m	c #0C0C0C",
"n	c #191919",
"o	c #F7F7F7",
"p	c #5D5D5D",
"q	c #0E0E0E",
"r	c #B4B4B4",
"s	c #A9A9A9",
"t	c #020202",
"u	c #EFEFEF",
"v	c #D1D1D1",
"w	c #E5E5E5",
"x	c #D0D0D0",
"y	c #212121",
"z	c #000000",
"A	c #060606",
"B	c #1D1D1D",
"..........",
"++++++++++",
"@@@@@@@@@@",
"##########",
"$$$$$$$$$$",
"%%%%%%%%%%",
"&&*=-;>,&&",
"'')!~{]^''",
"//(_//:<//",
"[[}|1$23[[",
"4456789044",
"abcdaefgaa",
"hijkhh+lhh",
"mnopmqrsmm",
"tt%uvwxytt",
"zzzA0Bzzzz",
"zzzzzzzzzz",
"zzzzzzzzzz",
"zzzzzzzzzz",
"zzzzzzzzzz",
"zzzzzzzzzz",
"zzzzzzzzzz"};
