/* XPM */
static char * n9_xpm[] = {
"10 22 58 1",
" 	c None",
".	c #7C7C7C",
"+	c #767676",
"@	c #717171",
"#	c #6B6B6B",
"$	c #656565",
"%	c #5F5F5F",
"&	c #585858",
"*	c #6D6D6D",
"=	c #C9C9C9",
"-	c #EBEBEB",
";	c #D9D9D9",
">	c #838383",
",	c #505050",
"'	c #525252",
")	c #E4E4E4",
"!	c #B1B1B1",
"~	c #5B5B5B",
"{	c #808080",
"]	c #F4F4F4",
"^	c #676767",
"/	c #464646",
"(	c #696969",
"_	c #FEFEFE",
":	c #4D4D4D",
"<	c #C4C4C4",
"[	c #A7A7A7",
"}	c #353535",
"|	c #FDFDFD",
"1	c #393939",
"2	c #B9B9B9",
"3	c #C6C6C6",
"4	c #242424",
"5	c #2A2A2A",
"6	c #EDEDED",
"7	c #434343",
"8	c #F3F3F3",
"9	c #CFCFCF",
"0	c #1A1A1A",
"a	c #DADADA",
"b	c #D8D8D8",
"c	c #AEAEAE",
"d	c #C1C1C1",
"e	c #131313",
"f	c #141414",
"g	c #AFAFAF",
"h	c #8F8F8F",
"i	c #0C0C0C",
"j	c #202020",
"k	c #F1F1F1",
"l	c #020202",
"m	c #A2A2A2",
"n	c #E5E5E5",
"o	c #DFDFDF",
"p	c #E3E3E3",
"q	c #000000",
"r	c #1D1D1D",
"s	c #232323",
"..........",
"++++++++++",
"@@@@@@@@@@",
"##########",
"$$$$$$$$$$",
"%%%%%%%%%%",
"&&*=-;>&&&",
",')!~{]^,,",
"/(_://<[//",
"}%|1}}23}}",
"456>478944",
"00,a6bcd00",
"eeeefeghee",
"iijii:k5ii",
"llmnop/lll",
"qqqrslqqqq",
"qqqqqqqqqq",
"qqqqqqqqqq",
"qqqqqqqqqq",
"qqqqqqqqqq",
"qqqqqqqqqq",
"qqqqqqqqqq"};
