/* XPM */
static char * p_xpm[] = {
"10 22 48 1",
" 	c None",
".	c #7C7C7C",
"+	c #767676",
"@	c #717171",
"#	c #6B6B6B",
"$	c #656565",
"%	c #5F5F5F",
"&	c #585858",
"*	c #C0C0C0",
"=	c #D5D5D5",
"-	c #CBCBCB",
";	c #9D9D9D",
">	c #595959",
",	c #505050",
"'	c #E1E1E1",
")	c #A7A7A7",
"!	c #8E8E8E",
"~	c #EFEFEF",
"{	c #A6A6A6",
"]	c #464646",
"^	c #DFDFDF",
"/	c #888888",
"(	c #A0A0A0",
"_	c #D8D8D8",
":	c #353535",
"<	c #DCDCDC",
"[	c #7D7D7D",
"}	c #A8A8A8",
"|	c #CDCDCD",
"1	c #242424",
"2	c #DADADA",
"3	c #B6B6B6",
"4	c #AAAAAA",
"5	c #F8F8F8",
"6	c #6C6C6C",
"7	c #1A1A1A",
"8	c #B3B3B3",
"9	c #404040",
"0	c #131313",
"a	c #D7D7D7",
"b	c #686868",
"c	c #0C0C0C",
"d	c #D6D6D6",
"e	c #636363",
"f	c #020202",
"g	c #D4D4D4",
"h	c #5D5D5D",
"i	c #000000",
"..........",
"++++++++++",
"@@@@@@@@@@",
"##########",
"$$$$$$$$$$",
"%%%%%%%%%%",
"&&*==-;>&&",
",,')+!~{,,",
"]]^/]](_]]",
"::<[::}|::",
"1123!45611",
"77_8/.9777",
"00ab000000",
"ccdecccccc",
"ffghffffff",
"iiiiiiiiii",
"iiiiiiiiii",
"iiiiiiiiii",
"iiiiiiiiii",
"iiiiiiiiii",
"iiiiiiiiii",
"iiiiiiiiii"};
