/* XPM */
static char * percent_xpm[] = {
"13 22 72 1",
" 	c None",
".	c #7C7C7C",
"+	c #767676",
"@	c #717171",
"#	c #6B6B6B",
"$	c #656565",
"%	c #5F5F5F",
"&	c #585858",
"*	c #A9A9A9",
"=	c #DBDBDB",
"-	c #CDCDCD",
";	c #646464",
">	c #858585",
",	c #B7B7B7",
"'	c #505050",
")	c #707070",
"!	c #DCDCDC",
"~	c #525252",
"{	c #A1A1A1",
"]	c #AEAEAE",
"^	c #545454",
"/	c #626262",
"(	c #464646",
"_	c #828282",
":	c #B8B8B8",
"<	c #C4C4C4",
"[	c #9F9F9F",
"}	c #9A9A9A",
"|	c #353535",
"1	c #575757",
"2	c #D9D9D9",
"3	c #383838",
"4	c #979797",
"5	c #4D4D4D",
"6	c #D5D5D5",
"7	c #242424",
"8	c #CECECE",
"9	c #B5B5B5",
"0	c #303030",
"a	c #BABABA",
"b	c #5A5A5A",
"c	c #4E4E4E",
"d	c #9D9D9D",
"e	c #7F7F7F",
"f	c #252525",
"g	c #1A1A1A",
"h	c #5C5C5C",
"i	c #292929",
"j	c #E2E2E2",
"k	c #AFAFAF",
"l	c #131313",
"m	c #D1D1D1",
"n	c #2A2A2A",
"o	c #B3B3B3",
"p	c #4B4B4B",
"q	c #B9B9B9",
"r	c #0C0C0C",
"s	c #777777",
"t	c #3F3F3F",
"u	c #C3C3C3",
"v	c #5B5B5B",
"w	c #020202",
"x	c #222222",
"y	c #C9C9C9",
"z	c #050505",
"A	c #ACACAC",
"B	c #D6D6D6",
"C	c #363636",
"D	c #000000",
"E	c #151515",
"F	c #010101",
"G	c #232323",
".............",
"+++++++++++++",
"@@@@@@@@@@@@@",
"#############",
"$$$$$$$$$$$$$",
"%%%%%%%%%%%%%",
"&&*=-;&&>,&&&",
"')!~{]'^!/'''",
"(_:(+<([}((((",
"|1234[563||||",
"77>890abcdef7",
"gggggh]ij^keg",
"llllgmn~olpql",
"rrrr>srturv*r",
"wwwxyzww:ABCw",
"DDDlEDDDFGrDD",
"DDDDDDDDDDDDD",
"DDDDDDDDDDDDD",
"DDDDDDDDDDDDD",
"DDDDDDDDDDDDD",
"DDDDDDDDDDDDD",
"DDDDDDDDDDDDD"};
