/* XPM */
static char * slash_xpm[] = {
"6 22 39 1",
" 	c None",
".	c #7C7C7C",
"+	c #767676",
"@	c #717171",
"#	c #6B6B6B",
"$	c #656565",
"%	c #5F5F5F",
"&	c #585858",
"*	c #616161",
"=	c #CBCBCB",
"-	c #505050",
";	c #8B8B8B",
">	c #C3C3C3",
",	c #464646",
"'	c #BEBEBE",
")	c #868686",
"!	c #353535",
"~	c #383838",
"{	c #EEEEEE",
"]	c #404040",
"^	c #242424",
"/	c #5E5E5E",
"(	c #C4C4C4",
"_	c #1A1A1A",
":	c #9E9E9E",
"<	c #7A7A7A",
"[	c #131313",
"}	c #E3E3E3",
"|	c #2D2D2D",
"1	c #0C0C0C",
"2	c #3B3B3B",
"3	c #CFCFCF",
"4	c #020202",
"5	c #818181",
"6	c #7F7F7F",
"7	c #000000",
"8	c #D0D0D0",
"9	c #2F2F2F",
"0	c #1B1B1B",
"......",
"++++++",
"@@@@@@",
"######",
"$$$$$$",
"%%%%%%",
"&&&*=&",
"---;>-",
",,,'),",
"!!~{]!",
"^^/(^^",
"__:<__",
"[[}|[[",
"123111",
"456444",
"789777",
"707777",
"777777",
"777777",
"777777",
"777777",
"777777"};
