/* XPM */
static char * space_xpm[] = {
"5 22 17 1",
" 	c None",
".	c #7C7C7C",
"+	c #767676",
"@	c #717171",
"#	c #6B6B6B",
"$	c #656565",
"%	c #5F5F5F",
"&	c #585858",
"*	c #505050",
"=	c #464646",
"-	c #353535",
";	c #242424",
">	c #1A1A1A",
",	c #131313",
"'	c #0C0C0C",
")	c #020202",
"!	c #000000",
".....",
"+++++",
"@@@@@",
"#####",
"$$$$$",
"%%%%%",
"&&&&&",
"*****",
"=====",
"-----",
";;;;;",
">>>>>",
",,,,,",
"'''''",
")))))",
"!!!!!",
"!!!!!",
"!!!!!",
"!!!!!",
"!!!!!",
"!!!!!",
"!!!!!"};
