/* XPM */
static char * start_xpm[] = {
"60 25 297 2",
"  	c None",
". 	c #414141",
"+ 	c #424242",
"@ 	c #434343",
"# 	c #454545",
"$ 	c #464646",
"% 	c #474747",
"& 	c #444444",
"* 	c #4A4A4A",
"= 	c #505050",
"- 	c #545454",
"; 	c #565656",
"> 	c #585858",
", 	c #575757",
"' 	c #555555",
") 	c #515151",
"! 	c #4B4B4B",
"~ 	c #4C4C4C",
"{ 	c #656565",
"] 	c #6F6F6F",
"^ 	c #747474",
"/ 	c #757575",
"( 	c #767676",
"_ 	c #717171",
": 	c #686868",
"< 	c #5A5A5A",
"[ 	c #4D4D4D",
"} 	c #494949",
"| 	c #616161",
"1 	c #535252",
"2 	c #4D4C4C",
"3 	c #4C4D4D",
"4 	c #4C4C4D",
"5 	c #4D4D4C",
"6 	c #4D4C4D",
"7 	c #4C4D4C",
"8 	c #626262",
"9 	c #595959",
"0 	c #484848",
"a 	c #646464",
"b 	c #505151",
"c 	c #4B4B4A",
"d 	c #4A4B4B",
"e 	c #4A4A4B",
"f 	c #4B4A4B",
"g 	c #4B4A4A",
"h 	c #4A4B4A",
"i 	c #6D6D6D",
"j 	c #484949",
"k 	c #484849",
"l 	c #494849",
"m 	c #494948",
"n 	c #6E6E6E",
"o 	c #525252",
"p 	c #727272",
"q 	c #474847",
"r 	c #474748",
"s 	c #535353",
"t 	c #464545",
"u 	c #454645",
"v 	c #5F605F",
"w 	c #FFFFFF",
"x 	c #D1D1D1",
"y 	c #454646",
"z 	c #454546",
"A 	c #E9E9E9",
"B 	c #6D6E6D",
"C 	c #E7E7E7",
"D 	c #D3D3D3",
"E 	c #464546",
"F 	c #6C6C6D",
"G 	c #DBDBDB",
"H 	c #FCFCFC",
"I 	c #60605F",
"J 	c #696868",
"K 	c #EEEEEE",
"L 	c #404040",
"M 	c #444443",
"N 	c #545555",
"O 	c #C5C5C4",
"P 	c #A4A4A4",
"Q 	c #434444",
"R 	c #434443",
"S 	c #444344",
"T 	c #434344",
"U 	c #ADAEAE",
"V 	c #A1A1A1",
"W 	c #444343",
"X 	c #585857",
"Y 	c #4E4F4F",
"Z 	c #9C9C9C",
"` 	c #A2A2A3",
" .	c #9A9999",
"..	c #424141",
"+.	c #424241",
"@.	c #707070",
"#.	c #D6D6D6",
"$.	c #858585",
"%.	c #EAEAEA",
"&.	c #7F7F7F",
"*.	c #CDCDCD",
"=.	c #6A6A6A",
"-.	c #EDEDED",
";.	c #F9F9F9",
">.	c #E0E0E0",
",.	c #F2F2F2",
"'.	c #737373",
").	c #3F3F3F",
"!.	c #414040",
"~.	c #404041",
"{.	c #D0D0CF",
"].	c #414140",
"^.	c #F7F7F7",
"/.	c #BDBEBE",
"(.	c #D5D5D5",
"_.	c #C7C6C6",
":.	c #414241",
"<.	c #EFEFEF",
"[.	c #FDFDFD",
"}.	c #4E4E4E",
"|.	c #B3B3B2",
"1.	c #8D8D8D",
"2.	c #B3B3B3",
"3.	c #404140",
"4.	c #E4E4E4",
"5.	c #C4C4C4",
"6.	c #FEFEFE",
"7.	c #5D5E5E",
"8.	c #C3C3C3",
"9.	c #3E3E3E",
"0.	c #3E3F3E",
"a.	c #3F3F3E",
"b.	c #CFCFCF",
"c.	c #3F3E3E",
"d.	c #575756",
"e.	c #F8F8F8",
"f.	c #FBFBFB",
"g.	c #B2B2B2",
"h.	c #9C9B9C",
"i.	c #7B7B7B",
"j.	c #9D9D9D",
"k.	c #8D8C8D",
"l.	c #8C8D8D",
"m.	c #828282",
"n.	c #3E3F3F",
"o.	c #F5F5F5",
"p.	c #E8E8E8",
"q.	c #B5B5B5",
"r.	c #3F3E3F",
"s.	c #848484",
"t.	c #8E8F8F",
"u.	c #9A9A9A",
"v.	c #848585",
"w.	c #3E3E3F",
"x.	c #3D3D3D",
"y.	c #4F4F4F",
"z.	c #3E3E3D",
"A.	c #969696",
"B.	c #A7A7A7",
"C.	c #3D3D3E",
"D.	c #3D3E3D",
"E.	c #989797",
"F.	c #B0B0B0",
"G.	c #555655",
"H.	c #4D4E4D",
"I.	c #B8B8B8",
"J.	c #C0C0C0",
"K.	c #C5C5C5",
"L.	c #5C5C5C",
"M.	c #A2A2A2",
"N.	c #7C7B7B",
"O.	c #FAFAFA",
"P.	c #CCCCCC",
"Q.	c #D8D9D8",
"R.	c #3E3D3D",
"S.	c #3C3C3C",
"T.	c #050505",
"U.	c #050605",
"V.	c #282829",
"W.	c #C1C1C1",
"X.	c #909090",
"Y.	c #060505",
"Z.	c #919191",
"`.	c #060506",
" +	c #0A0A0A",
".+	c #F0F0F0",
"++	c #717070",
"@+	c #737374",
"#+	c #CACACA",
"$+	c #101110",
"%+	c #060605",
"&+	c #DCDCDC",
"*+	c #363636",
"=+	c #B9B9B9",
"-+	c #050506",
";+	c #3B3B3B",
">+	c #090A0A",
",+	c #0A090A",
"'+	c #0A0A09",
")+	c #2C2C2B",
"!+	c #C2C2C2",
"~+	c #7A7A7A",
"{+	c #8B8B8B",
"]+	c #090A09",
"^+	c #090909",
"/+	c #7A7A79",
"(+	c #AEADAE",
"_+	c #A8A8A8",
":+	c #C6C6C6",
"<+	c #393A3A",
"[+	c #313130",
"}+	c #CAC9CA",
"|+	c #BCBCBC",
"1+	c #DDDDDD",
"2+	c #646564",
"3+	c #6B6B6C",
"4+	c #09090A",
"5+	c #3A3A3A",
"6+	c #0E0E0E",
"7+	c #0F0E0E",
"8+	c #0E0E0F",
"9+	c #303030",
"0+	c #292828",
"a+	c #999999",
"b+	c #787878",
"c+	c #777777",
"d+	c #282828",
"e+	c #F3F3F3",
"f+	c #E5E5E5",
"g+	c #6C6C6C",
"h+	c #6C6D6C",
"i+	c #F1F1F1",
"j+	c #0F0F0F",
"k+	c #1D1D1D",
"l+	c #222222",
"m+	c #131312",
"n+	c #121313",
"o+	c #121213",
"p+	c #333334",
"q+	c #121312",
"r+	c #131313",
"s+	c #3F403F",
"t+	c #BEBEBD",
"u+	c #AEAEAE",
"v+	c #F6F6F6",
"w+	c #1C1C1C",
"x+	c #BBBBBB",
"y+	c #131213",
"z+	c #121212",
"A+	c #A6A6A6",
"B+	c #313232",
"C+	c #131212",
"D+	c #DEDEDE",
"E+	c #393939",
"F+	c #161717",
"G+	c #171716",
"H+	c #171717",
"I+	c #171617",
"J+	c #171616",
"K+	c #383838",
"L+	c #1B1C1B",
"M+	c #1C1B1C",
"N+	c #1B1B1B",
"O+	c #1B1C1C",
"P+	c #1B1B1C",
"Q+	c #1C1B1B",
"R+	c #1C1C1B",
"S+	c #373737",
"T+	c #201F20",
"U+	c #1F201F",
"V+	c #1F1F1F",
"W+	c #20201F",
"X+	c #201F1F",
"Y+	c #1F1F20",
"Z+	c #202020",
"`+	c #1F2020",
" @	c #666666",
".@	c #343434",
"+@	c #2E2E2E",
"@@	c #242424",
"#@	c #232324",
"$@	c #242423",
"%@	c #232424",
"&@	c #242324",
"*@	c #242323",
"=@	c #323232",
"-@	c #313131",
";@	c #282928",
">@	c #292829",
",@	c #282929",
"'@	c #292928",
")@	c #6B6B6B",
"!@	c #5B5B5B",
"~@	c #2D2D2D",
"{@	c #2F2F2F",
"]@	c #2C2C2C",
"^@	c #333333",
". . + @ # $ % % % % % % % % % % % % % % % % % % % % % % % % % % % % % % % % % % % % % % % % % % % % % % % % $ & @ + . . ",
". + # * = - ; > > > > > > > > > > > > > > > > > > > > > > > > > > > > > > > > > > > > > > > > > > > > > > , ' ) ! # @ . ",
". & ~ > { ] ^ / ( ( ( ( ( ( ( ( ( ( ( ( ( ( ( ( ( ( ( ( ( ( ( ( ( ( ( ( ( ( ( ( ( ( ( ( ( ( ( ( ( ( ( ( ( / _ : < [ & . ",
"+ } > | 1 2 2 [ 3 4 5 ~ 3 2 6 4 [ 4 7 4 2 [ 2 ~ 5 ~ ~ [ 3 3 5 4 6 3 7 [ [ ~ 7 5 [ ~ 2 3 6 3 2 7 [ 4 ~ 2 [ ~ 3 4 8 9 0 . ",
"+ [ a b ! c c d e f d f d g f ! d ! f ! d ! ! ! ! ! ! ! ! e ! d f ! ! ! c ! ! ! d ! f d d ! f f ! g h d e e ! g ) { [ + ",
"+ ) i } j } } } } } k } } } } l } j } } } } } m l } } } l l m } } } m } } m l } j } l } } j } j } k } } } } } j j n = + ",
"+ o p % % % % % % % q % % % % % % r % % % % % % % r % % % % % % % % % % % % % % % % % % % % % % % % % % % % % % % p o + ",
"+ s ^ t # u t v w x $ u t # u t t t u # # y # # z A w B u # # C w D # E $ F w G # H w w I u # z J w w K # z u # z ^ s + ",
"L o p & & M @ N O P Q R S M Q T @ & Q T Q R R R M U w V W S X w w H Y & R Z w ` T H w w  .& & R P w w K R M Q S M p o L ",
"L o p ..+ + + + + + + + +.+ + + + + + + + + + + + @.w #.+ + $.w %.w &.+ + *.w =.+ H -.;.#.+ + + >.;.,.-.+ + + + + '.o L ",
").) p !.!.~.L < w {.].~.B x ^.w w /.~.] (.;.w w _.:.<.[.}.].|.w 1.w 2.3.# ;.-.!.!.H 4.5.6.s L 7.w 8.%.-.3.!.L 3.3.p ) ).",
"9.= _ 0.a.a.a.< w b.c.d.e.f.g.Z h.i., ;.,.j.k.l./ ).2.w m.n.>.<.@ o.p.).@.w q.a.r.H 4.s.w t.).u.w v.%.-.).0.r.n.w.p = 9.",
"x.y.@.x.x.x.z.> w b.z.A.w B.x.C.x.D.E.w F.' G.G.H.x.^ w I.~ w J.x.K.w L.M.w N.z.D.H 4.0 O.P.x.Q.f.} %.-.R.R.x.x.x._ y.x.",
"S.}.@.T.U.T.T.V.w W.T.X.w a T.T.T.Y.Z.w w w w w q.`. +.+A ; w p Y.++w @+#+;.$+%+T.H &+T.q.f.*+w =+T.4.p.Y.T.T.%+-+@.}.S.",
";+[ ] >+,+ +'+)+w !+>+~+w {+]+^+>+'+/+w (+; ; ; ). + +_+w :+w <+,+[+w }+H |+>+ + +H 1+'+2+w b.w 3+4+4.p.,+'+]+>+4+@.[ ;+",
"5+[ ] 6+7+8+6+9+w 8.6+0+,.O.a+b+c+o d+e+f+~+g+h+= 7+6+L.w w i+j+6+6+f+w w / 6+6+6+H 1+6+k+O.w [.l+6+f+A 6+6+6+6+6+] [ 5+",
"5+[ ] m+n+o+m+p+w 5.q+r+s+t+e+w w u+q+% K.v+w w =+o+r+w+v+w x+y+z+q+A+w w B+m+C+r+H D+C+y+x+w K.o+y+f+A z+q+y+C+C+] [ 5+",
"E+! n F+G+H+H+I+I+H+H+G+G+F+H+H+F+H+H+H+H+H+H+G+H+H+H+H+G+H+F+H+H+H+H+H+F+H+H+H+H+H+H+H+J+H+J+H+H+H+I+H+H+I+I+H+H+n ~ E+",
"K+0 =.L+M+N+O+P+O+Q+N+N+N+N+N+N+N+N+N+O+Q+L+N+P+P+P+L+O+N+N+N+M+Q+N+w+N+N+N+Q+N+M+P+N+R+N+Q+M+N+N+M+P+L+N+M+N+N+P+=.0 S+",
"S+$ { T+U+V+W+W+X+W+Y+Z+W+T+V+Y+Z+Z+T+T+U+`+Z+W+W+U+Z+Z+Z+Z+`+X+U+`+`+U+`+`+Z+Z+Z+Z+Z+U+Y+W+X+Y+Z+Z+Z+W+T+Z+Y+U+X+ @$ S+",
".@. 9 +@@@@@@@#@$@@@@@@@%@@@@@@@&@@@@@$@@@$@@@$@@@*@$@@@@@@@@@@@@@@@@@@@%@@@%@@@@@@@@@@@@@@@@@@@$@@@@@%@@@@@@@@@+@< . .@",
"=@5+* [ -@;@>@d+d+V.V.0+d+;@;@0+;@;@0+d+0+d+d+;@d+>@d+,@0+d+;@d+;@d+d+d+0+d+d+V.;@d+d+d+V.d+;@'@;@d+d+V.d+d+V.d+}.! E+=@",
"9+.@S.* < a =.)@g+g+g+g+g+g+g+g+g+g+g+g+g+g+g+g+g+g+g+g+g+g+g+g+g+g+g+g+g+g+g+g+g+g+g+g+g+g+g+g+g+g+g+g+g+)@ @!@~ x..@9+",
"~@+@=@K+9.@ # % % % % % % % % % % % % % % % % % % % % % % % % % % % % % % % % % % % % % % % % % % % % % % $ & ).K+=@{@~@",
"]@]@~@{@9+=@^@^@^@^@^@^@^@^@^@^@^@^@^@^@^@^@^@^@^@^@^@^@^@^@^@^@^@^@^@^@^@^@^@^@^@^@^@^@^@^@^@^@^@^@^@^@^@^@=@9+{@~@]@]@"};
