/* XPM */
static char * taskbarbg_xpm[] = {
"1 30 23 1",
" 	c None",
".	c #414141",
"+	c #404040",
"@	c #3F3F3F",
"#	c #3E3E3E",
"$	c #3D3D3D",
"%	c #3C3C3C",
"&	c #3B3B3B",
"*	c #3A3A3A",
"=	c #393939",
"-	c #383838",
";	c #373737",
">	c #363636",
",	c #353535",
"'	c #343434",
")	c #333333",
"!	c #323232",
"~	c #313131",
"{	c #303030",
"]	c #2F2F2F",
"^	c #2E2E2E",
"/	c #2D2D2D",
"(	c #2C2C2C",
".",
".",
"+",
"@",
"@",
"#",
"$",
"%",
"%",
"&",
"*",
"*",
"=",
"-",
";",
";",
">",
",",
"'",
"'",
")",
"!",
"~",
"~",
"{",
"]",
"]",
"^",
"/",
"("};
