/* XPM */
static char *closeA[] = {
/* width height ncolors chars_per_pixel */
"20 48 42 1",
/* colors */
"  c #363333",
". c #ED5152",
"X c #5B2F30",
"o c #5B393A",
"O c #EF2124",
"+ c #373333",
"@ c #373434",
"# c #EF5152",
"$ c #5D2F30",
"% c #5D3A3A",
"& c #4C1919",
"* c #F22124",
"= c #F25152",
"- c #191919",
"; c #AC2829",
": c #D04445",
"> c #AC4647",
", c #AD2729",
"< c #AD2829",
"1 c #AD4647",
"2 c #AE2729",
"3 c #AE4747",
"4 c #AF2729",
"5 c #AF4747",
"6 c #B12729",
"7 c #B14748",
"8 c #FC2023",
"9 c #EA2224",
"0 c #B32729",
"q c #FC5354",
"w c #B34748",
"e c #333333",
"r c #EA5051",
"t c #592F30",
"y c #593939",
"u c #ED2124",
"i c #481818",
"p c #EC4E4F",
"a c #353535",
"s c #5A2F30",
"d c #C84243",
"f c #5A3939",
/* pixels */
"aaaaaaaaaaaaaaaaaaaa",
"eeeeeeeeeeeeeeeeeeee",
"eeeeeeeeeeeeeeeeeeee",
"eeeeeeeeeeeeeeeeeeee",
"eeeeeeeeeeeeeeeeeeee",
"eeeeeeeeeeeeeeeeeeee",
"eeeeeeet;99<seeeeeee",
"eeeee 2888888; eeeee",
"eeeee6888888886eeeee",
"eeeet8888888888Xeeee",
"eeee288888888886eeee",
"eeeeu8888888888*eeee",
"eeeeu88888888889eeee",
"eeee48888888888;eeee",
"eeee$8888888888seeee",
"eeeee,88888888,eeeee",
"eeeee+28888880 eeeee",
"eeeeeee$6OO4seeeeeee",
"eeeeeeeeeeeeeeeeeeee",
"eeeeeeeeeeeeeeeeeeee",
"eeeeeeeeeeeeeeeeeeee",
"eeeeeeeeeeeeeeeeeeee",
"eeeeeeeeeeeeeeeeeeee",
"--------------------",
"aaaaaaaaaaaaaaaaaaaa",
"eeeeeeeeeeeeeeeeeeee",
"eeeeeeeeeeeeeeeeeeee",
"eeeeeeeeeeeeeeeeeeee",
"eeeeeeeeeeeeeeeeeeee",
"eeeeeeeeeeeeeeeeeeee",
"eeeeeeey>rr1feeeeeee",
"eeeee 3qqqqqq> eeeee",
"eeeee7p:qqqq:p7eeeee",
"eeeeyq:&dqqd&:qoeeee",
"eeee3qqd&dd&dqq7eeee",
"eeee.qqqdi&dqqq=eeee",
"eeee.qqqd&idqqqreeee",
"eeee5qqd&dd&dqq>eeee",
"eeee%q:&dqqd&:qfeeee",
"eeeee1p:qqqq:p1eeeee",
"eeeee@3qqqqqqw eeeee",
"eeeeeee%7##5feeeeeee",
"eeeeeeeeeeeeeeeeeeee",
"eeeeeeeeeeeeeeeeeeee",
"eeeeeeeeeeeeeeeeeeee",
"eeeeeeeeeeeeeeeeeeee",
"eeeeeeeeeeeeeeeeeeee",
"--------------------"
};
