/* XPM */
static char *minimizeA[] = {
/* width height ncolors chars_per_pixel */
"20 48 44 1",
/* colors */
"  c #363532",
". c #363533",
"X c #5A4F2B",
"o c #5A5135",
"O c #5B4F2B",
"+ c #B59019",
"@ c #373632",
"# c #373633",
"$ c #5B502B",
"% c #5B5135",
"& c #5B5235",
"* c #B59739",
"= c #EDB70E",
"- c #FFC40A",
"; c #5D512B",
": c #5D5335",
"> c #EDC23C",
", c #FFD03D",
"< c #5E512A",
"1 c #5E5435",
"2 c #CBA530",
"3 c #F0B90D",
"4 c #F0C43C",
"5 c #191919",
"6 c #F2BA0D",
"7 c #F2C63C",
"8 c #F5BD0C",
"9 c #9B7E25",
"0 c #F5C83C",
"q c #AE8A1A",
"w c #AE8B1A",
"e c #AE9239",
"r c #AF8B1A",
"t c #AF9239",
"y c #AF9339",
"u c #B08C1A",
"i c #B09339",
"p c #B18D1A",
"a c #333333",
"s c #B19439",
"d c #B38E19",
"f c #353535",
"g c #B39539",
"h c #B39639",
/* pixels */
"ffffffffffffffffffff",
"aaaaaaaaaaaaaaaaaaaa",
"aaaaaaaaaaaaaaaaaaaa",
"aaaaaaaaaaaaaaaaaaaa",
"aaaaaaaaaaaaaaaaaaaa",
"aaaaaaaaaaaaaaaaaaaa",
"aaaaaaaXq==wOaaaaaaa",
"aaaaa r------q aaaaa",
"aaaaad--------daaaaa",
"aaaaX----------$aaaa",
"aaaau----------daaaa",
"aaaa3----------8aaaa",
"aaaa3----------=aaaa",
"aaaap----------qaaaa",
"aaaa;----------Xaaaa",
"aaaaar--------raaaaa",
"aaaaa@r------+ aaaaa",
"aaaaaaa<d66pOaaaaaaa",
"aaaaaaaaaaaaaaaaaaaa",
"aaaaaaaaaaaaaaaaaaaa",
"aaaaaaaaaaaaaaaaaaaa",
"aaaaaaaaaaaaaaaaaaaa",
"aaaaaaaaaaaaaaaaaaaa",
"55555555555555555555",
"ffffffffffffffffffff",
"aaaaaaaaaaaaaaaaaaaa",
"aaaaaaaaaaaaaaaaaaaa",
"aaaaaaaaaaaaaaaaaaaa",
"aaaaaaaaaaaaaaaaaaaa",
"aaaaaaaaaaaaaaaaaaaa",
"aaaaaaaoe>>e&aaaaaaa",
"aaaaa.y,,,,,,e.aaaaa",
"aaaaah,,,,,,,,haaaaa",
"aaaao,,,,,,,,,,&aaaa",
"aaaai,,,,,,,,,,gaaaa",
"aaaa429999999920aaaa",
"aaaa42999999992>aaaa",
"aaaas,,,,,,,,,,eaaaa",
"aaaa:,,,,,,,,,,oaaaa",
"aaaaat,,,,,,,,taaaaa",
"aaaaa#y,,,,,,*.aaaaa",
"aaaaaaa1g77s%aaaaaaa",
"aaaaaaaaaaaaaaaaaaaa",
"aaaaaaaaaaaaaaaaaaaa",
"aaaaaaaaaaaaaaaaaaaa",
"aaaaaaaaaaaaaaaaaaaa",
"aaaaaaaaaaaaaaaaaaaa",
"55555555555555555555"
};
