/* XPM */
static char *minimizeO[] = {
/* width height ncolors chars_per_pixel */
"20 48 46 1",
/* colors */
"  c #363532",
". c #363533",
"X c #5A4F2B",
"o c #5A5135",
"O c #5B4F2B",
"+ c #B59019",
"@ c #373632",
"# c #373633",
"$ c #5B502B",
"% c #5B5135",
"& c #5B5235",
"* c #B59739",
"= c #EDB70E",
"- c #FFC40A",
"; c #5D512B",
": c #5D5335",
"> c #EDC23C",
", c #FFD03D",
"< c #5E512A",
"1 c #5E5435",
"2 c #CB9C08",
"3 c #CBA530",
"4 c #F0B90D",
"5 c #F0C43C",
"6 c #191919",
"7 c #F2BA0D",
"8 c #F2C63C",
"9 c #9B7706",
"0 c #F5BD0C",
"q c #9B7E25",
"w c #F5C83C",
"e c #AE8A1A",
"r c #AE8B1A",
"t c #AE9239",
"y c #AF8B1A",
"u c #AF9239",
"i c #AF9339",
"p c #B08C1A",
"a c #B09339",
"s c #B18D1A",
"d c #333333",
"f c #B19439",
"g c #B38E19",
"h c #353535",
"j c #B39539",
"k c #B39639",
/* pixels */
"hhhhhhhhhhhhhhhhhhhh",
"dddddddddddddddddddd",
"dddddddddddddddddddd",
"dddddddddddddddddddd",
"dddddddddddddddddddd",
"dddddddddddddddddddd",
"dddddddXe==rOddddddd",
"ddddd y------e ddddd",
"dddddg--------gddddd",
"ddddX----------$dddd",
"ddddp----------gdddd",
"dddd429999999920dddd",
"dddd42999999992=dddd",
"dddds----------edddd",
"dddd;----------Xdddd",
"dddddy--------yddddd",
"ddddd@y------+ ddddd",
"ddddddd<g77sOddddddd",
"dddddddddddddddddddd",
"dddddddddddddddddddd",
"dddddddddddddddddddd",
"dddddddddddddddddddd",
"dddddddddddddddddddd",
"66666666666666666666",
"hhhhhhhhhhhhhhhhhhhh",
"dddddddddddddddddddd",
"dddddddddddddddddddd",
"dddddddddddddddddddd",
"dddddddddddddddddddd",
"dddddddddddddddddddd",
"dddddddot>>t&ddddddd",
"ddddd.i,,,,,,t.ddddd",
"dddddk,,,,,,,,kddddd",
"ddddo,,,,,,,,,,&dddd",
"dddda,,,,,,,,,,jdddd",
"dddd53qqqqqqqq3wdddd",
"dddd53qqqqqqqq3>dddd",
"ddddf,,,,,,,,,,tdddd",
"dddd:,,,,,,,,,,odddd",
"dddddu,,,,,,,,uddddd",
"ddddd#i,,,,,,*.ddddd",
"ddddddd1j88f%ddddddd",
"dddddddddddddddddddd",
"dddddddddddddddddddd",
"dddddddddddddddddddd",
"dddddddddddddddddddd",
"dddddddddddddddddddd",
"66666666666666666666"
};
