/* XPM */
static char *minimizeI[] = {
/* width height ncolors chars_per_pixel */
"20 48 33 1",
/* colors */
"  c #494949",
". c #262626",
"X c #4A4A4A",
"o c #ECC13B",
"O c #272727",
"+ c #FFD03D",
"@ c #282828",
"# c #4C4C4C",
"$ c #292826",
"% c #CBA530",
"& c #EFC33B",
"* c #2A2926",
"= c #191919",
"- c #4F462A",
"; c #3D3D3D",
": c #A98D34",
"> c #F1C53B",
", c #50472A",
"< c #3E3E3E",
"1 c #AA8E34",
"2 c #2D2D2D",
"3 c #51482B",
"4 c #AB8E34",
"5 c #2E2E2E",
"6 c #AC8F34",
"7 c #F4C73C",
"8 c #53492B",
"9 c #9B7E25",
"0 c #544A2B",
"q c #AE9034",
"w c #AE9134",
"e c #AF9134",
"r c #B19335",
/* pixels */
"@@@@@@@@@@@@@@@@@@@@",
"....................",
"....................",
"....................",
"....................",
"....................",
".......2;  ;2.......",
"......;######;O.....",
".....<########<.....",
"....2##########2....",
"....;##########<....",
".... ##########X....",
".... ########## ....",
"....;##########;....",
"....5##########2....",
".....;########;.....",
".....O;######<O.....",
".......5<X ;2.......",
"....................",
"....................",
"....................",
"....................",
"....................",
"====================",
"@@@@@@@@@@@@@@@@@@@@",
"....................",
"....................",
"....................",
"....................",
"....................",
".......-:oo:,.......",
".....$1++++++:$.....",
".....w++++++++e.....",
"....,++++++++++3....",
"....4++++++++++w....",
"....&%99999999%7....",
"....&%99999999%o....",
"....6++++++++++:....",
"....8++++++++++,....",
".....:++++++++:.....",
".....*1++++++r$.....",
".......0q>>6,.......",
"....................",
"....................",
"....................",
"....................",
"....................",
"===================="
};
