/* XPM */
static char *restoreI[] = {
/* width height ncolors chars_per_pixel */
"20 48 34 1",
/* colors */
"  c #235525",
". c #494949",
"X c #262626",
"o c #4A4A4A",
"O c #272727",
"+ c #272827",
"@ c #272927",
"# c #282828",
"$ c #4C4C4C",
"% c #191919",
"& c #3D3D3D",
"* c #3E3E3E",
"= c #4DB853",
"- c #2D2D2D",
"; c #4EBA53",
": c #4EBB54",
"> c #2E2E2E",
", c #4FBE55",
"< c #2E442F",
"1 c #2E452F",
"2 c #2E4530",
"3 c #2E4630",
"4 c #2F4730",
"5 c #2F4830",
"6 c #408644",
"7 c #408744",
"8 c #408844",
"9 c #51C657",
"0 c #409D45",
"q c #418944",
"w c #418A45",
"e c #418B45",
"r c #418C45",
"t c #317835",
/* pixels */
"####################",
"XXXXXXXXXXXXXXXXXXXX",
"XXXXXXXXXXXXXXXXXXXX",
"XXXXXXXXXXXXXXXXXXXX",
"XXXXXXXXXXXXXXXXXXXX",
"XXXXXXXXXXXXXXXXXXXX",
"XXXXXXX-&..&-XXXXXXX",
"XXXXXX&$$$$$$&OXXXXX",
"XXXXX*$$$$$$$$*XXXXX",
"XXXX-$$$$$$$$$$-XXXX",
"XXXX&$$$$$$$$$$*XXXX",
"XXXX.$$$$$$$$$$oXXXX",
"XXXX.$$$$$$$$$$.XXXX",
"XXXX&$$$$$$$$$$&XXXX",
"XXXX>$$$$$$$$$$-XXXX",
"XXXXX&$$$$$$$$&XXXXX",
"XXXXXO&$$$$$$*OXXXXX",
"XXXXXXX>*o.&-XXXXXXX",
"XXXXXXXXXXXXXXXXXXXX",
"XXXXXXXXXXXXXXXXXXXX",
"XXXXXXXXXXXXXXXXXXXX",
"XXXXXXXXXXXXXXXXXXXX",
"XXXXXXXXXXXXXXXXXXXX",
"%%%%%%%%%%%%%%%%%%%%",
"####################",
"XXXXXXXXXXXXXXXXXXXX",
"XXXXXXXXXXXXXXXXXXXX",
"XXXXXXXXXXXXXXXXXXXX",
"XXXXXXXXXXXXXXXXXXXX",
"XXXXXXXXXXXXXXXXXXXX",
"XXXXXXX<7==72XXXXXXX",
"XXXXX+89900997+XXXXX",
"XXXXXe999tt999eXXXXX",
"XXXX19999tt99993XXXX",
"XXXX89999tt9999wXXXX",
"XXXX;0ttt  ttt0,XXXX",
"XXXX;0ttt  ttt0=XXXX",
"XXXXq9999tt99996XXXX",
"XXXX49999tt99991XXXX",
"XXXXX7999tt9997XXXXX",
"XXXXX@8990099r+XXXXX",
"XXXXXXX5w::q1XXXXXXX",
"XXXXXXXXXXXXXXXXXXXX",
"XXXXXXXXXXXXXXXXXXXX",
"XXXXXXXXXXXXXXXXXXXX",
"XXXXXXXXXXXXXXXXXXXX",
"XXXXXXXXXXXXXXXXXXXX",
"%%%%%%%%%%%%%%%%%%%%"
};
