/* XPM */
static char *restoreO[] = {
/* width height ncolors chars_per_pixel */
"20 48 41 1",
/* colors */
"  c #468E49",
". c #235525",
"X c #468F4A",
"o c #46914A",
"O c #219D27",
"+ c #125515",
"@ c #394F3A",
"# c #39503A",
"$ c #39513A",
"% c #39523B",
"& c #191919",
"* c #4EB954",
"= c #29C631",
"- c #19781E",
"; c #2AB931",
": c #2ABB31",
"> c #2ABC31",
", c #2ABF31",
"< c #4FBB54",
"1 c #4FBC55",
"2 c #4FBF55",
"3 c #2D8C32",
"4 c #2D8D32",
"5 c #2D8E32",
"6 c #2D8F32",
"7 c #2D9132",
"8 c #51C657",
"9 c #409D45",
"0 c #314F33",
"q c #315033",
"w c #315133",
"e c #315233",
"r c #333333",
"t c #333533",
"y c #333534",
"u c #333633",
"i c #317835",
"p c #343634",
"a c #353535",
"s c #458C49",
"d c #458D49",
/* pixels */
"aaaaaaaaaaaaaaaaaaaa",
"rrrrrrrrrrrrrrrrrrrr",
"rrrrrrrrrrrrrrrrrrrr",
"rrrrrrrrrrrrrrrrrrrr",
"rrrrrrrrrrrrrrrrrrrr",
"rrrrrrrrrrrrrrrrrrrr",
"rrrrrrr03;;3qrrrrrrr",
"rrrrrt4==OO==3trrrrr",
"rrrrr6===--===6rrrrr",
"rrrr0====--====qrrrr",
"rrrr4====--====6rrrr",
"rrrr:O---++---O,rrrr",
"rrrr:O---++---O;rrrr",
"rrrr5====--====3rrrr",
"rrrrw====--====0rrrr",
"rrrrr3===--===3rrrrr",
"rrrrru4==OO==7trrrrr",
"rrrrrrre6>>50rrrrrrr",
"rrrrrrrrrrrrrrrrrrrr",
"rrrrrrrrrrrrrrrrrrrr",
"rrrrrrrrrrrrrrrrrrrr",
"rrrrrrrrrrrrrrrrrrrr",
"rrrrrrrrrrrrrrrrrrrr",
"&&&&&&&&&&&&&&&&&&&&",
"aaaaaaaaaaaaaaaaaaaa",
"rrrrrrrrrrrrrrrrrrrr",
"rrrrrrrrrrrrrrrrrrrr",
"rrrrrrrrrrrrrrrrrrrr",
"rrrrrrrrrrrrrrrrrrrr",
"rrrrrrrrrrrrrrrrrrrr",
"rrrrrrr@s**s#rrrrrrr",
"rrrrrtd889988syrrrrr",
"rrrrrX888ii888Xrrrrr",
"rrrr@8888ii8888#rrrr",
"rrrrd8888ii8888Xrrrr",
"rrrr<9iii..iii92rrrr",
"rrrr<9iii..iii9*rrrr",
"rrrr 8888ii8888srrrr",
"rrrr$8888ii8888@rrrr",
"rrrrrs888ii888srrrrr",
"rrrrrpd889988otrrrrr",
"rrrrrrr%X11 @rrrrrrr",
"rrrrrrrrrrrrrrrrrrrr",
"rrrrrrrrrrrrrrrrrrrr",
"rrrrrrrrrrrrrrrrrrrr",
"rrrrrrrrrrrrrrrrrrrr",
"rrrrrrrrrrrrrrrrrrrr",
"&&&&&&&&&&&&&&&&&&&&"
};
