/* XPM */
static char *titleAQ[] = {
/* width height ncolors chars_per_pixel */
"7 24 10 1",
/* colors */
"  c #363636",
". c #484848",
"X c #494949",
"o c #4C4C4C",
"O c #191919",
"+ c #3D3D3D",
"@ c #3E3E3E",
"# c #333333",
"$ c #464646",
"% c #353535",
/* pixels */
"%% @o$O",
"####%.X",
"#####%o",
"######+",
"###### ",
"######%",
"######%",
"######%",
"######%",
"######%",
"######%",
"######%",
"######%",
"######%",
"######%",
"######%",
"######%",
"######%",
"######%",
"######%",
"######%",
"######%",
"######%",
"OOOOOOO"
};
