/* XPM */
static char * start_xpm[] = {
"60 25 268 2",
"  	c None",
". 	c #414141",
"+ 	c #424242",
"@ 	c #434343",
"# 	c #454545",
"$ 	c #464646",
"% 	c #474747",
"& 	c #444444",
"* 	c #4A4A4A",
"= 	c #505050",
"- 	c #545454",
"; 	c #565656",
"> 	c #585858",
", 	c #575757",
"' 	c #555555",
") 	c #515151",
"! 	c #4B4B4B",
"~ 	c #4C4C4C",
"{ 	c #656565",
"] 	c #6F6F6F",
"^ 	c #747474",
"/ 	c #757575",
"( 	c #767676",
"_ 	c #717171",
": 	c #686868",
"< 	c #5A5A5A",
"[ 	c #4D4D4D",
"} 	c #494949",
"| 	c #616161",
"1 	c #535252",
"2 	c #4D4C4C",
"3 	c #4C4D4D",
"4 	c #4C4C4D",
"5 	c #4D4D4C",
"6 	c #4D4C4D",
"7 	c #4C4D4C",
"8 	c #626262",
"9 	c #595959",
"0 	c #484848",
"a 	c #646464",
"b 	c #505151",
"c 	c #4B4B4A",
"d 	c #4A4B4B",
"e 	c #4A4A4B",
"f 	c #4B4A4B",
"g 	c #4B4A4A",
"h 	c #4A4B4A",
"i 	c #6D6D6D",
"j 	c #484949",
"k 	c #484849",
"l 	c #494849",
"m 	c #494948",
"n 	c #6E6E6E",
"o 	c #525252",
"p 	c #727272",
"q 	c #474847",
"r 	c #474748",
"s 	c #535353",
"t 	c #464545",
"u 	c #454645",
"v 	c #4E4E4E",
"w 	c #C2C2C2",
"x 	c #C1C1C1",
"y 	c #4E4F4E",
"z 	c #454646",
"A 	c #454546",
"B 	c #464546",
"C 	c #464645",
"D 	c #404040",
"E 	c #444443",
"F 	c #434444",
"G 	c #444344",
"H 	c #434344",
"I 	c #434443",
"J 	c #C6C6C6",
"K 	c #D6D6D6",
"L 	c #545354",
"M 	c #CBCBCB",
"N 	c #4E4D4D",
"O 	c #494A49",
"P 	c #C4C4C4",
"Q 	c #424141",
"R 	c #424241",
"S 	c #414242",
"T 	c #A5A5A5",
"U 	c #A6A6A6",
"V 	c #696969",
"W 	c #999999",
"X 	c #929292",
"Y 	c #676767",
"Z 	c #737373",
"` 	c #3F3F3F",
" .	c #414040",
"..	c #404041",
"+.	c #404140",
"@.	c #888889",
"#.	c #D3D3D3",
"$.	c #B2B2B2",
"%.	c #8D8D8D",
"&.	c #C9C9C9",
"*.	c #CFCFCF",
"=.	c #A1A1A1",
"-.	c #484948",
";.	c #838383",
">.	c #909090",
",.	c #414140",
"'.	c #484748",
").	c #D1D1D1",
"!.	c #5A5B5A",
"~.	c #848383",
"{.	c #7C7C7C",
"].	c #D4D4D4",
"^.	c #565757",
"/.	c #7A7B7A",
"(.	c #3E3E3E",
"_.	c #3E3F3E",
":.	c #3F3F3E",
"<.	c #3E3F3F",
"[.	c #8F8F8F",
"}.	c #B1B1B1",
"|.	c #868686",
"1.	c #9B9B9B",
"2.	c #5C5C5D",
"3.	c #3E3E3F",
"4.	c #777777",
"5.	c #D0D0D0",
"6.	c #8B8B8B",
"7.	c #B4B4B4",
"8.	c #5D5D5C",
"9.	c #3F3E3F",
"0.	c #ADADAD",
"a.	c #A9AAAA",
"b.	c #A7A7A7",
"c.	c #ACADAD",
"d.	c #8C8C8D",
"e.	c #3D3D3D",
"f.	c #4F4F4F",
"g.	c #707070",
"h.	c #3E3E3D",
"i.	c #3D3D3E",
"j.	c #C7C7C7",
"k.	c #7A7A7B",
"l.	c #3E3D3D",
"m.	c #606160",
"n.	c #5C5D5C",
"o.	c #CACACA",
"p.	c #CDCDCD",
"q.	c #AFAFAF",
"r.	c #BFBFBF",
"s.	c #3D3E3D",
"t.	c #9D9D9D",
"u.	c #858585",
"v.	c #3C3C3C",
"w.	c #050505",
"x.	c #050605",
"y.	c #050506",
"z.	c #060505",
"A.	c #0B0B0B",
"B.	c #D2D2D2",
"C.	c #949494",
"D.	c #5C5C5C",
"E.	c #D5D5D5",
"F.	c #BBBBBB",
"G.	c #959595",
"H.	c #060605",
"I.	c #9C9C9C",
"J.	c #222222",
"K.	c #5E5E5E",
"L.	c #3B3B3B",
"M.	c #090A0A",
"N.	c #0A090A",
"O.	c #0A0A0A",
"P.	c #0A0A09",
"Q.	c #090A09",
"R.	c #0C0D0D",
"S.	c #1E1E1D",
"T.	c #565657",
"U.	c #111111",
"V.	c #111112",
"W.	c #2A2A2A",
"X.	c #5B5B5C",
"Y.	c #686768",
"Z.	c #757474",
"`.	c #1D1D1C",
" +	c #141514",
".+	c #BEBEBE",
"++	c #0E0E0F",
"@+	c #1C1C1D",
"#+	c #AEAEAE",
"$+	c #09090A",
"%+	c #3A3A3A",
"&+	c #0E0E0E",
"*+	c #0F0E0E",
"=+	c #7B7B7B",
"-+	c #B6B6B6",
";+	c #797878",
">+	c #B8B8B8",
",+	c #2D2D2D",
"'+	c #262626",
")+	c #C0C0C0",
"!+	c #181818",
"~+	c #5F5F5F",
"{+	c #131312",
"]+	c #121313",
"^+	c #121213",
"/+	c #121312",
"(+	c #131313",
"_+	c #171716",
":+	c #818081",
"<+	c #ABABAA",
"[+	c #191919",
"}+	c #7E7E7E",
"|+	c #ABABAB",
"1+	c #121212",
"2+	c #A7A7A8",
"3+	c #131212",
"4+	c #161515",
"5+	c #131213",
"6+	c #161516",
"7+	c #393939",
"8+	c #161717",
"9+	c #171717",
"0+	c #171617",
"a+	c #171616",
"b+	c #383838",
"c+	c #6A6A6A",
"d+	c #1B1C1B",
"e+	c #1C1B1C",
"f+	c #1B1B1B",
"g+	c #1B1C1C",
"h+	c #1B1B1C",
"i+	c #1C1B1B",
"j+	c #1C1C1C",
"k+	c #1C1C1B",
"l+	c #373737",
"m+	c #201F20",
"n+	c #1F201F",
"o+	c #1F1F1F",
"p+	c #20201F",
"q+	c #201F1F",
"r+	c #1F1F20",
"s+	c #202020",
"t+	c #1F2020",
"u+	c #666666",
"v+	c #343434",
"w+	c #2E2E2E",
"x+	c #242424",
"y+	c #232324",
"z+	c #242423",
"A+	c #232424",
"B+	c #242324",
"C+	c #242323",
"D+	c #323232",
"E+	c #313131",
"F+	c #282928",
"G+	c #292829",
"H+	c #282828",
"I+	c #282829",
"J+	c #292828",
"K+	c #282929",
"L+	c #292928",
"M+	c #303030",
"N+	c #6B6B6B",
"O+	c #6C6C6C",
"P+	c #5B5B5B",
"Q+	c #2F2F2F",
"R+	c #2C2C2C",
"S+	c #333333",
". . + @ # $ % % % % % % % % % % % % % % % % % % % % % % % % % % % % % % % % % % % % % % % % % % % % % % % % $ & @ + . . ",
". + # * = - ; > > > > > > > > > > > > > > > > > > > > > > > > > > > > > > > > > > > > > > > > > > > > > > , ' ) ! # @ . ",
". & ~ > { ] ^ / ( ( ( ( ( ( ( ( ( ( ( ( ( ( ( ( ( ( ( ( ( ( ( ( ( ( ( ( ( ( ( ( ( ( ( ( ( ( ( ( ( ( ( ( ( / _ : < [ & . ",
"+ } > | 1 2 2 [ 3 4 5 ~ 3 2 6 4 [ 4 7 4 2 [ 2 ~ 5 ~ ~ [ 3 3 5 4 6 3 7 [ [ ~ 7 5 [ ~ 2 3 6 3 2 7 [ 4 ~ 2 [ ~ 3 4 8 9 0 . ",
"+ [ a b ! c c d e f d f d g f ! d ! f ! d ! ! ! ! ! ! ! ! e ! d f ! ! ! c ! ! ! d ! f d d ! f f ! g h d e e ! g ) { [ + ",
"+ ) i } j } } } } } k } } } } l } j } } } } } m l } } } l l m } } } m } } m l } j } l } } j } j } k } } } } } j j n = + ",
"+ o p % % % % % % % q % % % % % % r % % % % % % % r % % % % % % % % % % % % % % % % % % % % % % % % % % % % % % % p o + ",
"+ s ^ t # u t u v w x y t # u t t t u # # z # # A # # u u # # t B u # B $ A t # # t t A C u # A t t u A # A u # A ^ s + ",
"D o p & & E @ F 5 w x 7 G E F H @ & F H F I I I E F & J K L E I & H F & I , K J H ) K M N & & I O P K ) I E F G E p o D ",
"D o p Q + + + + + + + + R + + + + + + + + + + + + + S T K ] + + U K x + + ^ K T + V K K W + + + X K K Y + + + + + Z o D ",
"` ) p  . ...D D D K K ..+.+ @.J #.$...D R %.&.*.=.-.+.;.K >.,.'.).K K !.D X K ~. .{.K K ].< D ^.#.K K /.+. .D +.+.p ) ` ",
"(.= _ _.:.:.:.` <.K K :.<.[.K K K }.(.<.|.K K K K 1.<.2.K $.3.4.K 5.K 6.` 7.K 8.9.%.K 0.K a.` b.K c.K d.` _.9.<.3.p = (.",
"e.f.g.e.e.e.h.e.i.K K e.e.j.K k.. ~ l.e.w K m.n.K o.e.(.p.).. q.K {.K r.. ).p.:.s.t.K 8 o.K u.K j.| K t.l.l.e.e.e._ f.e.",
"v.v g.w.x.w.w.y.y.K K z.w.#.K A.w.z.w.w.B.K K K K #.w.y.C.K D.E.$.z.F.K Y K G.H.w.I.K J.: K K K K.J.K I.z.w.w.H.y.g.v v.",
"L.[ ] M.N.O.P.P.O.K K O.Q.x K = R.S.P.Q.r.K T.U.V.W.O.O.X.K *.K Y.P.Z.K 5.K K.O.O.q.K `. +&.K .+++@+K #+N.P.Q.M.$+g.[ L.",
"%+[ ] &+*+++&+*+&+K K *+&+=+K K K -+&+&+;+K K K K >+&+&+J.E.K #.J.&+,+K K K '+&+&+)+K !+&+p K ~+&+!+K r.&+&+&+&+&+] [ %+",
"%+[ ] {+]+^+{+^+/+K K (+/+_+:+J B.<+/+(+[+}+.+#.o.t.(+(+/+|+K W 1+/+(+2+K }.{+3+(+*.K 4+5+{+{+3+^+6+K *.1+/+5+3+3+] [ %+",
"7+! n 8+_+9+9+0+0+9+9+_+_+8+9+9+8+9+9+9+9+9+9+_+9+9+9+9+_+9+8+9+9+9+9+9+8+9+9+9+9+9+9+9+a+9+a+9+9+9+0+9+9+0+0+9+9+n ~ 7+",
"b+0 c+d+e+f+g+h+g+i+f+f+f+f+f+f+f+f+f+g+i+d+f+h+h+h+d+g+f+f+f+e+i+f+j+f+f+f+i+f+e+h+f+k+f+i+e+f+f+e+h+d+f+e+f+f+h+c+0 l+",
"l+$ { m+n+o+p+p+q+p+r+s+p+m+o+r+s+s+m+m+n+t+s+p+p+n+s+s+s+s+t+q+n+t+t+n+t+t+s+s+s+s+s+n+r+p+q+r+s+s+s+p+m+s+r+n+q+u+$ l+",
"v+. 9 w+x+x+x+y+z+x+x+x+A+x+x+x+B+x+x+z+x+z+x+z+x+C+z+x+x+x+x+x+x+x+x+x+A+x+A+x+x+x+x+x+x+x+x+x+z+x+x+A+x+x+x+x+w+< . v+",
"D+%+* [ E+F+G+H+H+I+I+J+H+F+F+J+F+F+J+H+J+H+H+F+H+G+H+K+J+H+F+H+F+H+H+H+J+H+H+I+F+H+H+H+I+H+F+L+F+H+H+I+H+H+I+H+v ! 7+D+",
"M+v+v.* < a c+N+O+O+O+O+O+O+O+O+O+O+O+O+O+O+O+O+O+O+O+O+O+O+O+O+O+O+O+O+O+O+O+O+O+O+O+O+O+O+O+O+O+O+O+O+O+N+u+P+~ e.v+M+",
",+w+D+b+(.@ # % % % % % % % % % % % % % % % % % % % % % % % % % % % % % % % % % % % % % % % % % % % % % % $ & ` b+D+Q+,+",
"R+R+,+Q+M+D+S+S+S+S+S+S+S+S+S+S+S+S+S+S+S+S+S+S+S+S+S+S+S+S+S+S+S+S+S+S+S+S+S+S+S+S+S+S+S+S+S+S+S+S+S+S+S+S+D+M+Q+,+R+R+"};
