/* XPM */
static char * windows_xpm[] = {
"16 16 20 1",
" 	c None",
".	c #DFDBD2",
"+	c #DEDAD1",
"@	c #E0DCD2",
"#	c #C7C3BB",
"$	c #CFCDC4",
"%	c #DDD9D0",
"&	c #E0DCD3",
"*	c #D2CEC5",
"=	c #E2DED5",
"-	c #CDC9C1",
";	c #DAD6CD",
">	c #B8B5AF",
",	c #B2AEA8",
"'	c #E2DDD4",
")	c #DCD8D0",
"!	c #DFDAD1",
"~	c #E0DBD0",
"{	c #DCD8CF",
"]	c #DAD7CE",
"                ",
"                ",
"                ",
"   .....+@...   ",
"  +......# $.+  ",
"  .....+%   +.  ",
"  ..+&+.*  %..  ",
"  .+=-&&  ;.+.  ",
"  .&>  ,  .+..  ",
"  .+'    )+...  ",
"  ...!~  +....  ",
"  {.+.+ {..+.{  ",
"   ].+...+..]   ",
"                ",
"                ",
"                "};
