/* XPM */
static char * workspacebuttonactive_xpm[] = {
"1 30 20 1",
" 	c None",
".	c #414141",
"+	c #404040",
"@	c #3F3F3F",
"#	c #646464",
"$	c #636363",
"%	c #626262",
"&	c #616161",
"*	c #606060",
"=	c #5F5F5F",
"-	c #5E5E5E",
";	c #767676",
">	c #757575",
",	c #747474",
"'	c #737373",
")	c #727272",
"!	c #2F2F2F",
"~	c #2E2E2E",
"{	c #2D2D2D",
"]	c #2C2C2C",
".",
".",
"+",
"@",
"#",
"$",
"%",
"%",
"%",
"&",
"*",
"*",
"=",
"=",
"-",
"-",
";",
">",
",",
",",
",",
"'",
"'",
"'",
")",
"!",
"!",
"~",
"{",
"]"};
