/* XPM */
static char * desktop_xpm[] = {
"20 20 68 1",
" 	c None",
".	c #98A9BC",
"+	c #9BACBE",
"@	c #A7B6C4",
"#	c #B8C3CE",
"$	c #C9D0D8",
"%	c #D8DDE1",
"&	c #E2E5E7",
"*	c #E4E7E9",
"=	c #DBE0E5",
"-	c #CBD3DE",
";	c #B8C5D5",
">	c #A7B7CD",
",	c #05285D",
"'	c #05285F",
")	c #052961",
"!	c #042A63",
"~	c #042A66",
"{	c #042A69",
"]	c #032B6C",
"^	c #032E76",
"/	c #032D72",
"(	c #022F79",
"_	c #022F7D",
":	c #184084",
"<	c #A0B3C9",
"[	c #08398B",
"}	c #03368E",
"|	c #023997",
"1	c #1A4186",
"2	c #9CAFC7",
"3	c #02399B",
"4	c #1D458A",
"5	c #98ACC6",
"6	c #013AA0",
"7	c #1D458C",
"8	c #013BA3",
"9	c #1D468F",
"0	c #003CA7",
"a	c #1D4691",
"b	c #003DAB",
"c	c #1D4794",
"d	c #003EAF",
"e	c #1D4896",
"f	c #032C6F",
"g	c #003FB2",
"h	c #1C4898",
"i	c #18459A",
"j	c #013082",
"k	c #013185",
"l	c #013289",
"m	c #01338C",
"n	c #003390",
"o	c #003493",
"p	c #003699",
"q	c #00369A",
"r	c #00369D",
"s	c #15459C",
"t	c #9AABBC",
"u	c #A5B3C3",
"v	c #B4C0CC",
"w	c #C6CED6",
"x	c #D6DADF",
"y	c #E1E4E6",
"z	c #DEE2E6",
"A	c #CFD7E0",
"B	c #BCC8D6",
"C	c #AAB9CE",
"                    ",
"                    ",
"                    ",
"  .....+@#$%&*=-;>  ",
"  .,,')!~{]^/^(_:<  ",
"  .,[[[[[[[[[}[|12  ",
"  .'[[[[[[[[[[[345  ",
"  .)[[[[[[[[[[[675  ",
"  .![[[[[[[[[[[895  ",
"  .~[[[[[[[[[[[0a5  ",
"  .{[[[[[[[[[[[bc5  ",
"  .][[[[[[[[[[[de5  ",
"  .f[[[[[[[[[[[gh5  ",
"  ./[}[[[[[$***$i5  ",
"  .^(_jklmno[pqrs5  ",
"  tuvwxy*zABC25555  ",
"                    ",
"                    ",
"                    ",
"                    "};
