/* XPM */
static char * expand_xpm[] = {
"20 25 3 1",
" 	c None",
".	c #000000",
"+	c #6EBEFE",
"                    ",
"     .........      ",
"     .+++++++.      ",
"     .+++++++.      ",
"     .+++++++.      ",
"     .+++++++.      ",
"     .+++++++.      ",
"     .+++++++.      ",
"     .+++++++.      ",
"     .+++++++.      ",
"     .+++++++.      ",
"     .+++++++.      ",
"     .+++++++.      ",
"     .+++++++.      ",
"     .+++++++.      ",
"     .+++++++.      ",
"     .+++++++.      ",
"     .+++++++.      ",
"     .+++++++.      ",
"     .+++++++.      ",
"     .+++++++.      ",
"     .+++++++.      ",
"     .+++++++.      ",
"     .........      ",
"                    "};
