/* XPM */
static char * icewm_xpm[] = {
"60 25 170 2",
"  	c #0E0E0E",
". 	c #0F0F0F",
"+ 	c #101010",
"@ 	c #111111",
"# 	c #121212",
"$ 	c #050505",
"% 	c #060606",
"& 	c #070707",
"* 	c #080808",
"= 	c #090909",
"- 	c #0A0A0A",
"; 	c #0B0B0B",
"> 	c #0C0C0C",
", 	c #0D0D0D",
"' 	c #131313",
") 	c #141414",
"! 	c #151515",
"~ 	c #161616",
"{ 	c #171717",
"] 	c #181818",
"^ 	c #191919",
"/ 	c #1A1A1A",
"( 	c #1B1B1B",
"_ 	c #1C1C1C",
": 	c #030303",
"< 	c #040404",
"[ 	c #1D1D1D",
"} 	c #1E1E1E",
"| 	c #4478A2",
"1 	c #6EBEFE",
"2 	c #3C6A90",
"3 	c #5492C5",
"4 	c #141C26",
"5 	c #6DBDFD",
"6 	c #5A9ED2",
"7 	c #131B25",
"8 	c #6AB7F4",
"9 	c #62AAE4",
"0 	c #6CBBFA",
"a 	c #1D3448",
"b 	c #3E6E96",
"c 	c #63ABE5",
"d 	c #4F8ABA",
"e 	c #487EAB",
"f 	c #5B9ED5",
"g 	c #67B4F1",
"h 	c #589BCF",
"i 	c #244158",
"j 	c #5697C9",
"k 	c #6DBCFC",
"l 	c #6BB7F4",
"m 	c #5B9DD2",
"n 	c #2E516C",
"o 	c #5A9BD0",
"p 	c #18252D",
"q 	c #4F88B8",
"r 	c #68B3F0",
"s 	c #66B1EC",
"t 	c #4C83B2",
"u 	c #161C1C",
"v 	c #5FA3DA",
"w 	c #25394B",
"x 	c #1F252D",
"y 	c #60A6DE",
"z 	c #3E6E95",
"A 	c #67B3EF",
"B 	c #1D384B",
"C 	c #6DBCFB",
"D 	c #5390C2",
"E 	c #5B9DD1",
"F 	c #223C55",
"G 	c #68B4F0",
"H 	c #5392C2",
"I 	c #43779F",
"J 	c #4F8AB9",
"K 	c #6BB8F6",
"L 	c #6AB8F6",
"M 	c #2F4F6B",
"N 	c #5899CC",
"O 	c #5695C7",
"P 	c #62AAE3",
"Q 	c #4C84B1",
"R 	c #4B83B0",
"S 	c #65AFEB",
"T 	c #477CA8",
"U 	c #508CBC",
"V 	c #2C526F",
"W 	c #325677",
"X 	c #5A9ED3",
"Y 	c #5797CA",
"Z 	c #4579A2",
"` 	c #365D7F",
" .	c #5CA0D5",
"..	c #61A8E0",
"+.	c #161C25",
"@.	c #345674",
"#.	c #5EA3DB",
"$.	c #2B4A67",
"%.	c #538EC0",
"&.	c #64ACE7",
"*.	c #0D1616",
"=.	c #0E1717",
"-.	c #64ACE6",
";.	c #16242C",
">.	c #42719A",
",.	c #64ADE8",
"'.	c #60A7E0",
").	c #69B5F2",
"!.	c #0B1420",
"~.	c #2C506B",
"{.	c #4B83B1",
"].	c #26435A",
"^.	c #66B2EE",
"/.	c #457BA6",
"(.	c #467BA6",
"_.	c #61ABE3",
":.	c #30526F",
"<.	c #325775",
"[.	c #6CB9F7",
"}.	c #64AFEA",
"|.	c #457BA5",
"1.	c #3C6B92",
"2.	c #518DBD",
"3.	c #213D52",
"4.	c #2D4E6A",
"5.	c #6EBDFD",
"6.	c #365E80",
"7.	c #192A3C",
"8.	c #6CBAF9",
"9.	c #091313",
"0.	c #5DA1D8",
"a.	c #243F56",
"b.	c #61A9E2",
"c.	c #233443",
"d.	c #5899CD",
"e.	c #3A668A",
"f.	c #407199",
"g.	c #69B6F4",
"h.	c #111822",
"i.	c #29445A",
"j.	c #385C7D",
"k.	c #396388",
"l.	c #62A9E2",
"m.	c #161D2D",
"n.	c #5797C9",
"o.	c #1A293B",
"p.	c #5694C5",
"q.	c #5896C9",
"r.	c #406E94",
"s.	c #67B2EE",
"t.	c #5594C6",
"u.	c #68B4F1",
"v.	c #4B81AF",
"w.	c #66ADE9",
"x.	c #41729A",
"y.	c #3E6B90",
"z.	c #4D85B3",
"A.	c #4C81AE",
"B.	c #60A5DB",
"C.	c #5C9FD5",
"D.	c #61A7DF",
"E.	c #4E89B9",
"F.	c #335B7C",
"G.	c #27435A",
"H.	c #6AB7F5",
"I.	c #3C678A",
"J.	c #477CA6",
"K.	c #69B6F3",
"L.	c #5693C5",
"M.	c #1F2D39",
"                                . . . . . . + + + + + + + + + + + + + + + + + + + + + + + + @ @ @ @ @ @ # # # # # # # # ",
"$ $ % % % & & * * = = - - - - ; ; ; > > > > , ,     . . + + + @ @ # # ' ' ' ) ) ! ! ~ ~ ~ ~ { { ] ] ] ^ ^ ^ ^ / / ( ( _ ",
": : < < < $ $ % % & & * * = = - - ; ; ; > > , ,     . . + + + @ @ # # ' ' ) ) ) ! ! ~ ~ { { ] ] ^ ^ / / / ( ( _ _ [ [ } ",
": : < < < $ $ % % & & * * = = - - ; ; ; > > , ,     . . + + + @ @ # # ' ' ) ) ! ! ! ~ ~ { { ] ] ^ ^ / / ( ( ( _ _ [ [ } ",
": : < < < $ $ % % & & * * = = - - ; ; ; > > , ,     . . + + + @ @ # # ' ' ) ) ! ! ! ~ ~ { { ] ] ^ ^ / / ( ( ( _ _ [ [ } ",
": : < < < $ | 1 1 2 & * * = = - - 3 1 1 4 > , ,     . . + + + @ @ # # ' ' ) ) ! ! ! ~ ~ { { ] ] ^ ^ / / ( ( ( _ _ [ [ } ",
": : < < < $ | 1 5 6 & * * = = - 7 8 5 1 4 > , ,     . . + + + @ @ # # ' ' ) ) ! ! ! ~ ~ { { ] ] ^ ^ / / ( ( ( _ _ [ [ } ",
": : < < < $ | 1 9 0 a * * = = - b 1 c 1 4 > , ,     . . + + + @ @ # # ' ' ) ) ! ! ! ~ ~ { { ] ] ^ ^ / / ( ( ( _ _ [ [ } ",
": : < < < $ | 1 d 1 e * * = = - f g h 1 4 > , , i j g k l m n @ @ # o 1 p q r 0 s t u ~ { v 1 w ^ ^ / x 1 y ( _ _ [ [ } ",
": : < < < $ | 1 z A 9 * * = = B C D E 1 4 > , F G k H I J K L M @ # N 1 O P Q R S 1 T ~ { v 1 w ^ ^ / x 1 y ( _ _ [ [ } ",
": : < < < $ | 1 z U 1 V * = = e 1 W X 1 4 > , Y 1 Z . . + ` 1  .@ # N 1 ..+.) ! @.1 #.~ { v 1 w ^ ^ / x 1 y ( _ _ [ [ } ",
": : < < < $ | 1 z $.1 %.* = = 9 &.; X 1 4 > *.L l =.. . + + -.0 ;.# N 1 >.) ) ! ! C ,.~ { v 1 w ^ ^ / x 1 y ( _ _ [ [ } ",
": : < < < $ | 1 z & '.).!.= ~.1 {.; X 1 4 > ].1 ^./.(.(.(.(._.1 :.# N 1 <.) ) ! ! [.}.~ { v 1 w ^ ^ / x 1 y ( _ _ [ [ } ",
": : < < < $ | 1 z & |.1 1.= 2.k 3.; X 1 4 > 4.1 5.C C C C C C C 6.# N 1 M ) ) ! ! [.}.~ { v 1 w ^ ^ / x 1 y ( _ _ [ [ } ",
": : < < < $ | 1 z & 7.8.X 9.r 0.- ; X 1 4 > a.1 b.  . . + + + @ @ # N 1 M ) ) ! ! [.}.~ { v 1 w ^ ^ / c.1 y ( _ _ [ [ } ",
": : < < < $ | 1 z & & d.8.e.1 f.- ; X 1 4 > , L g.h.. . + + + @ @ # N 1 M ) ) ! ! [.}.~ { 0.1 i.^ ^ / j.1 y ( _ _ [ [ } ",
": : < < < $ | 1 z & & k.1 l.L m.- ; X 1 4 > , n.1 /.. . + o.-.p.@ # N 1 M ) ) ! ! [.}.~ { q.1 r.^ ^ / E 1 y ( _ _ [ [ } ",
": : < < < $ | 1 z & & * s.1 t.- - ; X 1 4 > , a.u.5 t.| v.w.5 x.@ # N 1 M ) ) ! ! [.}.~ { y.1 g z.A.B.C.K D.( _ _ [ [ } ",
": : < < < $ | 1 z & & * E.1 F.- - ; X 1 4 > , , G.j g k H.#.I.@ @ # N 1 M ) ) ! ! [.}.~ { { J.}.0 K.L.M.).l.( _ _ [ [ } ",
": : < < < $ $ % % & & * * = = - - ; ; ; > > , ,     . . + + + @ @ # # ' ' ) ) ! ! ! ~ ~ { { ] ] ^ ^ / / ( ( ( _ _ [ [ } ",
": : < < < $ $ % % & & * * = = - - ; ; ; > > , ,     . . + + + @ @ # # ' ' ) ) ! ! ! ~ ~ { { ] ] ^ ^ / / ( ( ( _ _ [ [ } ",
": : < < < $ $ % % & & * * = = - - ; ; ; > > , ,     . . + + + @ @ # # ' ' ) ) ! ! ! ~ ~ { { ] ] ^ ^ / / ( ( ( _ _ [ [ } ",
": : < < < $ $ % % & & * * = = - - ; ; ; > > , ,     . . + + + @ @ # # ' ' ) ) ! ! ! ~ ~ { { ] ] ^ ^ / / ( ( ( _ _ [ [ } ",
": : < < < $ $ % % & & * * = = - - ; ; ; > > , ,     . . + + + @ @ # # ' ' ) ) ! ! ! ~ ~ { { ] ] ^ ^ / / ( ( ( _ _ [ [ } ",
": : < < < $ $ % % & & * * = = - - ; ; ; > > , ,     . . + + + @ @ # # ' ' ) ) ) ! ! ~ ~ { { ] ] ^ ^ / / / ( ( _ _ [ [ } "};
