/* XPM */
static char * taskbuttonactive_xpm[] = {
"150 29 28 1",
" 	c #494949",
".	c #141414",
"+	c #242424",
"@	c #171717",
"#	c #181818",
"$	c #191919",
"%	c #1A1A1A",
"&	c #1B1B1B",
"*	c #1C1C1C",
"=	c #1D1D1D",
"-	c #1E1E1E",
";	c #1F1F1F",
">	c #202020",
",	c #212121",
"'	c #222222",
")	c #232323",
"!	c #252525",
"~	c #262626",
"{	c #272727",
"]	c #282828",
"^	c #292929",
"/	c #2A2A2A",
"(	c #2B2B2B",
"_	c #2C2C2C",
":	c #2D2D2D",
"<	c #2E2E2E",
"[	c #2F2F2F",
"}	c #303030",
"                                                                                                                                                      ",
"......................................................................................................................................................",
"++++++++++++++++++++++++++++++++++++++++++++++++++++++++++++++++++++++++++++++++++++++++++++++++++++++++++++++++++++++++++++++++++++++++++++++++++++++",
"@@@@@@#####$$$$$$%%%%%&&&&&&&&&&&*****======-----;;;;;;>>>>>,,,,,,'''''))))))+++++!!!!!!~~~~~{{{{{{{{{{{]]]]]]^^^^^//////(((((______:::::<<<<<[[[[[[}}",
"@@@@@@#####$$$$$$%%%%%&&&&&&&&&&&*****======-----;;;;;;>>>>>,,,,,,'''''))))))+++++!!!!!!~~~~~{{{{{{{{{{{]]]]]]^^^^^//////(((((______:::::<<<<<[[[[[[}}",
"@@@@@@#####$$$$$$%%%%%&&&&&&&&&&&*****======-----;;;;;;>>>>>,,,,,,'''''))))))+++++!!!!!!~~~~~{{{{{{{{{{{]]]]]]^^^^^//////(((((______:::::<<<<<[[[[[[}}",
"@@@@@@#####$$$$$$%%%%%&&&&&&&&&&&*****======-----;;;;;;>>>>>,,,,,,'''''))))))+++++!!!!!!~~~~~{{{{{{{{{{{]]]]]]^^^^^//////(((((______:::::<<<<<[[[[[[}}",
"@@@@@@#####$$$$$$%%%%%&&&&&&&&&&&*****======-----;;;;;;>>>>>,,,,,,'''''))))))+++++!!!!!!~~~~~{{{{{{{{{{{]]]]]]^^^^^//////(((((______:::::<<<<<[[[[[[}}",
"@@@@@@#####$$$$$$%%%%%&&&&&&&&&&&*****======-----;;;;;;>>>>>,,,,,,'''''))))))+++++!!!!!!~~~~~{{{{{{{{{{{]]]]]]^^^^^//////(((((______:::::<<<<<[[[[[[}}",
"@@@@@@#####$$$$$$%%%%%&&&&&&&&&&&*****======-----;;;;;;>>>>>,,,,,,'''''))))))+++++!!!!!!~~~~~{{{{{{{{{{{]]]]]]^^^^^//////(((((______:::::<<<<<[[[[[[}}",
"@@@@@@#####$$$$$$%%%%%&&&&&&&&&&&*****======-----;;;;;;>>>>>,,,,,,'''''))))))+++++!!!!!!~~~~~{{{{{{{{{{{]]]]]]^^^^^//////(((((______:::::<<<<<[[[[[[}}",
"@@@@@@#####$$$$$$%%%%%&&&&&&&&&&&*****======-----;;;;;;>>>>>,,,,,,'''''))))))+++++!!!!!!~~~~~{{{{{{{{{{{]]]]]]^^^^^//////(((((______:::::<<<<<[[[[[[}}",
"@@@@@@#####$$$$$$%%%%%&&&&&&&&&&&*****======-----;;;;;;>>>>>,,,,,,'''''))))))+++++!!!!!!~~~~~{{{{{{{{{{{]]]]]]^^^^^//////(((((______:::::<<<<<[[[[[[}}",
"@@@@@@#####$$$$$$%%%%%&&&&&&&&&&&*****======-----;;;;;;>>>>>,,,,,,'''''))))))+++++!!!!!!~~~~~{{{{{{{{{{{]]]]]]^^^^^//////(((((______:::::<<<<<[[[[[[}}",
"@@@@@@#####$$$$$$%%%%%&&&&&&&&&&&*****======-----;;;;;;>>>>>,,,,,,'''''))))))+++++!!!!!!~~~~~{{{{{{{{{{{]]]]]]^^^^^//////(((((______:::::<<<<<[[[[[[}}",
"@@@@@@#####$$$$$$%%%%%&&&&&&&&&&&*****======-----;;;;;;>>>>>,,,,,,'''''))))))+++++!!!!!!~~~~~{{{{{{{{{{{]]]]]]^^^^^//////(((((______:::::<<<<<[[[[[[}}",
"@@@@@@#####$$$$$$%%%%%&&&&&&&&&&&*****======-----;;;;;;>>>>>,,,,,,'''''))))))+++++!!!!!!~~~~~{{{{{{{{{{{]]]]]]^^^^^//////(((((______:::::<<<<<[[[[[[}}",
"@@@@@@#####$$$$$$%%%%%&&&&&&&&&&&*****======-----;;;;;;>>>>>,,,,,,'''''))))))+++++!!!!!!~~~~~{{{{{{{{{{{]]]]]]^^^^^//////(((((______:::::<<<<<[[[[[[}}",
"@@@@@@#####$$$$$$%%%%%&&&&&&&&&&&*****======-----;;;;;;>>>>>,,,,,,'''''))))))+++++!!!!!!~~~~~{{{{{{{{{{{]]]]]]^^^^^//////(((((______:::::<<<<<[[[[[[}}",
"@@@@@@#####$$$$$$%%%%%&&&&&&&&&&&*****======-----;;;;;;>>>>>,,,,,,'''''))))))+++++!!!!!!~~~~~{{{{{{{{{{{]]]]]]^^^^^//////(((((______:::::<<<<<[[[[[[}}",
"@@@@@@#####$$$$$$%%%%%&&&&&&&&&&&*****======-----;;;;;;>>>>>,,,,,,'''''))))))+++++!!!!!!~~~~~{{{{{{{{{{{]]]]]]^^^^^//////(((((______:::::<<<<<[[[[[[}}",
"@@@@@@#####$$$$$$%%%%%&&&&&&&&&&&*****======-----;;;;;;>>>>>,,,,,,'''''))))))+++++!!!!!!~~~~~{{{{{{{{{{{]]]]]]^^^^^//////(((((______:::::<<<<<[[[[[[}}",
"@@@@@@#####$$$$$$%%%%%&&&&&&&&&&&*****======-----;;;;;;>>>>>,,,,,,'''''))))))+++++!!!!!!~~~~~{{{{{{{{{{{]]]]]]^^^^^//////(((((______:::::<<<<<[[[[[[}}",
"@@@@@@#####$$$$$$%%%%%&&&&&&&&&&&*****======-----;;;;;;>>>>>,,,,,,'''''))))))+++++!!!!!!~~~~~{{{{{{{{{{{]]]]]]^^^^^//////(((((______:::::<<<<<[[[[[[}}",
"@@@@@@#####$$$$$$%%%%%&&&&&&&&&&&*****======-----;;;;;;>>>>>,,,,,,'''''))))))+++++!!!!!!~~~~~{{{{{{{{{{{]]]]]]^^^^^//////(((((______:::::<<<<<[[[[[[}}",
"@@@@@@#####$$$$$$%%%%%&&&&&&&&&&&*****======-----;;;;;;>>>>>,,,,,,'''''))))))+++++!!!!!!~~~~~{{{{{{{{{{{]]]]]]^^^^^//////(((((______:::::<<<<<[[[[[[}}",
"@@@@@@#####$$$$$$%%%%%&&&&&&&&&&&*****======-----;;;;;;>>>>>,,,,,,'''''))))))+++++!!!!!!~~~~~{{{{{{{{{{{]]]]]]^^^^^//////(((((______:::::<<<<<[[[[[[}}",
"@@@@@@#####$$$$$$%%%%%&&&&&&&&&&&*****======-----;;;;;;>>>>>,,,,,,'''''))))))+++++!!!!!!~~~~~{{{{{{{{{{{]]]]]]^^^^^//////(((((______:::::<<<<<[[[[[[}}",
"++++++++++++++++++++++++++++++++++++++++++++++++++++++++++++++++++++++++++++++++++++++++++++++++++++++++++++++++++++++++++++++++++++++++++++++++++++++"};
