/* XPM */
static char * titleAB3_xpm[] = {
"150 29 30 1",
" 	c #393939",
".	c #000000",
"+	c #111111",
"@	c #030303",
"#	c #040404",
"$	c #050505",
"%	c #060606",
"&	c #070707",
"*	c #080808",
"=	c #090909",
"-	c #0A0A0A",
";	c #0B0B0B",
">	c #0C0C0C",
",	c #0D0D0D",
"'	c #0E0E0E",
")	c #0F0F0F",
"!	c #101010",
"~	c #121212",
"{	c #131313",
"]	c #141414",
"^	c #151515",
"/	c #161616",
"(	c #171717",
"_	c #181818",
":	c #191919",
"<	c #1A1A1A",
"[	c #1B1B1B",
"}	c #1C1C1C",
"|	c #1D1D1D",
"1	c #1E1E1E",
"                                                                                                                                                      ",
"......................................................................................................................................................",
"++++++++++++++++++++++++++++++++++++++++++++++++++++++++++++++++++++++++++++++++++++++++++++++++++++++++++++++++++++++++++++++++++++++++++++++++++++++",
"@@@@@@#####$$$$$$%%%%%&&&&&******=====------;;;;;>>>>>>,,,,,'''''')))))!!!!!!+++++~~~~~~{{{{{]]]]]]^^^^^//////(((((______:::::<<<<<<[[[[[}}}}}||||||11",
"@@@@@@#####$$$$$$%%%%%&&&&&******=====------;;;;;>>>>>>,,,,,'''''')))))!!!!!!+++++~~~~~~{{{{{]]]]]]^^^^^//////(((((______:::::<<<<<<[[[[[}}}}}||||||11",
"@@@@@@#####$$$$$$%%%%%&&&&&******=====------;;;;;>>>>>>,,,,,'''''')))))!!!!!!+++++~~~~~~{{{{{]]]]]]^^^^^//////(((((______:::::<<<<<<[[[[[}}}}}||||||11",
"@@@@@@#####$$$$$$%%%%%&&&&&******=====------;;;;;>>>>>>,,,,,'''''')))))!!!!!!+++++~~~~~~{{{{{]]]]]]^^^^^//////(((((______:::::<<<<<<[[[[[}}}}}||||||11",
"@@@@@@#####$$$$$$%%%%%&&&&&******=====------;;;;;>>>>>>,,,,,'''''')))))!!!!!!+++++~~~~~~{{{{{]]]]]]^^^^^//////(((((______:::::<<<<<<[[[[[}}}}}||||||11",
"@@@@@@#####$$$$$$%%%%%&&&&&******=====------;;;;;>>>>>>,,,,,'''''')))))!!!!!!+++++~~~~~~{{{{{]]]]]]^^^^^//////(((((______:::::<<<<<<[[[[[}}}}}||||||11",
"@@@@@@#####$$$$$$%%%%%&&&&&******=====------;;;;;>>>>>>,,,,,'''''')))))!!!!!!+++++~~~~~~{{{{{]]]]]]^^^^^//////(((((______:::::<<<<<<[[[[[}}}}}||||||11",
"@@@@@@#####$$$$$$%%%%%&&&&&******=====------;;;;;>>>>>>,,,,,'''''')))))!!!!!!+++++~~~~~~{{{{{]]]]]]^^^^^//////(((((______:::::<<<<<<[[[[[}}}}}||||||11",
"@@@@@@#####$$$$$$%%%%%&&&&&******=====------;;;;;>>>>>>,,,,,'''''')))))!!!!!!+++++~~~~~~{{{{{]]]]]]^^^^^//////(((((______:::::<<<<<<[[[[[}}}}}||||||11",
"@@@@@@#####$$$$$$%%%%%&&&&&******=====------;;;;;>>>>>>,,,,,'''''')))))!!!!!!+++++~~~~~~{{{{{]]]]]]^^^^^//////(((((______:::::<<<<<<[[[[[}}}}}||||||11",
"@@@@@@#####$$$$$$%%%%%&&&&&******=====------;;;;;>>>>>>,,,,,'''''')))))!!!!!!+++++~~~~~~{{{{{]]]]]]^^^^^//////(((((______:::::<<<<<<[[[[[}}}}}||||||11",
"@@@@@@#####$$$$$$%%%%%&&&&&******=====------;;;;;>>>>>>,,,,,'''''')))))!!!!!!+++++~~~~~~{{{{{]]]]]]^^^^^//////(((((______:::::<<<<<<[[[[[}}}}}||||||11",
"@@@@@@#####$$$$$$%%%%%&&&&&******=====------;;;;;>>>>>>,,,,,'''''')))))!!!!!!+++++~~~~~~{{{{{]]]]]]^^^^^//////(((((______:::::<<<<<<[[[[[}}}}}||||||11",
"@@@@@@#####$$$$$$%%%%%&&&&&******=====------;;;;;>>>>>>,,,,,'''''')))))!!!!!!+++++~~~~~~{{{{{]]]]]]^^^^^//////(((((______:::::<<<<<<[[[[[}}}}}||||||11",
"@@@@@@#####$$$$$$%%%%%&&&&&******=====------;;;;;>>>>>>,,,,,'''''')))))!!!!!!+++++~~~~~~{{{{{]]]]]]^^^^^//////(((((______:::::<<<<<<[[[[[}}}}}||||||11",
"@@@@@@#####$$$$$$%%%%%&&&&&******=====------;;;;;>>>>>>,,,,,'''''')))))!!!!!!+++++~~~~~~{{{{{]]]]]]^^^^^//////(((((______:::::<<<<<<[[[[[}}}}}||||||11",
"@@@@@@#####$$$$$$%%%%%&&&&&******=====------;;;;;>>>>>>,,,,,'''''')))))!!!!!!+++++~~~~~~{{{{{]]]]]]^^^^^//////(((((______:::::<<<<<<[[[[[}}}}}||||||11",
"@@@@@@#####$$$$$$%%%%%&&&&&******=====------;;;;;>>>>>>,,,,,'''''')))))!!!!!!+++++~~~~~~{{{{{]]]]]]^^^^^//////(((((______:::::<<<<<<[[[[[}}}}}||||||11",
"@@@@@@#####$$$$$$%%%%%&&&&&******=====------;;;;;>>>>>>,,,,,'''''')))))!!!!!!+++++~~~~~~{{{{{]]]]]]^^^^^//////(((((______:::::<<<<<<[[[[[}}}}}||||||11",
"@@@@@@#####$$$$$$%%%%%&&&&&******=====------;;;;;>>>>>>,,,,,'''''')))))!!!!!!+++++~~~~~~{{{{{]]]]]]^^^^^//////(((((______:::::<<<<<<[[[[[}}}}}||||||11",
"@@@@@@#####$$$$$$%%%%%&&&&&******=====------;;;;;>>>>>>,,,,,'''''')))))!!!!!!+++++~~~~~~{{{{{]]]]]]^^^^^//////(((((______:::::<<<<<<[[[[[}}}}}||||||11",
"@@@@@@#####$$$$$$%%%%%&&&&&******=====------;;;;;>>>>>>,,,,,'''''')))))!!!!!!+++++~~~~~~{{{{{]]]]]]^^^^^//////(((((______:::::<<<<<<[[[[[}}}}}||||||11",
"@@@@@@#####$$$$$$%%%%%&&&&&******=====------;;;;;>>>>>>,,,,,'''''')))))!!!!!!+++++~~~~~~{{{{{]]]]]]^^^^^//////(((((______:::::<<<<<<[[[[[}}}}}||||||11",
"@@@@@@#####$$$$$$%%%%%&&&&&******=====------;;;;;>>>>>>,,,,,'''''')))))!!!!!!+++++~~~~~~{{{{{]]]]]]^^^^^//////(((((______:::::<<<<<<[[[[[}}}}}||||||11",
"@@@@@@#####$$$$$$%%%%%&&&&&******=====------;;;;;>>>>>>,,,,,'''''')))))!!!!!!+++++~~~~~~{{{{{]]]]]]^^^^^//////(((((______:::::<<<<<<[[[[[}}}}}||||||11",
"++++++++++++++++++++++++++++++++++++++++++++++++++++++++++++++++++++++++++++++++++++++++++++++++++++++++++++++++++++++++++++++++++++++++++++++++++++++"};
