/* XPM */
static char * windows_xpm[] = {
"20 25 3 1",
" 	c None",
".	c #6EBEFE",
"+	c #202020",
"                    ",
"                    ",
"                    ",
"                    ",
" ...........        ",
" .+++++++++.        ",
" ...........        ",
" .+++++++++.        ",
" .+++++++++.        ",
" .+++++++++........ ",
" .+++++++++.++++++. ",
" .+++++++++........ ",
" .+++++++++.++++++. ",
" .+++++++++.++++++. ",
" ...........++++++. ",
"        .+++++++++. ",
"        .+++++++++. ",
"        .+++++++++. ",
"        .+++++++++. ",
"        ........... ",
"                    ",
"                    ",
"                    ",
"                    ",
"                    "};
