/* XPM */
static char *start[] = {
/* width height ncolors chars_per_pixel */
"20 20 2 1",
/* colors */
"  c #333333",
". c #E5E5E5",
/* pixels */
"                    ",
"                    ",
"                    ",
"                    ",
"   ..   ..   ..     ",
"  .... .... ....    ",
"  .... .... ....    ",
"   ..   ..   ..     ",
"                    ",
"   ..   ..   ..     ",
"  .... .... ....    ",
"  .... .... ....    ",
"   ..   ..   ..     ",
"                    ",
"   ..   ..   ..     ",
"  .... .... ....    ",
"  .... .... ....    ",
"   ..   ..   ..     ",
"                    ",
"                    "
};