/* XPM */
static char * closeA_xpm[] = {
"20 38 80 1",
" 	c None",
".	c #333333",
"+	c #2F2F2F",
"@	c #2E2E2E",
"#	c #313131",
"$	c #323232",
"%	c #352D2C",
"&	c #5C413D",
"*	c #2C2928",
"=	c #303030",
"-	c #2A2827",
";	c #5B403D",
">	c #2D2D2D",
",	c #5C3F3C",
"'	c #F38779",
")	c #B4685F",
"!	c #282626",
"~	c #282727",
"{	c #A86158",
"]	c #5D403C",
"^	c #252222",
"/	c #83342A",
"(	c #EA6654",
"_	c #A96056",
":	c #A75E55",
"<	c #EB6958",
"[	c #84342A",
"}	c #2A2A2A",
"|	c #1A1919",
"1	c #852F24",
"2	c #E55D4C",
"3	c #E55E4D",
"4	c #862F24",
"5	c #1B1919",
"6	c #343434",
"7	c #353535",
"8	c #282828",
"9	c #272626",
"0	c #863429",
"a	c #DA3621",
"b	c #86342A",
"c	c #393939",
"d	c #292626",
"e	c #A04F44",
"f	c #DA4B38",
"g	c #7F2216",
"h	c #7E2216",
"i	c #A14F44",
"j	c #3A3A3A",
"k	c #272727",
"l	c #2B2B2B",
"m	c #553430",
"n	c #D4412E",
"o	c #761C10",
"p	c #751C10",
"q	c #563430",
"r	c #414141",
"s	c #242424",
"t	c #2D2120",
"u	c #44150E",
"v	c #1B1818",
"w	c #2C2C2C",
"x	c #363636",
"y	c #3F3F3F",
"z	c #3D3D3D",
"A	c #1F1F1F",
"B	c #252525",
"C	c #222222",
"D	c #474747",
"E	c #3E3E3E",
"F	c #202020",
"G	c #292929",
"H	c #454545",
"I	c #4E4E4E",
"J	c #262626",
"K	c #1C1C1C",
"L	c #383838",
"M	c #494949",
"N	c #545454",
"O	c #3B3B3B",
"....................",
"....................",
"....................",
"....................",
".....+@#..$@+.......",
"...$@%&*==-;%@$.....",
"..#=>,')!~{']>=#....",
"..@==^/(_:<[^==@....",
"..}=#@|12345@#=}....",
"678=#+90aab9+#=876..",
"6c}>@defghfid@>}c6..",
"7j=klmno||pnqlk=j7..",
"6crsktuvwwvutksrc6..",
".xyzABC>++>CBAzyx...",
"..cDEFCG>>GCFEDc....",
"..7cHI.JKKJ.IHc7....",
"...6LyMINNIMyL6.....",
".....7LcOOcL7.......",
"....................",
"....................",
"....................",
"....................",
"....................",
".....+@#..$@+.......",
"...$@%&*==-;%@$.....",
"..#=>,')!~{']>=#....",
"..@==^/(_:<[^==@....",
"..}=#@|12345@#=}....",
"678=#+90aab9+#=876..",
"6c}>@defghfid@>}c6..",
"7j=klmno||pnqlk=j7..",
"6crsktuvwwvutksrc6..",
".xyzABC>++>CBAzyx...",
"..cDEFCG>>GCFEDc....",
"..7cHI.JKKJ.IHc7....",
"...6LyMINNIMyL6.....",
".....7LcOOcL7.......",
"...................."};
