/* XPM */
static char * closeO_xpm[] = {
"20 38 87 1",
" 	c None",
".	c #333333",
"+	c #323232",
"@	c #313131",
"#	c #292929",
"$	c #232323",
"%	c #202020",
"&	c #2C2C2C",
"*	c #1F1F1F",
"=	c #393939",
"-	c #4E4E4E",
";	c #5B5B5B",
">	c #2A2A2A",
",	c #222222",
"'	c #494949",
")	c #515151",
"!	c #474747",
"~	c #434343",
"{	c #484848",
"]	c #2D2D2D",
"^	c #1D1D1D",
"/	c #444444",
"(	c #4B4544",
"_	c #614945",
":	c #3A3736",
"<	c #404040",
"[	c #383636",
"}	c #604845",
"|	c #2F2F2F",
"1	c #252525",
"2	c #303030",
"3	c #604643",
"4	c #E7877B",
"5	c #B26F67",
"6	c #383737",
"7	c #A86860",
"8	c #614743",
"9	c #2E2E2E",
"0	c #3B3B3B",
"a	c #2E2B2B",
"b	c #843D34",
"c	c #E16C5C",
"d	c #A8675F",
"e	c #E26E5F",
"f	c #1B1B1B",
"g	c #414141",
"h	c #373737",
"i	c #363636",
"j	c #252424",
"k	c #863A30",
"l	c #DB6253",
"m	c #DB6354",
"n	c #873A30",
"o	c #262424",
"p	c #2B2B2B",
"q	c #1A1A1A",
"r	c #3C3C3C",
"s	c #353535",
"t	c #2F2E2E",
"u	c #853C32",
"v	c #CF3D2A",
"w	c #853C33",
"x	c #1E1E1E",
"y	c #343434",
"z	c #2E2C2C",
"A	c #985046",
"B	c #CD4E3D",
"C	c #7D2A1F",
"D	c #7C2A1F",
"E	c #995046",
"F	c #212121",
"G	c #533633",
"H	c #C44130",
"I	c #722217",
"J	c #201F1F",
"K	c #712217",
"L	c #543633",
"M	c #272727",
"N	c #191919",
"O	c #262626",
"P	c #2F2423",
"Q	c #421912",
"R	c #201D1D",
"S	c #242424",
"T	c #282828",
"U	c #1C1C1C",
"V	c #181818",
"....................",
"......++++++........",
"....+@#$%%$#@+......",
"..+@&*=-;;-=*&@+....",
".+@>,')!~~{)',>@+...",
".@]^/(_:<<[}(/^]@...",
"+|12!34566748!21|+..",
"+9*00abcddeba00*9+..",
"@&fghijklmnoihgf&@..",
"@pqristuvvwtsirqp@..",
"@&x|yzABCDBEzy|x&@..",
"+&F,2GHIJJKHL2,F]+..",
"+|MNOPQR@@RQPONM|+..",
".@&SN$$2@@2$$NS&@...",
"..2#$N%T&&T%N$#2....",
"..+2p1*UVVU*1p2+....",
"....@9>M11M>9@......",
".....+@2222@+.......",
"....................",
"....................",
"......++++++........",
"....+@#$%%$#@+......",
"..+@&*=-;;-=*&@+....",
".+@>,')!~~{)',>@+...",
".@]^/(_:<<[}(/^]@...",
"+|12!34566748!21|+..",
"+9*00abcddeba00*9+..",
"@&fghijklmnoihgf&@..",
"@pqristuvvwtsirqp@..",
"@&x|yzABCDBEzy|x&@..",
"+&F,2GHIJJKHL2,F]+..",
"+|MNOPQR@@RQPONM|+..",
".@&SN$$2@@2$$NS&@...",
"..2#$N%T&&T%N$#2....",
"..+2p1*UVVU*1p2+....",
"....@9>M11M>9@......",
".....+@2222@+.......",
"...................."};
