/* XPM */
static char * closeI_xpm[] = {
"20 38 33 1",
" 	c None",
".	c #333333",
"+	c #323232",
"@	c #313131",
"#	c #6E6E6E",
"$	c #535353",
"%	c #505050",
"&	c #303030",
"*	c #515151",
"=	c #6F6F6F",
"-	c #2E2E2E",
";	c #343434",
">	c #353535",
",	c #2D2D2D",
"'	c #393939",
")	c #2F2F2F",
"!	c #3A3A3A",
"~	c #2C2C2C",
"{	c #424242",
"]	c #2A2A2A",
"^	c #363636",
"/	c #3F3F3F",
"(	c #404040",
"_	c #272727",
":	c #474747",
"<	c #292929",
"[	c #454545",
"}	c #4F4F4F",
"|	c #383838",
"1	c #494949",
"2	c #4E4E4E",
"3	c #545454",
"4	c #3B3B3B",
"....................",
"....................",
"....................",
"....................",
"....................",
"...++........++.....",
"..+@..#$..%#..@+....",
"..&@++*=**=*++@&....",
"..-++++*==*++++-....",
";>,@+++*==*+++@,>;..",
";')&++*=**=*++&)';..",
">!;~++=*++*=++~;!>..",
";'{])@@@@@@@@)]{';..",
".^/(_-@@@@@@-_(/^...",
"..':{<<,&&,<<{:'....",
"..>'[}!&__&!}['>....",
"...;|/123321/|;.....",
".....>|'44'|>.......",
"....................",
"....................",
"....................",
"....................",
"....................",
"....................",
"...++........++.....",
"..+@..#$..%#..@+....",
"..&@++*=**=*++@&....",
"..-++++*==*++++-....",
";>,@+++*==*+++@,>;..",
";')&++*=**=*++&)';..",
">!;~++=*++*=++~;!>..",
";'{])@@@@@@@@)]{';..",
".^/(_-@@@@@@-_(/^...",
"..':{<<,&&,<<{:'....",
"..>'[}!&__&!}['>....",
"...;|/123321/|;.....",
".....>|'44'|>.......",
"...................."};
