/* XPM */
static char * maximizeI_xpm[] = {
"18 38 30 1",
" 	c None",
".	c #333333",
"+	c #323232",
"@	c #313131",
"#	c #707070",
"$	c #303030",
"%	c #6F6F6F",
"&	c #2E2E2E",
"*	c #343434",
"=	c #353535",
"-	c #2D2D2D",
";	c #393939",
">	c #2F2F2F",
",	c #3A3A3A",
"'	c #2C2C2C",
")	c #424242",
"!	c #2A2A2A",
"~	c #363636",
"{	c #3F3F3F",
"]	c #404040",
"^	c #272727",
"/	c #474747",
"(	c #292929",
"_	c #454545",
":	c #4F4F4F",
"<	c #383838",
"[	c #494949",
"}	c #4E4E4E",
"|	c #545454",
"1	c #3B3B3B",
"..................",
"..................",
"..................",
"..................",
"..................",
"...++........++...",
"..+@..######..@+..",
"..$@++%%%%%%++@$..",
"..&+++%++++%+++&..",
"*=-@++%++++%++@-=*",
"*;>$++%++++%++$>;*",
"=,*'++%%%%%%++'*,=",
"*;)!>@@@@@@@@>!);*",
".~{]^&@@@@@@&^]{~.",
"..;/)((-$$-(()/;..",
"..=;_:,$^^$,:_;=..",
"...*<{[}||}[{<*...",
".....=<;11;<=.....",
"..................",
"..................",
"..................",
"..................",
"..................",
"..................",
"...++........++...",
"..+@..######..@+..",
"..$@++%%%%%%++@$..",
"..&+++%++++%+++&..",
"*=-@++%++++%++@-=*",
"*;>$++%++++%++$>;*",
"=,*'++%%%%%%++'*,=",
"*;)!>@@@@@@@@>!);*",
".~{]^&@@@@@@&^]{~.",
"..;/)((-$$-(()/;..",
"..=;_:,$^^$,:_;=..",
"...*<{[}||}[{<*...",
".....=<;11;<=.....",
".................."};
