/* XPM */
static char * menusep_xpm[] = {
"321 2 2 1",
" 	c None",
".	c #353535",
".................................................................................................................................................................................................................................................................................................................................",
"................................................................................................................................................................................................................................................................................................................................."};
