/* XPM */
static char * minimizeA_xpm[] = {
"18 38 42 1",
" 	c None",
".	c #333333",
"+	c #323232",
"@	c #313131",
"#	c #303030",
"$	c #2E2E2E",
"%	c #2A2A2A",
"&	c #272727",
"*	c #262626",
"=	c #343434",
"-	c #353535",
";	c #282828",
">	c #2B2B2B",
",	c #5B5B5B",
"'	c #E9E9E9",
")	c #5C5C5C",
"!	c #393939",
"~	c #2D2D2D",
"{	c #4D4D4D",
"]	c #BABABA",
"^	c #4E4E4E",
"/	c #3A3A3A",
"(	c #2C2C2C",
"_	c #212121",
":	c #1C1C1C",
"<	c #222222",
"[	c #414141",
"}	c #242424",
"|	c #363636",
"1	c #3F3F3F",
"2	c #3D3D3D",
"3	c #1F1F1F",
"4	c #2F2F2F",
"5	c #474747",
"6	c #3E3E3E",
"7	c #202020",
"8	c #292929",
"9	c #454545",
"0	c #383838",
"a	c #494949",
"b	c #545454",
"c	c #3B3B3B",
"..................",
"..................",
"..................",
"..................",
"..................",
"...++++++++++++...",
"..@#++++++++++#@..",
"..$#++++++++++#$..",
"..%#$&******&$#%..",
"=-;#>,'''''')>#;-=",
"=!%~>{]]]]]]^>~%!=",
"-/#&(_::::::<(&#/-",
"=![}>(;;;;;;(>}[!=",
".|123>444444>321|.",
"..!567<8~~8<765!..",
"..-!9^.*::*.^9!-..",
"...=01a^bb^a10=...",
".....-0!cc!0-.....",
"..................",
"..................",
"..................",
"..................",
"..................",
"..................",
"...++++++++++++...",
"..@#++++++++++#@..",
"..$#++++++++++#$..",
"..%#$&******&$#%..",
"=-;#>,'''''')>#;-=",
"=!%~>{]]]]]]^>~%!=",
"-/#&(_::::::<(&#/-",
"=![}>(;;;;;;(>}[!=",
".|123>444444>321|.",
"..!567<8~~8<765!..",
"..-!9^.*::*.^9!-..",
"...=01a^bb^a10=...",
".....-0!cc!0-.....",
".................."};
