/* XPM */
static char * minimizeO_xpm[] = {
"18 38 51 1",
" 	c None",
".	c #333333",
"+	c #323232",
"@	c #313131",
"#	c #292929",
"$	c #232323",
"%	c #202020",
"&	c #2C2C2C",
"*	c #1F1F1F",
"=	c #393939",
"-	c #4E4E4E",
";	c #5B5B5B",
">	c #2A2A2A",
",	c #222222",
"'	c #4C4C4C",
")	c #545454",
"!	c #494949",
"~	c #434343",
"{	c #2D2D2D",
"]	c #1D1D1D",
"^	c #474747",
"/	c #4A4A4A",
"(	c #3C3C3C",
"_	c #3F3F3F",
":	c #414141",
"<	c #2F2F2F",
"[	c #252525",
"}	c #303030",
"|	c #4B4B4B",
"1	c #3A3A3A",
"2	c #2E2E2E",
"3	c #3B3B3B",
"4	c #3D3D3D",
"5	c #3E3E3E",
"6	c #1B1B1B",
"7	c #343434",
"8	c #2B2B2B",
"9	c #1A1A1A",
"0	c #606060",
"a	c #F3F3F3",
"b	c #616161",
"c	c #1E1E1E",
"d	c #535353",
"e	c #C5C5C5",
"f	c #212121",
"g	c #242424",
"h	c #272727",
"i	c #191919",
"j	c #282828",
"k	c #1C1C1C",
"l	c #181818",
"..................",
"......++++++......",
"....+@#$%%$#@+....",
"..+@&*=-;;-=*&@+..",
".+@>,')!~~!)',>@+.",
".@{]^/(_::_(/^]{@.",
"+<[}|1(_::_(1|}[<+",
"+2*34=35__53=43*2+",
"@&6:78&2222&&7:6&@",
"@89(}0aaaaaab}(98@",
"@&c<}deeeeee)}<c&@",
"+&f,@$c****cg@,f{+",
"+<hi>{>8888>{>ih<+",
".@&gi#<@@@@<#ig&@.",
"..}#$i%j&&j%i$#}..",
"..+}8[*kllk*[8}+..",
"....@2>h[[h>2@....",
".....+@}}}}@+.....",
"..................",
"..................",
"......++++++......",
"....+@#$%%$#@+....",
"..+@&*=-;;-=*&@+..",
".+@>,')!~~!)',>@+.",
".@{]^/(_::_(/^]{@.",
"+<[}|1(_::_(1|}[<+",
"+2*34=35__53=43*2+",
"@&6:78&2222&&7:6&@",
"@89(}0aaaaaab}(98@",
"@&c<}deeeeee)}<c&@",
"+&f,@$c****cg@,f{+",
"+<hi>{>8888>{>ih<+",
".@&gi#<@@@@<#ig&@.",
"..}#$i%j&&j%i$#}..",
"..+}8[*kllk*[8}+..",
"....@2>h[[h>2@....",
".....+@}}}}@+.....",
".................."};
