/* XPM */
static char * minimizeI_xpm[] = {
"18 38 36 1",
" 	c None",
".	c #333333",
"+	c #323232",
"@	c #313131",
"#	c #303030",
"$	c #2E2E2E",
"%	c #2A2A2A",
"&	c #343434",
"*	c #353535",
"=	c #282828",
"-	c #6E6E6E",
";	c #393939",
">	c #2D2D2D",
",	c #3A3A3A",
"'	c #272727",
")	c #414141",
"!	c #242424",
"~	c #2B2B2B",
"{	c #2F2F2F",
"]	c #363636",
"^	c #3F3F3F",
"/	c #3D3D3D",
"(	c #1F1F1F",
"_	c #474747",
":	c #3E3E3E",
"<	c #202020",
"[	c #222222",
"}	c #292929",
"|	c #454545",
"1	c #4E4E4E",
"2	c #262626",
"3	c #1C1C1C",
"4	c #383838",
"5	c #494949",
"6	c #545454",
"7	c #3B3B3B",
"..................",
"..................",
"..................",
"..................",
"..................",
"...++++++++++++...",
"..@#++++++++++#@..",
"..$#++++++++++#$..",
"..%#@@@@@@@@@@#%..",
"&*=#@@------@@#=*&",
"&;%>##------##>%;&",
"*,#'##########'#,*",
"&;)!~{{{{{{{{~!);&",
".]^/(~{{{{{{~(/^].",
"..;_:<[}>>}[<:_;..",
"..*;|1.2332.1|;*..",
"...&4^516615^4&...",
".....*4;77;4*.....",
"..................",
"..................",
"..................",
"..................",
"..................",
"..................",
"...++++++++++++...",
"..@#++++++++++#@..",
"..$#++++++++++#$..",
"..%#@@@@@@@@@@#%..",
"&*=#@@------@@#=*&",
"&;%>##------##>%;&",
"*,#'##########'#,*",
"&;)!~{{{{{{{{~!);&",
".]^/(~{{{{{{~(/^].",
"..;_:<[}>>}[<:_;..",
"..*;|1.2332.1|;*..",
"...&4^516615^4&...",
".....*4;77;4*.....",
".................."};
