/* XPM */
static char * restoreA_xpm[] = {
"18 38 58 1",
" 	c None",
".	c #333333",
"+	c #2E2E2E",
"@	c #2D2D2D",
"#	c #2F2F2F",
"$	c #323232",
"%	c #363636",
"&	c #5F5F5F",
"*	c #313131",
"=	c #303030",
"-	c #5E5E5E",
";	c #F3F3F3",
">	c #585858",
",	c #DCDCDC",
"'	c #2A2A2A",
")	c #2C2C2C",
"!	c #555555",
"~	c #C7C7C7",
"{	c #141414",
"]	c #151515",
"^	c #C6C6C6",
"/	c #565656",
"(	c #343434",
"_	c #353535",
":	c #282828",
"<	c #525252",
"[	c #BEBEBE",
"}	c #262626",
"|	c #BDBDBD",
"1	c #535353",
"2	c #393939",
"3	c #2B2B2B",
"4	c #4E4E4E",
"5	c #B4B4B4",
"6	c #242424",
"7	c #252525",
"8	c #B3B3B3",
"9	c #4F4F4F",
"0	c #3A3A3A",
"a	c #272727",
"b	c #4B4B4B",
"c	c #D4D4D4",
"d	c #4C4C4C",
"e	c #414141",
"f	c #3F3F3F",
"g	c #3D3D3D",
"h	c #1F1F1F",
"i	c #222222",
"j	c #474747",
"k	c #3E3E3E",
"l	c #202020",
"m	c #292929",
"n	c #454545",
"o	c #1C1C1C",
"p	c #383838",
"q	c #494949",
"r	c #545454",
"s	c #3B3B3B",
"..................",
"..................",
"..................",
"..................",
".....+@@@@@@#.....",
"...$@%&&&&&&%@$...",
"..*=@-;;;;;;&@=*..",
"..+=@>,,,,,,>@=+..",
"..'=)!~{]]{^/)='..",
"(_:=)<[}**}|1)=:_(",
"(2'@3456776893@'2(",
"_0=a3b5cccc5d3a=0_",
"(2e6a'fddddf'a6e2(",
".%fgh7iiiiii7hgf%.",
"..2jklim@@milkj2..",
".._2n4.}oo}.4n2_..",
"...(pfq4rr4qfp(...",
"....._p2ss2p_.....",
"..................",
"..................",
"..................",
"..................",
"..................",
".....+@@@@@@#.....",
"...$@%&&&&&&%@$...",
"..*=@-;;;;;;&@=*..",
"..+=@>,,,,,,>@=+..",
"..'=)!~{]]{^/)='..",
"(_:=)<[}**}|1)=:_(",
"(2'@3456776893@'2(",
"_0=a3b5cccc5d3a=0_",
"(2e6a'fddddf'a6e2(",
".%fgh7iiiiii7hgf%.",
"..2jklim@@milkj2..",
".._2n4.}oo}.4n2_..",
"...(pfq4rr4qfp(...",
"....._p2ss2p_.....",
".................."};
