/* XPM */
static char * restoreO_xpm[] = {
"18 38 59 1",
" 	c None",
".	c #333333",
"+	c #323232",
"@	c #313131",
"#	c #292929",
"$	c #232323",
"%	c #202020",
"&	c #2C2C2C",
"*	c #1F1F1F",
"=	c #393939",
"-	c #4E4E4E",
";	c #5B5B5B",
">	c #2A2A2A",
",	c #222222",
"'	c #454545",
")	c #4B4B4B",
"!	c #414141",
"~	c #3C3C3C",
"{	c #2D2D2D",
"]	c #1D1D1D",
"^	c #464646",
"/	c #656565",
"(	c #666666",
"_	c #676767",
":	c #2F2F2F",
"<	c #252525",
"[	c #303030",
"}	c #434343",
"|	c #636363",
"1	c #F3F3F3",
"2	c #2E2E2E",
"3	c #3B3B3B",
"4	c #363636",
"5	c #5C5C5C",
"6	c #DCDCDC",
"7	c #1B1B1B",
"8	c #595959",
"9	c #C7C7C7",
"0	c #191919",
"a	c #2B2B2B",
"b	c #1A1A1A",
"c	c #545454",
"d	c #BEBEBE",
"e	c #3A3A3A",
"f	c #555555",
"g	c #1E1E1E",
"h	c #515151",
"i	c #B4B4B4",
"j	c #525252",
"k	c #212121",
"l	c #4D4D4D",
"m	c #D4D4D4",
"n	c #272727",
"o	c #262626",
"p	c #404040",
"q	c #242424",
"r	c #282828",
"s	c #1C1C1C",
"t	c #181818",
"..................",
"......++++++......",
"....+@#$%%$#@+....",
"..+@&*=-;;-=*&@+..",
".+@>,')!~~!)',>@+.",
".@{]!^/(__(/^!]{@.",
"+:<[}|111111|}[<:+",
"+2*345666666543*2+",
"@&7!@89000098@!7&@",
"@ab~[cd{ee{df[~ba@",
"@&g:[hi>aa>ij[:g&@",
"+&k,:limmmmi-:,k{+",
"+:n0o&pllllp&o0n:+",
".@&q0$,$$$$,$0q&@.",
"..[#$0%r&&r%0$#[..",
"..+[a<*stts*<a[+..",
"....@2>n<<n>2@....",
".....+@[[[[@+.....",
"..................",
"..................",
"......++++++......",
"....+@#$%%$#@+....",
"..+@&*=-;;-=*&@+..",
".+@>,')!~~!)',>@+.",
".@{]!^/(__(/^!]{@.",
"+:<[}|111111|}[<:+",
"+2*345666666543*2+",
"@&7!@89000098@!7&@",
"@ab~[cd{ee{df[~ba@",
"@&g:[hi>aa>ij[:g&@",
"+&k,:limmmmi-:,k{+",
"+:n0o&pllllp&o0n:+",
".@&q0$,$$$$,$0q&@.",
"..[#$0%r&&r%0$#[..",
"..+[a<*stts*<a[+..",
"....@2>n<<n>2@....",
".....+@[[[[@+.....",
".................."};
