/* XPM */
static char *collapse[] = {
/* width height ncolors chars_per_pixel */
"20 20 61 1",
/* colors */
"  c #8F8F8F",
". c #363636",
"X c #484848",
"o c #C5C5C5",
"O c #6C6C6C",
"+ c #D7D7D7",
"@ c #7E7E7E",
"# c #C6C6C6",
"$ c #D8D8D8",
"% c #7F7F7F",
"& c #C7C7C7",
"* c #6E6E6E",
"= c #B6B6B6",
"- c #C8C8C8",
"; c #818181",
": c #B7B7B7",
"> c #5E5E5E",
", c #707070",
"< c #B8B8B8",
"1 c #5F5F5F",
"2 c #CACACA",
"3 c #CBCBCB",
"4 c #727272",
"5 c #DDDDDD",
"6 c #3D3D3D",
"7 c #BABABA",
"8 c #DEDEDE",
"9 c #3E3E3E",
"0 c #CDCDCD",
"q c #DFDFDF",
"w c #404040",
"e c #CFCFCF",
"r c #E1E1E1",
"t c #888888",
"y c #414141",
"u c #D0D0D0",
"i c #777777",
"p c #9B9B9B",
"a c #545454",
"s c #BFBFBF",
"d c #D1D1D1",
"f c #E3E3E3",
"g c #9C9C9C",
"h c #AEAEAE",
"j c #555555",
"k c #C0C0C0",
"l c #9D9D9D",
"z c #AFAFAF",
"x c #C1C1C1",
"c c #7A7A7A",
"v c #E5E5E5",
"b c #8C8C8C",
"n c #333333",
"m c #454545",
"M c #575757",
"N c #C2C2C2",
"B c #343434",
"V c #9F9F9F",
"C c #A0A0A0",
"Z c #474747",
"A c #595959",
/* pixels */
"nnnnnnnnnnnnnnnnnnnn",
"nnnnnn1l:-=g>nnnnnnn",
"nnnnj#vvvvvvv#annnnn",
"nnn4qvvvvvvvvvq,nnnn",
"nnArvvvvvvvvvvvrMnnn",
"n.evvvv+b$vvvvvv0.nn",
"n*vvvvvxBj$vvvvvvOnn",
"nzvvvvvvCBj$vvvvvhnn",
"n3vvvvvvvVBj$vvvv2nn",
"nqvvvvvvvvtn@vvvvqnn",
"ndvvvvvvvow9Nvvvvunn",
"n7vvvvvv#y6kvvvvv<nn",
"n;vvvvvdy6svvvvvv%nn",
"n98vvvv&Asvvvvvv56nn",
"nncvvvvvvvvvvvvvinnn",
"nnnlvvvvvvvvvvvpnnnn",
"nnnn@rvvvvvvvr@nnnnn",
"nnnnnX 0fvf0 Znnnnnn",
"nnnnnnnn.m.nnnnnnnnn",
"nnnnnnnnnnnnnnnnnnnn"
};
