/* XPM */
static char *desktop[] = {
/* width height ncolors chars_per_pixel */
"20 20 6 1",
/* colors */
"  c #B4B4B4",
". c #B5B5B5",
"X c #B6B6B6",
"o c #3D3D3D",
"O c #E5E5E5",
"+ c #333333",
/* pixels */
"++++++++++++++++++++",
"++++++++++++++++++++",
"++++++++++++++++++++",
"++++++++++++++++++++",
"++++++++++++++++++++",
"++++++++++++++++++++",
"++++++++++++++++++++",
"++++++++++++++++++++",
"++++++++++++++++++++",
"++++++++++++++++++++",
"++++++++++++++++++++",
"++++++++++++++++++++",
"++++++++++++++++++++",
"++++++++++++++++++++",
"++ooooooooooooooo+++",
"+.OOOOOOOOOOOOOOO ++",
"+XOOOOOOOOOOOOOOO.++",
"++ooooooooooooooo+++",
"++++++++++++++++++++",
"++++++++++++++++++++"
};
