/* XPM */
static char *expand[] = {
/* width height ncolors chars_per_pixel */
"20 20 67 1",
/* colors */
"  c #D6D6D6",
". c #8F8F8F",
"X c #363636",
"o c #484848",
"O c #C5C5C5",
"+ c #6C6C6C",
"@ c #D7D7D7",
"# c #7E7E7E",
"$ c #5B5B5B",
"% c #C6C6C6",
"& c #D8D8D8",
"* c #7F7F7F",
"= c #6E6E6E",
"- c #B6B6B6",
"; c #C8C8C8",
": c #818181",
"> c #A5A5A5",
", c #B7B7B7",
"< c #5E5E5E",
"1 c #707070",
"2 c #B8B8B8",
"3 c #5F5F5F",
"4 c #CACACA",
"5 c #3C3C3C",
"6 c #CBCBCB",
"7 c #727272",
"8 c #DDDDDD",
"9 c #3D3D3D",
"0 c #BABABA",
"q c #DEDEDE",
"w c #3E3E3E",
"e c #CDCDCD",
"r c #DFDFDF",
"t c #525252",
"y c #BDBDBD",
"u c #CFCFCF",
"i c #E1E1E1",
"p c #414141",
"a c #535353",
"s c #BEBEBE",
"d c #D0D0D0",
"f c #777777",
"g c #898989",
"h c #9B9B9B",
"j c #424242",
"k c #545454",
"l c #BFBFBF",
"z c #D1D1D1",
"x c #E3E3E3",
"c c #9C9C9C",
"v c #AEAEAE",
"b c #555555",
"n c #D2D2D2",
"m c #9D9D9D",
"M c #AFAFAF",
"N c #7A7A7A",
"B c #E5E5E5",
"V c #8C8C8C",
"C c #333333",
"Z c #454545",
"A c #575757",
"S c #343434",
"D c #7C7C7C",
"F c #353535",
"G c #474747",
"H c #595959",
"J c #C4C4C4",
/* pixels */
"CCCCCCCCCCCCCCCCCCCC",
"CCCCCC3m,;-c<CCCCCCC",
"CCCCb%BBBBBBB%kCCCCC",
"CCC7rBBBBBBBBBr1CCCC",
"CCHiBBBBBBBBBBBiACCC",
"CXuBBBBBB g&BBBBeXCC",
"C=BBBBBB@tFJBBBBB+CC",
"CMBBBBB@aS>BBBBBBvCC",
"C6BBBB&aS>BBBBBBB4CC",
"CrBBBBDCVBBBBBBBBrCC",
"CzBBBBl5pOBBBBBBBdCC",
"C0BBBBBy9p%BBBBBB2CC",
"C:BBBBBBs9jnBBBBB*CC",
"CwqBBBBBBl$4BBBB89CC",
"CCNBBBBBBBBBBBBBfCCC",
"CCCmBBBBBBBBBBBhCCCC",
"CCCC#iBBBBBBBi#CCCCC",
"CCCCCo.exBxe.GCCCCCC",
"CCCCCCCCXZXCCCCCCCCC",
"CCCCCCCCCCCCCCCCCCCC"
};
