/* XPM */
static char *start[] = {
/* width height ncolors chars_per_pixel */
"60 20 64 1",
/* colors */
"  c #7D7D7D",
". c #363636",
"X c #909090",
"o c #D8D8D8",
"O c #919191",
"+ c #A3A3A3",
"@ c #808080",
"# c #393939",
"$ c #4B4B4B",
"% c #DADADA",
"& c #A5A5A5",
"* c #4C4C4C",
"= c #828282",
"- c #3B3B3B",
"; c #A6A6A6",
": c #4D4D4D",
"> c #B8B8B8",
", c #CACACA",
"< c #717171",
"1 c #838383",
"2 c #B9B9B9",
"3 c #727272",
"4 c #DDDDDD",
"5 c #979797",
"6 c #BBBBBB",
"7 c #626262",
"8 c #CDCDCD",
"9 c #DFDFDF",
"0 c #515151",
"q c #636363",
"w c #E0E0E0",
"e c #878787",
"r c #404040",
"t c #525252",
"y c #767676",
"u c #888888",
"i c #414141",
"p c #ACACAC",
"a c #656565",
"s c #777777",
"d c #E2E2E2",
"f c #9B9B9B",
"g c #424242",
"h c #ADADAD",
"j c #666666",
"k c #D1D1D1",
"l c #E3E3E3",
"z c #8A8A8A",
"x c #555555",
"c c #C0C0C0",
"v c #D2D2D2",
"b c #E4E4E4",
"n c #AFAFAF",
"m c #565656",
"M c #E5E5E5",
"N c #333333",
"B c #C2C2C2",
"V c #696969",
"C c #343434",
"Z c #C3C3C3",
"A c #6A6A6A",
"S c #8E8E8E",
"D c #B2B2B2",
"F c #C4C4C4",
/* pixels */
"NNNNNNNNNNNNNNNNNNNNNNNC:NNNNNNNNNNNNNNNNNNNNNNNNNNNNNNNNNNN",
"NNNNNNNNNNNNNNNNNNNNNNNaliNNNNNNNNNNNNNNNNNNNNNNNNNNNNNNNNNN",
"NNNNNNNNNNNNNNNNNNNNNNNeM7NNNNNNNNNNNNNNNNNNNNNNNNNNNNNNNNNN",
"NNNNNNNNNNNNNNNNNNNNNNN&M=NNNNNNNNNNNNNNNNNNNNNNNNNNNNNNNNNN",
"NNNNNNNNNNNNNNNNNNNNNNNBM+NNNNNNNNNNNNNNNNNNNNNNNNNNNNNNNNNN",
"NNNNNNNNNNNNNNNNNNNNNNC9MZNNNNNm5NNNNNNNNNNNNNNNNNNNNNNNNNNN",
"NNNNNNNNNNNNNNNNNNNNNN$MMw.NNNNSb#NNNNNNNNNNNNNNNNNNNNNNNNNN",
"NNNNNNNNNNNNNNNNNNNNNNVMMM0NqtNpMxNsrNNNNNNNNNNNNNNNNNNNNNNN",
"NNNNNNNNNNNNNNNNNNNNNNeMMM<NknN,M3tMeNNNNNNNNNNNNNNNNNNNNNNN",
"NNNNNNNNNNNNNNNNNNNNNN&MMMOgM%#lMX@M>NNNNNNNNNNNNNNNNNNNNNNN",
"NNNNNNNNNNNNNNNNNNNNNNZMMMDjMMyMMhhMd-NNNNNNNNNNNNNNNNNNNNNN",
"NNNNNNNNNNNNNNNNNNNNNC9MMMvzMMcMM8oMMVNNNNNNNNNNNNNNNNNNNNNN",
"NNNNNNNNNNNNNNNNNNNNN*MMMMM6MMMMMMMMMfNNNNNNNNNNNNNNNNNNNNNN",
"NNNNNNNNNNNNNNNNNNNNNAMMMMMMMMMMMMMMM8NNNNNNNNNNNNNNNNNNNNNN",
"NNNNNNNNNNNNNNNNNNNNNuMMMMMMMMMMMMMMMM$NNNNNNNNNNNNNNNNNNNNN",
"NNNNNNNNNNNNNNNNNNNNN;MMMMMMMMMMMMMMMM NNNNNNNNNNNNNNNNNNNNN",
"NNNNNNNNNNNNNNNNNNNNNFMMMMMMMMMMMMMMMMnNNNNNNNNNNNNNNNNNNNNN",
"NNNNNNNNNNNNNNNNNNNNN4MMMMMMMMMMMMMMMM%NNNNNNNNNNNNNNNNNNNNN",
"NNNNNNNNNNNNNNNNNNNNN1>222222222222222eNNNNNNNNNNNNNNNNNNNNN",
"NNNNNNNNNNNNNNNNNNNNNNNNNNNNNNNNNNNNNNNNNNNNNNNNNNNNNNNNNNNN"
};
