/* XPM */
static char *windows[] = {
/* width height ncolors chars_per_pixel */
"20 20 34 1",
/* colors */
"  c #6B6B6B",
". c #D6D6D6",
"X c #7D7D7D",
"o c #A1A1A1",
"O c #494949",
"+ c #4A4A4A",
"@ c #B5B5B5",
"# c #C7C7C7",
"$ c #4B4B4B",
"% c #C8C8C8",
"& c #B9B9B9",
"* c #DDDDDD",
"= c #3D3D3D",
"- c #3E3E3E",
"; c #A9A9A9",
": c #989898",
"> c #AAAAAA",
", c #BCBCBC",
"< c #999999",
"1 c #BDBDBD",
"2 c #CFCFCF",
"3 c #767676",
"4 c #535353",
"5 c #656565",
"6 c #BFBFBF",
"7 c #666666",
"8 c #D1D1D1",
"9 c #D2D2D2",
"0 c #E4E4E4",
"q c #7A7A7A",
"w c #E5E5E5",
"e c #333333",
"r c #C3C3C3",
"t c #C4C4C4",
/* pixels */
"eeeeeeeeeeeeeeeeeeee",
"eeeeeeeeeeeeeeeeeeee",
"e$>rtttttttttttr;+ee",
"e6wwwwwwwwwwwwwww1ee",
"e0wq #w<       qw0ee",
"ewwOe&w3eeeeeeeOwwee",
"ewwo:9w@:::::::owwee",
"ewwwwwwwwwwwwwwwwwee",
"ewwo:9w@:::::::owwee",
"ewwOe&w3eeeeeeeOwwee",
"ewwq #w<       qwwee",
"ewwwwwwwwwwwwwwwwwee",
"eww%t*w8ttttttt%wwee",
"ewwOe&w3eeeeeeeOwwee",
"eww4-,wX-------4wwee",
"e2wwwwwwwwwwwwwww2ee",
"e7.wwwwwwwwwwwww.5ee",
"eee=-----------=eeee",
"eeeeeeeeeeeeeeeeeeee",
"eeeeeeeeeeeeeeeeeeee"
};
