/* XPM */
static char * closeI_xpm[] = {
"16 32 31 1",
" 	c None",
".	c #E1E1E1",
"+	c #AEAFAF",
"@	c #707070",
"#	c #EAECED",
"$	c #ECEEEE",
"%	c #EFF0F0",
"&	c #E5E8EB",
"*	c #E2E6E9",
"=	c #DFE4E8",
"-	c #EBEDEE",
";	c #EDEEEF",
">	c #ECEDEE",
",	c #E7EAEC",
"'	c #9FA1A1",
")	c #E8EBEC",
"!	c #E6E9EB",
"~	c #E4E7EA",
"{	c #E7E9EC",
"]	c #E4E8EB",
"^	c #E4E8EA",
"/	c #E3E7EA",
"(	c #E0E5E8",
"_	c #E1E6E9",
":	c #DEE4E7",
"<	c #DDE3E7",
"[	c #DDE3E8",
"}	c #DEE4E8",
"|	c #DFE1E3",
"1	c #AAABAB",
"2	c #A1A1A2",
"................",
"................",
"................",
"................",
"..+@@@+.+@@@+...",
"..@#$%@+@&*=@...",
"..+@-;>@,&*@'...",
"...+@##)!~@+....",
"....+@{!~@+.....",
"...+@]^/*(@+....",
"..+@**_@=:<@+...",
"..@[}}@+@<<<@...",
"..+@@@+.+@@@+...",
"................",
"................",
"||||||||||||||||",
"................",
"................",
"................",
"................",
"..1@@@1.1@@@1...",
"..@#$%@1@&*=@...",
"..1@-;>@,&*@2...",
"...1@##)!~@1....",
"....1@{!~@1.....",
"...1@]^/*(@1....",
"..1@**_@=:<@1...",
"..@[}}@1@<<<@...",
"..1@@@1.1@@@1...",
"................",
"................",
"||||||||||||||||"};
