/* XPM */
static char * frameIBL_xpm[] = {
"22 22 4 1",
" 	c None",
".	c #4A4E51",
"+	c #F1F1F1",
"@	c #E1E1E1",
".+@@@@@               ",
".+@@@@@               ",
".+@@@@@               ",
".+@@@@@               ",
".+@@@@@               ",
".+@@@@@               ",
".+@@@@@               ",
".+@@@@@               ",
".+@@@@@               ",
".+@@@@@               ",
".+@@@@@               ",
".+@@@@@               ",
".+@@@@@               ",
".+@@@@@               ",
".+@@@@@               ",
".+@@@@@@@@@@@@@@@@@@@@",
".+@@@@@@@@@@@@@@@@@@@@",
".+@@@@@@@@@@@@@@@@@@@@",
".+@@@@@@@@@@@@@@@@@@@@",
" .+@@@@@@@@@@@@@@@@@@@",
"  .+++++++++++++++++++",
"   ..................."};
