/* XPM */
static char * maximizeI_xpm[] = {
"16 32 20 1",
" 	c None",
".	c #E1E1E1",
"+	c #707070",
"@	c #EFEFEF",
"#	c #EDEEEF",
"$	c #EBECED",
"%	c #E7EAEC",
"&	c #E5E8EA",
"*	c #E2E6E9",
"=	c #DEE4E8",
"-	c #DDE3E7",
";	c #ECEEEE",
">	c #EAECED",
",	c #E4E8EB",
"'	c #E1E6E9",
")	c #DEE4E7",
"!	c #E8EAEC",
"~	c #E5E8EB",
"{	c #DDE3E8",
"]	c #DFE1E3",
"................",
"................",
"................",
"................",
"...+++++++++++..",
"...+@#$%&*=--+..",
"...+#;>%,')--+..",
"...+$+++++++-+..",
"...+!+.....+-+..",
"...+~+.....+-+..",
"...+*+++++++-+..",
"...+=={------+..",
"...+++++++++++..",
"................",
"................",
"]]]]]]]]]]]]]]]]",
"................",
"................",
"................",
"................",
"...+++++++++++..",
"...+@#$%&*=--+..",
"...+#;>%,')--+..",
"...+$+++++++-+..",
"...+!+.....+-+..",
"...+~+.....+-+..",
"...+*+++++++-+..",
"...+=={------+..",
"...+++++++++++..",
"................",
"................",
"]]]]]]]]]]]]]]]]"};
