/* XPM */
static char * maximizeO_xpm[] = {
"16 32 26 1",
" 	c None",
".	c #0B0B0B",
"+	c #0A0A0A",
"@	c #000000",
"#	c #FDFEFE",
"$	c #FAFCFD",
"%	c #F5F7FA",
"&	c #EEF3F7",
"*	c #E9EFF4",
"=	c #E3EBF2",
"-	c #DDE7EF",
";	c #DAE5EE",
">	c #FAFBFD",
",	c #F8FBFC",
"'	c #F4F7FA",
")	c #E8EFF5",
"!	c #E2EBF2",
"~	c #DDE7EE",
"{	c #DBE5EE",
"]	c #DAE6EE",
"^	c #F5F8FA",
"/	c #EFF3F8",
"(	c #E9F0F5",
"_	c #DDE8EF",
":	c #DCE7EF",
"<	c #DBE6EF",
"...+++++++++++++",
".+++++++++++++++",
"++++++++++++++++",
"++++++++++++++++",
"+++@@@@@@@@@@@++",
"+++@#$%&*=-;;@++",
"+++@>,'&)!~{]@++",
"+++@^@@@@@@@{@++",
"+++@/@+++++@{@++",
"+++@(@+++++@;@++",
"+++@=@@@@@@@]@++",
"+++@_:<]]{{{;@++",
"+++@@@@@@@@@@@++",
".+++++++++++++++",
".+++++++++++++++",
"..++++++++++++++",
"..++++++++++++++",
"..++++++++++++++",
".+++++++++++++++",
".+++++++++++++++",
".++@@@@@@@@@@@++",
".++@#$%&*=-;;@++",
".++@>,'&)!~{]@++",
".++@^@@@@@@@{@++",
".++@/@+++++@{@++",
".++@(@+++++@;@++",
".++@=@@@@@@@]@++",
".++@_:<]]{{{;@++",
".++@@@@@@@@@@@++",
".+++++++++++++++",
".+++++++++++++++",
"...+++++++++++++"};
