/* XPM */
static char * minimizeA_xpm[] = {
"16 32 7 1",
" 	c None",
".	c #E1E1E1",
"+	c #0A0A0A",
"@	c #010101",
"#	c #CECECE",
"$	c #B1BAC1",
"%	c #DFE1E3",
"..++++++++++++++",
".+++++++++++++++",
"++++++++++++++++",
"++++++++++++++++",
"++++++++++++++++",
"++++++++++++++++",
"++++++++++++++++",
"++++++++++++++++",
"+++@@@@@@@@@@@++",
"+++@#########@++",
"+++@$$$$$$$$$@++",
"+++@@@@@@@@@@@++",
"++++++++++++++++",
"++++++++++++++++",
".+++++++++++++++",
"%%++++++++++++++",
"..++++++++++++++",
".+++++++++++++++",
"++++++++++++++++",
"++++++++++++++++",
"++++++++++++++++",
"++++++++++++++++",
"++++++++++++++++",
"++++++++++++++++",
"+++@@@@@@@@@@@++",
"+++@#########@++",
"+++@$$$$$$$$$@++",
"+++@@@@@@@@@@@++",
"++++++++++++++++",
"++++++++++++++++",
".+++++++++++++++",
"%%++++++++++++++"};
