/* XPM */
static char * minimizeO_xpm[] = {
"16 32 7 1",
" 	c None",
".	c #E1E1E1",
"+	c #0A0A0A",
"@	c #000000",
"#	c #FFFFFF",
"$	c #DAE5EE",
"%	c #DFE1E3",
"..++++++++++++++",
".+++++++++++++++",
"++++++++++++++++",
"++++++++++++++++",
"++++++++++++++++",
"++++++++++++++++",
"++++++++++++++++",
"++++++++++++++++",
"+++@@@@@@@@@@@++",
"+++@#########@++",
"+++@$$$$$$$$$@++",
"+++@@@@@@@@@@@++",
"++++++++++++++++",
"++++++++++++++++",
".+++++++++++++++",
"%%++++++++++++++",
"..++++++++++++++",
".+++++++++++++++",
"++++++++++++++++",
"++++++++++++++++",
"++++++++++++++++",
"++++++++++++++++",
"++++++++++++++++",
"++++++++++++++++",
"+++@@@@@@@@@@@++",
"+++@#########@++",
"+++@$$$$$$$$$@++",
"+++@@@@@@@@@@@++",
"++++++++++++++++",
"++++++++++++++++",
".+++++++++++++++",
"%%++++++++++++++"};
