/* XPM */
static char * closeA_xpm[] = {
"25 38 116 2",
"  	c None",
". 	c #6C3636",
"+ 	c #643232",
"@ 	c #532A2A",
"# 	c #DFDFDF",
"$ 	c #BB5C5B",
"% 	c #BA5C5B",
"& 	c #AD5554",
"* 	c #904746",
"= 	c #D8D8D8",
"- 	c #DADADA",
"; 	c #C15E5C",
"> 	c #C77170",
", 	c #C05E5C",
"' 	c #B35755",
") 	c #954947",
"! 	c #EFEFEF",
"~ 	c #C8605D",
"{ 	c #C55E5C",
"] 	c #EED6D5",
"^ 	c #F6EBEA",
"/ 	c #CB7270",
"( 	c #C7605D",
"_ 	c #B95956",
": 	c #9B4A48",
"< 	c #D9D9D9",
"[ 	c #CE625E",
"} 	c #C65E5A",
"| 	c #B26662",
"1 	c #F3E9E9",
"2 	c #F6EAEA",
"3 	c #D38683",
"4 	c #CD625E",
"5 	c #BF5B57",
"6 	c #9F4C49",
"7 	c #D5645F",
"8 	c #D2625E",
"9 	c #BE5955",
"0 	c #AA615D",
"a 	c #F3E9E8",
"b 	c #FFFFFF",
"c 	c #D4645F",
"d 	c #C55D58",
"e 	c #A54D49",
"f 	c #C9140B",
"g 	c #C8140B",
"h 	c #C3130B",
"i 	c #B92F29",
"j 	c #F1E2E1",
"k 	c #BA130A",
"l 	c #9B0F08",
"m 	c #D7D7D7",
"n 	c #D3170D",
"o 	c #D2170D",
"p 	c #D3332B",
"q 	c #F6E2E1",
"r 	c #F2E2E1",
"s 	c #A74B47",
"t 	c #C2150C",
"u 	c #A1120A",
"v 	c #DD1A0E",
"w 	c #DA1A0E",
"x 	c #F1C6C3",
"y 	c #F4E2E1",
"z 	c #AD3129",
"A 	c #B2150B",
"B 	c #C7170D",
"C 	c #9F170F",
"D 	c #ECECEC",
"E 	c #D6D6D6",
"F 	c #E61E10",
"G 	c #DD1D0F",
"H 	c #C3352B",
"I 	c #B7342A",
"J 	c #CB1A0E",
"K 	c #DB1D0F",
"L 	c #E51E10",
"M 	c #DE1D0F",
"N 	c #C3190D",
"O 	c #9B2922",
"P 	c #E7E7E7",
"Q 	c #D5D5D5",
"R 	c #DF1F11",
"S 	c #DB1E11",
"T 	c #CE1D10",
"U 	c #CD1C10",
"V 	c #D91E11",
"W 	c #DE1F11",
"X 	c #DE1E11",
"Y 	c #D91E10",
"Z 	c #CA1C0F",
"` 	c #B01B11",
" .	c #D3B4B2",
"..	c #DDDDDD",
"+.	c #C21C0F",
"@.	c #C01C0F",
"#.	c #B51F13",
"$.	c #A92F26",
"%.	c #D5B5B3",
"&.	c #E2E2E2",
"*.	c #D4D4D4",
"=.	c #D3D3D3",
"-.	c #D2D2D2",
";.	c #D1D1D1",
">.	c #D0D0D0",
",.	c #CFCFCF",
"'.	c #CECECE",
").	c #CDCDCD",
"!.	c #CCCCCC",
"~.	c #CBCBCB",
"{.	c #CACACA",
"].	c #C9C9C9",
"^.	c #C8C8C8",
"/.	c #C7C7C7",
"(.	c #C6C6C6",
"_.	c #C5C5C5",
". . . . . . . . . . . . . . . . . . . . + @ # # # ",
"$ $ $ $ $ $ $ $ $ $ $ $ $ $ $ $ $ $ $ % & * = - - ",
"; ; ; ; ; ; ; > > ; ; ; > > ; ; ; ; ; , ' ) ! - - ",
"~ ~ ~ ~ ~ ~ { ] ^ / ( / ^ ] { ~ ~ ~ ~ ( _ : ! < < ",
"[ [ [ [ [ [ } | 1 2 3 2 1 | } [ [ [ [ 4 5 6 ! = = ",
"7 7 7 7 7 7 8 9 0 a b a 0 9 8 7 7 7 7 c d e ! = = ",
"f f f f f f g h i j b j i h g f f f f g k l ! m m ",
"n n n n n n o p q r s r q p o n n n n o t u ! m m ",
"v v v v v v w x y z A z y x w v v v v w B C D E E ",
"F F F F F F G H I J K J I H G F F L L M N O P Q Q ",
"R R R R R R S T U V W V U T S R R X Y Z `  ...Q Q ",
"+.+.+.+.+.+.+.@.@.+.+.+.@.@.+.+.+.@.#.$.%.&.*.*.*.",
"! ! ! ! ! ! ! ! ! ! ! ! ! ! ! ! ! ! D P ..*.*.*.*.",
"=.=.=.=.=.=.=.=.=.=.=.=.=.=.=.=.=.=.=.=.=.=.=.=.=.",
"-.-.-.-.-.-.-.-.-.-.-.-.-.-.-.-.-.-.-.-.-.-.-.-.-.",
"-.-.-.-.-.-.-.-.-.-.-.-.-.-.-.-.-.-.-.-.-.-.-.-.-.",
";.;.;.;.;.;.;.;.;.;.;.;.;.;.;.;.;.;.;.;.;.;.;.;.;.",
">.>.>.>.>.>.>.>.>.>.>.>.>.>.>.>.>.>.>.>.>.>.>.>.>.",
">.>.>.>.>.>.>.>.>.>.>.>.>.>.>.>.>.>.>.>.>.>.>.>.>.",
". . . . . . . . . . . . . . . . . . . . + @ ,.,.,.",
"$ $ $ $ $ $ $ $ $ $ $ $ $ $ $ $ $ $ $ % & * ,.,.,.",
"; ; ; ; ; ; ; > > ; ; ; > > ; ; ; ; ; , ' ) ! '.'.",
"~ ~ ~ ~ ~ ~ { ] ^ / ( / ^ ] { ~ ~ ~ ~ ( _ : ! ).).",
"[ [ [ [ [ [ } | 1 2 3 2 1 | } [ [ [ [ 4 5 6 ! ).).",
"7 7 7 7 7 7 8 9 0 a b a 0 9 8 7 7 7 7 c d e ! !.!.",
"f f f f f f g h i j b j i h g f f f f g k l ! ~.~.",
"n n n n n n o p q r s r q p o n n n n o t u ! ~.~.",
"v v v v v v w x y z A z y x w v v v v w B C D {.{.",
"F F F F F F G H I J K J I H G F F L L M N O P {.{.",
"R R R R R R S T U V W V U T S R R X Y Z `  ...].].",
"+.+.+.+.+.+.+.@.@.+.+.+.@.@.+.+.+.@.#.$.%.&.].].].",
"! ! ! ! ! ! ! ! ! ! ! ! ! ! ! ! ! ! D P ..^.^.^.^.",
"^.^.^.^.^.^.^.^.^.^.^.^.^.^.^.^.^.^.^.^.^.^.^.^.^.",
"/././././././././././././././././././././././././.",
"/././././././././././././././././././././././././.",
"(.(.(.(.(.(.(.(.(.(.(.(.(.(.(.(.(.(.(.(.(.(.(.(.(.",
"(.(.(.(.(.(.(.(.(.(.(.(.(.(.(.(.(.(.(.(.(.(.(.(.(.",
"_._._._._._._._._._._._._._._._._._._._._._._._._."};
