/* XPM */
static char * closeI_xpm[] = {
"25 38 149 2",
"  	c None",
". 	c #965652",
"+ 	c #955652",
"@ 	c #8B504C",
"# 	c #74423F",
"$ 	c #DFDFDF",
"% 	c #CB7671",
"& 	c #CA7671",
"* 	c #BC6D69",
"= 	c #9D5B57",
"- 	c #DADADA",
"; 	c #C37470",
"> 	c #C98581",
", 	c #C27470",
"' 	c #B46B68",
") 	c #975A57",
"! 	c #EFEFEF",
"~ 	c #BA716E",
"{ 	c #B76F6C",
"] 	c #EADAD9",
"^ 	c #F5EDEC",
"/ 	c #BF807E",
"( 	c #B9716E",
"_ 	c #AC6966",
": 	c #905755",
"< 	c #D9D9D9",
"[ 	c #B16E6C",
"} 	c #AA6A68",
"| 	c #9E6F6D",
"1 	c #F0EAEA",
"2 	c #F3ECEC",
"3 	c #C0918F",
"4 	c #B06E6C",
"5 	c #A46664",
"6 	c #895553",
"7 	c #D8D8D8",
"8 	c #A86A6A",
"9 	c #A96B6B",
"0 	c #A76C6C",
"a 	c #996464",
"b 	c #8F6969",
"c 	c #EFEAEA",
"d 	c #FFFFFF",
"e 	c #A76A6A",
"f 	c #9B6262",
"g 	c #825252",
"h 	c #905F5F",
"i 	c #926262",
"j 	c #946565",
"k 	c #966868",
"l 	c #946767",
"m 	c #947272",
"n 	c #EDE9E9",
"o 	c #8F5F5F",
"p 	c #855858",
"q 	c #6F4949",
"r 	c #D7D7D7",
"s 	c #9A6363",
"t 	c #9C6666",
"u 	c #9F6A6A",
"v 	c #A16D6D",
"w 	c #A27171",
"x 	c #AC8383",
"y 	c #F2ECEC",
"z 	c #EEEAEA",
"A 	c #927A7A",
"B 	c #996363",
"C 	c #8E5B5B",
"D 	c #764C4C",
"E 	c #A46767",
"F 	c #A56969",
"G 	c #A86E6E",
"H 	c #AA7272",
"I 	c #AD7575",
"J 	c #AC7777",
"K 	c #E7DBDB",
"L 	c #F0EBEB",
"M 	c #937171",
"N 	c #906868",
"O 	c #A26666",
"P 	c #945D5D",
"Q 	c #7E5151",
"R 	c #ECECEC",
"S 	c #D6D6D6",
"T 	c #AC6B6B",
"U 	c #AF7070",
"V 	c #B17474",
"W 	c #B37878",
"X 	c #B67C7C",
"Y 	c #B17B7B",
"Z 	c #A47D7D",
"` 	c #9B7878",
" .	c #A67979",
"..	c #B48282",
"+.	c #B17373",
"@.	c #AF6F6F",
"#.	c #A66767",
"$.	c #925A5A",
"%.	c #936161",
"&.	c #E7E7E7",
"*.	c #D5D5D5",
"=.	c #A96767",
"-.	c #AA6868",
";.	c #AC6C6C",
">.	c #AE7070",
",.	c #B07575",
"'.	c #B27878",
").	c #B27A7A",
"!.	c #A87676",
"~.	c #A97979",
"{.	c #B48383",
"].	c #B88585",
"^.	c #AD7070",
"/.	c #9A5E5E",
"(.	c #8B5555",
"_.	c #DBCBCB",
":.	c #DDDDDD",
"<.	c #945858",
"[.	c #955A5A",
"}.	c #975D5D",
"|.	c #986161",
"1.	c #9A6464",
"2.	c #9B6868",
"3.	c #9D6B6B",
"4.	c #9D6E6E",
"5.	c #9E7171",
"6.	c #A17474",
"7.	c #A27676",
"8.	c #976060",
"9.	c #965D5D",
"0.	c #A16868",
"a.	c #DDCDCD",
"b.	c #E2E2E2",
"c.	c #D4D4D4",
"d.	c #D3D3D3",
"e.	c #D2D2D2",
"f.	c #D1D1D1",
"g.	c #D0D0D0",
"h.	c #CFCFCF",
"i.	c #CECECE",
"j.	c #CDCDCD",
"k.	c #CCCCCC",
"l.	c #CBCBCB",
"m.	c #CACACA",
"n.	c #C9C9C9",
"o.	c #C8C8C8",
"p.	c #C7C7C7",
"q.	c #C6C6C6",
"r.	c #C5C5C5",
". . . . . . . . . . . . . . . . . . . + @ # $ $ $ ",
"% % % % % % % % % % % % % % % % % % % & * = - - - ",
"; ; ; ; ; ; ; > > ; ; ; > > ; ; ; ; ; , ' ) ! - - ",
"~ ~ ~ ~ ~ ~ { ] ^ / ( / ^ ] { ~ ~ ~ ~ ( _ : ! < < ",
"[ [ [ [ [ [ } | 1 2 3 2 1 | } [ [ [ [ 4 5 6 ! 7 7 ",
"8 8 8 8 8 9 0 a b c d c b a 0 9 8 8 8 e f g ! 7 7 ",
"h h h h i j k l m n d n m l k j i h h o p q ! r r ",
"s s s t u v w x y z A z y x w v u t s B C D ! r r ",
"E E F G H I J K L M N M L K J I H G F O P Q R S S ",
"T T U V W X Y Z `  ... .` Z Y X W +.@.#.$.%.&.*.*.",
"=.-.;.>.,.'.).!.~.{.].{.~.!.).'.,.^.8 /.(._.:.*.*.",
"<.[.}.|.1.2.3.4.5.6.7.6.5.4.3.2.1.8.9.0.a.b.c.c.c.",
"! ! ! ! ! ! ! ! ! ! ! ! ! ! ! ! ! ! R &.:.c.c.c.c.",
"d.d.d.d.d.d.d.d.d.d.d.d.d.d.d.d.d.d.d.d.d.d.d.d.d.",
"e.e.e.e.e.e.e.e.e.e.e.e.e.e.e.e.e.e.e.e.e.e.e.e.e.",
"e.e.e.e.e.e.e.e.e.e.e.e.e.e.e.e.e.e.e.e.e.e.e.e.e.",
"f.f.f.f.f.f.f.f.f.f.f.f.f.f.f.f.f.f.f.f.f.f.f.f.f.",
"g.g.g.g.g.g.g.g.g.g.g.g.g.g.g.g.g.g.g.g.g.g.g.g.g.",
"g.g.g.g.g.g.g.g.g.g.g.g.g.g.g.g.g.g.g.g.g.g.g.g.g.",
". . . . . . . . . . . . . . . . . . . + @ # h.h.h.",
"% % % % % % % % % % % % % % % % % % % & * = h.h.h.",
"; ; ; ; ; ; ; > > ; ; ; > > ; ; ; ; ; , ' ) ! i.i.",
"~ ~ ~ ~ ~ ~ { ] ^ / ( / ^ ] { ~ ~ ~ ~ ( _ : ! j.j.",
"[ [ [ [ [ [ } | 1 2 3 2 1 | } [ [ [ [ 4 5 6 ! j.j.",
"8 8 8 8 8 9 0 a b c d c b a 0 9 8 8 8 e f g ! k.k.",
"h h h h i j k l m n d n m l k j i h h o p q ! l.l.",
"s s s t u v w x y z A z y x w v u t s B C D ! l.l.",
"E E F G H I J K L M N M L K J I H G F O P Q R m.m.",
"T T U V W X Y Z `  ... .` Z Y X W +.@.#.$.%.&.m.m.",
"=.-.;.>.,.'.).!.~.{.].{.~.!.).'.,.^.8 /.(._.:.n.n.",
"<.[.}.|.1.2.3.4.5.6.7.6.5.4.3.2.1.8.9.0.a.b.n.n.n.",
"! ! ! ! ! ! ! ! ! ! ! ! ! ! ! ! ! ! R &.:.o.o.o.o.",
"o.o.o.o.o.o.o.o.o.o.o.o.o.o.o.o.o.o.o.o.o.o.o.o.o.",
"p.p.p.p.p.p.p.p.p.p.p.p.p.p.p.p.p.p.p.p.p.p.p.p.p.",
"p.p.p.p.p.p.p.p.p.p.p.p.p.p.p.p.p.p.p.p.p.p.p.p.p.",
"q.q.q.q.q.q.q.q.q.q.q.q.q.q.q.q.q.q.q.q.q.q.q.q.q.",
"q.q.q.q.q.q.q.q.q.q.q.q.q.q.q.q.q.q.q.q.q.q.q.q.q.",
"r.r.r.r.r.r.r.r.r.r.r.r.r.r.r.r.r.r.r.r.r.r.r.r.r."};
