/* XPM */
static char * closeO_xpm[] = {
"25 38 236 2",
"  	c None",
". 	c #683636",
"+ 	c #673636",
"@ 	c #603232",
"# 	c #502A2A",
"$ 	c #DFDFDF",
"% 	c #B25C5A",
"& 	c #B15C5A",
"* 	c #A55553",
"= 	c #8A4746",
"- 	c #DADADA",
"; 	c #B75D5B",
"> 	c #BF706F",
", 	c #B65D5B",
"' 	c #A95654",
") 	c #8D4846",
"! 	c #EFEFEF",
"~ 	c #BD5F5C",
"{ 	c #BA5E5B",
"] 	c #EBD6D5",
"^ 	c #F5EBEA",
"/ 	c #C2716F",
"( 	c #BC5F5C",
"_ 	c #AF5855",
": 	c #924947",
"< 	c #D9D9D9",
"[ 	c #C2605D",
"} 	c #BA5C59",
"| 	c #AA6561",
"1 	c #F2E9E8",
"2 	c #F5EBE9",
"3 	c #CE877F",
"4 	c #C1605D",
"5 	c #B45956",
"6 	c #964A48",
"7 	c #D8D8D8",
"8 	c #C8625E",
"9 	c #C9645C",
"0 	c #C96456",
"a 	c #BB614C",
"b 	c #AE6B56",
"c 	c #F4EAE7",
"d 	c #FFFFFF",
"e 	c #C7625E",
"f 	c #B95B57",
"g 	c #9B4C49",
"h 	c #B21009",
"i 	c #B61809",
"j 	c #BA2009",
"k 	c #BD280A",
"l 	c #BD2E09",
"m 	c #BC4B27",
"n 	c #F3E6E1",
"o 	c #B11009",
"p 	c #A50F08",
"q 	c #8A0C07",
"r 	c #D7D7D7",
"s 	c #BA120A",
"t 	c #BE1B09",
"u 	c #C2250A",
"v 	c #C62E0A",
"w 	c #CA370B",
"x 	c #D1562A",
"y 	c #F7E8E1",
"z 	c #F5E8E1",
"A 	c #BE7348",
"B 	c #B9120A",
"C 	c #AB1109",
"D 	c #8E0E08",
"E 	c #C2150B",
"F 	c #C41B0B",
"G 	c #C9260B",
"H 	c #CD300B",
"I 	c #D13B0B",
"J 	c #D3440D",
"K 	c #F2D3C3",
"L 	c #F7EAE2",
"M 	c #C86A2C",
"N 	c #C8570F",
"O 	c #C0150B",
"P 	c #AF130A",
"Q 	c #8E130C",
"R 	c #ECECEC",
"S 	c #D6D6D6",
"T 	c #C9180D",
"U 	c #CD240C",
"V 	c #D22F0D",
"W 	c #D53A0D",
"X 	c #D9470E",
"Y 	c #D8500E",
"Z 	c #D26E2E",
"` 	c #D17530",
" .	c #DA6813",
"..	c #E26B14",
"+.	c #D12F0D",
"@.	c #CC240C",
"#.	c #C2170C",
"$.	c #AA140B",
"%.	c #90241D",
"&.	c #E7E7E7",
"*.	c #D5D5D5",
"=.	c #C2180D",
"-.	c #C31B0D",
";.	c #C7260C",
">.	c #CB320C",
",.	c #CD3D0D",
"'.	c #D1480E",
").	c #D35311",
"!.	c #D05D12",
"~.	c #D46815",
"{.	c #DA7016",
"].	c #DD7318",
"^.	c #CA320C",
"/.	c #C2250C",
"(.	c #B1180C",
"_.	c #9B160E",
":.	c #D0B0AE",
"<.	c #DDDDDD",
"[.	c #A8160C",
"}.	c #A91B0B",
"|.	c #AC240B",
"1.	c #AF2D0B",
"2.	c #B1370C",
"3.	c #B3410C",
"4.	c #B64A0E",
"5.	c #B75310",
"6.	c #B95E13",
"7.	c #BD6817",
"8.	c #BE6D19",
"9.	c #AD2C0B",
"0.	c #A5280E",
"a.	c #9E2C1F",
"b.	c #D2B1AF",
"c.	c #E2E2E2",
"d.	c #D4D4D4",
"e.	c #D3D3D3",
"f.	c #D2D2D2",
"g.	c #D1D1D1",
"h.	c #D0D0D0",
"i.	c #6C3636",
"j.	c #643232",
"k.	c #532A2A",
"l.	c #CFCFCF",
"m.	c #BB5C5B",
"n.	c #BA5C5B",
"o.	c #AD5554",
"p.	c #904746",
"q.	c #C15E5C",
"r.	c #C77170",
"s.	c #C05E5C",
"t.	c #B35755",
"u.	c #954947",
"v.	c #CECECE",
"w.	c #C8605D",
"x.	c #C55E5C",
"y.	c #EED6D5",
"z.	c #F6EBEA",
"A.	c #CB7270",
"B.	c #C7605D",
"C.	c #B95956",
"D.	c #9B4A48",
"E.	c #CDCDCD",
"F.	c #CE625E",
"G.	c #C65E5A",
"H.	c #B26662",
"I.	c #F3E9E9",
"J.	c #F6EAEA",
"K.	c #D38683",
"L.	c #CD625E",
"M.	c #BF5B57",
"N.	c #9F4C49",
"O.	c #D5645F",
"P.	c #D2625E",
"Q.	c #BE5955",
"R.	c #AA615D",
"S.	c #F3E9E8",
"T.	c #D4645F",
"U.	c #C55D58",
"V.	c #A54D49",
"W.	c #CCCCCC",
"X.	c #C9140B",
"Y.	c #C8140B",
"Z.	c #C3130B",
"`.	c #B92F29",
" +	c #F1E2E1",
".+	c #BA130A",
"++	c #9B0F08",
"@+	c #CBCBCB",
"#+	c #D3170D",
"$+	c #D2170D",
"%+	c #D3332B",
"&+	c #F6E2E1",
"*+	c #F2E2E1",
"=+	c #A74B47",
"-+	c #C2150C",
";+	c #A1120A",
">+	c #DD1A0E",
",+	c #DA1A0E",
"'+	c #F1C6C3",
")+	c #F4E2E1",
"!+	c #AD3129",
"~+	c #B2150B",
"{+	c #C7170D",
"]+	c #9F170F",
"^+	c #CACACA",
"/+	c #E61E10",
"(+	c #DD1D0F",
"_+	c #C3352B",
":+	c #B7342A",
"<+	c #CB1A0E",
"[+	c #DB1D0F",
"}+	c #E51E10",
"|+	c #DE1D0F",
"1+	c #C3190D",
"2+	c #9B2922",
"3+	c #DF1F11",
"4+	c #DB1E11",
"5+	c #CE1D10",
"6+	c #CD1C10",
"7+	c #D91E11",
"8+	c #DE1F11",
"9+	c #DE1E11",
"0+	c #D91E10",
"a+	c #CA1C0F",
"b+	c #B01B11",
"c+	c #D3B4B2",
"d+	c #C9C9C9",
"e+	c #C21C0F",
"f+	c #C01C0F",
"g+	c #B51F13",
"h+	c #A92F26",
"i+	c #D5B5B3",
"j+	c #C8C8C8",
"k+	c #C7C7C7",
"l+	c #C6C6C6",
"m+	c #C5C5C5",
". . . . . . . . . . . . . . . . . . . + @ # $ $ $ ",
"% % % % % % % % % % % % % % % % % % % & * = - - - ",
"; ; ; ; ; ; ; > > ; ; ; > > ; ; ; ; ; , ' ) ! - - ",
"~ ~ ~ ~ ~ ~ { ] ^ / ( / ^ ] { ~ ~ ~ ~ ( _ : ! < < ",
"[ [ [ [ [ [ } | 1 2 3 2 1 | } [ [ [ [ 4 5 6 ! 7 7 ",
"8 8 8 8 8 9 0 a b c d c b a 0 9 8 8 8 e f g ! 7 7 ",
"h h h h i j k l m n d n m l k j i h h o p q ! r r ",
"s s s t u v w x y z A z y x w v u t s B C D ! r r ",
"E E F G H I J K L M N M L K J I H G F O P Q R S S ",
"T T U V W X Y Z `  ... .` Z Y X W +.@.#.$.%.&.*.*.",
"=.-.;.>.,.'.).!.~.{.].{.~.!.).'.,.^./.(._.:.<.*.*.",
"[.}.|.1.2.3.4.5.6.7.8.7.6.5.4.3.2.9.0.a.b.c.d.d.d.",
"! ! ! ! ! ! ! ! ! ! ! ! ! ! ! ! ! ! R &.<.d.d.d.d.",
"e.e.e.e.e.e.e.e.e.e.e.e.e.e.e.e.e.e.e.e.e.e.e.e.e.",
"f.f.f.f.f.f.f.f.f.f.f.f.f.f.f.f.f.f.f.f.f.f.f.f.f.",
"f.f.f.f.f.f.f.f.f.f.f.f.f.f.f.f.f.f.f.f.f.f.f.f.f.",
"g.g.g.g.g.g.g.g.g.g.g.g.g.g.g.g.g.g.g.g.g.g.g.g.g.",
"h.h.h.h.h.h.h.h.h.h.h.h.h.h.h.h.h.h.h.h.h.h.h.h.h.",
"h.h.h.h.h.h.h.h.h.h.h.h.h.h.h.h.h.h.h.h.h.h.h.h.h.",
"i.i.i.i.i.i.i.i.i.i.i.i.i.i.i.i.i.i.i.i.j.k.l.l.l.",
"m.m.m.m.m.m.m.m.m.m.m.m.m.m.m.m.m.m.m.n.o.p.l.l.l.",
"q.q.q.q.q.q.q.r.r.q.q.q.r.r.q.q.q.q.q.s.t.u.! v.v.",
"w.w.w.w.w.w.x.y.z.A.B.A.z.y.x.w.w.w.w.B.C.D.! E.E.",
"F.F.F.F.F.F.G.H.I.J.K.J.I.H.G.F.F.F.F.L.M.N.! E.E.",
"O.O.O.O.O.O.P.Q.R.S.d S.R.Q.P.O.O.O.O.T.U.V.! W.W.",
"X.X.X.X.X.X.Y.Z.`. +d  +`.Z.Y.X.X.X.X.Y..+++! @+@+",
"#+#+#+#+#+#+$+%+&+*+=+*+&+%+$+#+#+#+#+$+-+;+! @+@+",
">+>+>+>+>+>+,+'+)+!+~+!+)+'+,+>+>+>+>+,+{+]+R ^+^+",
"/+/+/+/+/+/+(+_+:+<+[+<+:+_+(+/+/+}+}+|+1+2+&.^+^+",
"3+3+3+3+3+3+4+5+6+7+8+7+6+5+4+3+3+9+0+a+b+c+<.d+d+",
"e+e+e+e+e+e+e+f+f+e+e+e+f+f+e+e+e+f+g+h+i+c.d+d+d+",
"! ! ! ! ! ! ! ! ! ! ! ! ! ! ! ! ! ! R &.<.j+j+j+j+",
"j+j+j+j+j+j+j+j+j+j+j+j+j+j+j+j+j+j+j+j+j+j+j+j+j+",
"k+k+k+k+k+k+k+k+k+k+k+k+k+k+k+k+k+k+k+k+k+k+k+k+k+",
"k+k+k+k+k+k+k+k+k+k+k+k+k+k+k+k+k+k+k+k+k+k+k+k+k+",
"l+l+l+l+l+l+l+l+l+l+l+l+l+l+l+l+l+l+l+l+l+l+l+l+l+",
"l+l+l+l+l+l+l+l+l+l+l+l+l+l+l+l+l+l+l+l+l+l+l+l+l+",
"m+m+m+m+m+m+m+m+m+m+m+m+m+m+m+m+m+m+m+m+m+m+m+m+m+"};
