/* XPM */
static char * maximizeI_xpm[] = {
"25 38 49 1",
" 	c None",
".	c #6E6E6E",
"+	c #9E9E9E",
"@	c #A2A2A2",
"#	c #A5A5A5",
"$	c #A9A9A9",
"%	c #A7A7A7",
"&	c #FFFFFF",
"*	c #ACACAC",
"=	c #ADADAD",
"-	c #A4A4A4",
";	c #858585",
">	c #878787",
",	c #8A8A8A",
"'	c #828282",
")	c #5E5E5E",
"!	c #616161",
"~	c #8B8B8B",
"{	c #8D8D8D",
"]	c #909090",
"^	c #939393",
"/	c #8F8F8F",
"(	c #919191",
"_	c #969696",
":	c #999999",
"<	c #9B9B9B",
"[	c #959595",
"}	c #989898",
"|	c #A1A1A1",
"1	c #9A9A9A",
"2	c #7C7C7C",
"3	c #7B7B7B",
"4	c #7F7F7F",
"5	c #9C9C9C",
"6	c #818181",
"7	c #838383",
"8	c #868686",
"9	c #888888",
"0	c #8C8C8C",
"a	c #8E8E8E",
"b	c #EFEFEF",
"c	c #D3D3D3",
"d	c #D2D2D2",
"e	c #D1D1D1",
"f	c #D0D0D0",
"g	c #C8C8C8",
"h	c #C7C7C7",
"i	c #C6C6C6",
"j	c #C5C5C5",
".........................",
"+++++++++++++++++++++++++",
"@@@@@@@@@@@@@@@@@@@@@@@@@",
"#########################",
"$$$$$$$$%&&&&&&&%$$$$$$$$",
"*******=-&&&&&&&-=*******",
";;;;;;>,'&)!!!)&',>;;;;;;",
"~~~~~{]^,&;///;&,^]{~~~~~",
"((((^_:<^&&&&&&&^<:_^((((",
"[[[[}<+|123444321|+<}[[[[",
"///]^_:<5}:111:}5<:_^]///",
"333246789,0a]a0,987642333",
"bbbbbbbbbbbbbbbbbbbbbbbbb",
"ccccccccccccccccccccccccc",
"ddddddddddddddddddddddddd",
"ddddddddddddddddddddddddd",
"eeeeeeeeeeeeeeeeeeeeeeeee",
"fffffffffffffffffffffffff",
"fffffffffffffffffffffffff",
".........................",
"+++++++++++++++++++++++++",
"@@@@@@@@@@@@@@@@@@@@@@@@@",
"#########################",
"$$$$$$$$%&&&&&&&%$$$$$$$$",
"*******=-&&&&&&&-=*******",
";;;;;;>,'&)!!!)&',>;;;;;;",
"~~~~~{]^,&;///;&,^]{~~~~~",
"((((^_:<^&&&&&&&^<:_^((((",
"[[[[}<+|123444321|+<}[[[[",
"///]^_:<5}:111:}5<:_^]///",
"333246789,0a]a0,987642333",
"bbbbbbbbbbbbbbbbbbbbbbbbb",
"ggggggggggggggggggggggggg",
"hhhhhhhhhhhhhhhhhhhhhhhhh",
"hhhhhhhhhhhhhhhhhhhhhhhhh",
"iiiiiiiiiiiiiiiiiiiiiiiii",
"iiiiiiiiiiiiiiiiiiiiiiiii",
"jjjjjjjjjjjjjjjjjjjjjjjjj"};
