/* XPM */
static char * maximizeA_xpm[] = {
"25 38 36 1",
" 	c None",
".	c #373737",
"+	c #616161",
"@	c #676767",
"#	c #6C6C6C",
"$	c #717171",
"%	c #707070",
"&	c #E6E6E6",
"*	c #767676",
"=	c #6F6F6F",
"-	c #353535",
";	c #313131",
">	c #232323",
",	c #242424",
"'	c #3D3D3D",
")	c #393939",
"!	c #383838",
"~	c #464646",
"{	c #414141",
"]	c #4E4E4E",
"^	c #494949",
"/	c #3A3A3A",
"(	c #505050",
"_	c #4F4F4F",
":	c #4B4B4B",
"<	c #4A4A4A",
"[	c #474747",
"}	c #EFEFEF",
"|	c #D3D3D3",
"1	c #D2D2D2",
"2	c #D1D1D1",
"3	c #D0D0D0",
"4	c #C8C8C8",
"5	c #C7C7C7",
"6	c #C6C6C6",
"7	c #C5C5C5",
".........................",
"+++++++++++++++++++++++++",
"@@@@@@@@@@@@@@@@@@@@@@@@@",
"#########################",
"$$$$$$$$%&&&&&&&%$$$$$$$$",
"********=&&&&&&&=********",
"--------;&>,,,>&;--------",
"'''''''')&-!!!-&)''''''''",
"~~~~~~~~{&&&&&&&{~~~~~~~~",
"]]]]]]]]^/)///)/^]]]]]]]]",
"((((((((_:<<<<<:_((((((((",
"[[[[[[[[[[[[[[[[[[[[[[[[[",
"}}}}}}}}}}}}}}}}}}}}}}}}}",
"|||||||||||||||||||||||||",
"1111111111111111111111111",
"1111111111111111111111111",
"2222222222222222222222222",
"3333333333333333333333333",
"3333333333333333333333333",
".........................",
"+++++++++++++++++++++++++",
"@@@@@@@@@@@@@@@@@@@@@@@@@",
"#########################",
"$$$$$$$$%&&&&&&&%$$$$$$$$",
"********=&&&&&&&=********",
"--------;&>,,,>&;--------",
"'''''''')&-!!!-&)''''''''",
"~~~~~~~~{&&&&&&&{~~~~~~~~",
"]]]]]]]]^/)///)/^]]]]]]]]",
"((((((((_:<<<<<:_((((((((",
"[[[[[[[[[[[[[[[[[[[[[[[[[",
"}}}}}}}}}}}}}}}}}}}}}}}}}",
"4444444444444444444444444",
"5555555555555555555555555",
"5555555555555555555555555",
"6666666666666666666666666",
"6666666666666666666666666",
"7777777777777777777777777"};
