/* XPM */
static char * minimizeA_xpm[] = {
"25 38 70 1",
" 	c None",
".	c #DFDFDF",
"+	c #2A2A2A",
"@	c #333333",
"#	c #373737",
"$	c #DADADA",
"%	c #4B4B4B",
"&	c #5A5A5A",
"*	c #616161",
"=	c #EFEFEF",
"-	c #505050",
";	c #5F5F5F",
">	c #676767",
",	c #D9D9D9",
"'	c #535353",
")	c #646464",
"!	c #6C6C6C",
"~	c #D8D8D8",
"{	c #575757",
"]	c #696969",
"^	c #717171",
"/	c #5B5B5B",
"(	c #6D6D6D",
"_	c #767676",
":	c #D7D7D7",
"<	c #292929",
"[	c #313131",
"}	c #353535",
"|	c #2F2F2F",
"1	c #383838",
"2	c #3D3D3D",
"3	c #3C3C3C",
"4	c #E6E6E6",
"5	c #D6D6D6",
"6	c #ECECEC",
"7	c #414141",
"8	c #3F3F3F",
"9	c #454545",
"0	c #464646",
"a	c #424242",
"b	c #D5D5D5",
"c	c #E7E7E7",
"d	c #686868",
"e	c #4D4D4D",
"f	c #4E4E4E",
"g	c #494949",
"h	c #393939",
"i	c #DDDDDD",
"j	c #D3D3D3",
"k	c #474747",
"l	c #484848",
"m	c #4F4F4F",
"n	c #4A4A4A",
"o	c #D4D4D4",
"p	c #E2E2E2",
"q	c #707070",
"r	c #D2D2D2",
"s	c #D1D1D1",
"t	c #D0D0D0",
"u	c #CFCFCF",
"v	c #CECECE",
"w	c #CDCDCD",
"x	c #CCCCCC",
"y	c #CBCBCB",
"z	c #CACACA",
"A	c #C9C9C9",
"B	c #C8C8C8",
"C	c #C7C7C7",
"D	c #C6C6C6",
"E	c #C5C5C5",
"...+@####################",
"$$$%&********************",
"$$=-;>>>>>>>>>>>>>>>>>>>>",
",,=')!!!!!!!!!!!!!!!!!!!!",
"~~={]^^^^^^^^^^^^^^^^^^^^",
"~~=/(____________________",
"::=<[}}}}}}}}}}}}}}}}}}}}",
"::=|122222234444444322222",
"55678900000a4444444a00000",
"bbcda%eefffgh}}}}}hgfffff",
"bbijklfm---m%nnnnn%m-----",
"ooopoq-0kkkkkkkkkkkkkkkkk",
"ooooic6==================",
"jjjjjjjjjjjjjjjjjjjjjjjjj",
"rrrrrrrrrrrrrrrrrrrrrrrrr",
"rrrrrrrrrrrrrrrrrrrrrrrrr",
"sssssssssssssssssssssssss",
"ttttttttttttttttttttttttt",
"ttttttttttttttttttttttttt",
"uuu+@####################",
"uuu%&********************",
"vv=-;>>>>>>>>>>>>>>>>>>>>",
"ww=')!!!!!!!!!!!!!!!!!!!!",
"ww={]^^^^^^^^^^^^^^^^^^^^",
"xx=/(____________________",
"yy=<[}}}}}}}}}}}}}}}}}}}}",
"yy=|122222234444444322222",
"zz678900000a4444444a00000",
"zzcda%eefffgh}}}}}hgfffff",
"AAijklfm---m%nnnnn%m-----",
"AAApoq-0kkkkkkkkkkkkkkkkk",
"BBBBic6==================",
"BBBBBBBBBBBBBBBBBBBBBBBBB",
"CCCCCCCCCCCCCCCCCCCCCCCCC",
"CCCCCCCCCCCCCCCCCCCCCCCCC",
"DDDDDDDDDDDDDDDDDDDDDDDDD",
"DDDDDDDDDDDDDDDDDDDDDDDDD",
"EEEEEEEEEEEEEEEEEEEEEEEEE"};
