/* XPM */
static char * minimizeO_xpm[] = {
"25 38 106 2",
"  	c None",
". 	c #DFDFDF",
"+ 	c #2A2A2A",
"@ 	c #323232",
"# 	c #373737",
"$ 	c #DADADA",
"% 	c #4A4A4A",
"& 	c #595959",
"* 	c #606060",
"= 	c #EFEFEF",
"- 	c #4D4D4D",
"; 	c #5D5D5D",
"> 	c #646464",
", 	c #D9D9D9",
"' 	c #505050",
") 	c #686868",
"! 	c #D8D8D8",
"~ 	c #545454",
"{ 	c #656565",
"] 	c #6D6D6D",
"^ 	c #6E6E6E",
"/ 	c #6F6F6F",
"( 	c #707070",
"_ 	c #575757",
": 	c #727272",
"< 	c #757575",
"[ 	c #777777",
"} 	c #797979",
"| 	c #7A7A7A",
"1 	c #7B7B7B",
"2 	c #D7D7D7",
"3 	c #202020",
"4 	c #272727",
"5 	c #303030",
"6 	c #363636",
"7 	c #3B3B3B",
"8 	c #3F3F3F",
"9 	c #424242",
"0 	c #444444",
"a 	c #454545",
"b 	c #252525",
"c 	c #2D2D2D",
"d 	c #313131",
"e 	c #3E3E3E",
"f 	c #484848",
"g 	c #FFFFFF",
"h 	c #D6D6D6",
"i 	c #ECECEC",
"j 	c #353535",
"k 	c #333333",
"l 	c #383838",
"m 	c #3C3C3C",
"n 	c #434343",
"o 	c #4B4B4B",
"p 	c #515151",
"q 	c #525252",
"r 	c #D5D5D5",
"s 	c #E7E7E7",
"t 	c #5B5B5B",
"u 	c #343434",
"v 	c #555555",
"w 	c #5C5C5C",
"x 	c #4C4C4C",
"y 	c #4E4E4E",
"z 	c #464646",
"A 	c #DDDDDD",
"B 	c #CECECE",
"C 	c #393939",
"D 	c #3A3A3A",
"E 	c #404040",
"F 	c #494949",
"G 	c #585858",
"H 	c #5E5E5E",
"I 	c #696969",
"J 	c #D4D4D4",
"K 	c #E2E2E2",
"L 	c #CFCFCF",
"M 	c #616161",
"N 	c #414141",
"O 	c #474747",
"P 	c #535353",
"Q 	c #5F5F5F",
"R 	c #6A6A6A",
"S 	c #D3D3D3",
"T 	c #D2D2D2",
"U 	c #D1D1D1",
"V 	c #D0D0D0",
"W 	c #5A5A5A",
"X 	c #676767",
"Y 	c #CDCDCD",
"Z 	c #6C6C6C",
"` 	c #717171",
" .	c #CCCCCC",
"..	c #767676",
"+.	c #CBCBCB",
"@.	c #292929",
"#.	c #2F2F2F",
"$.	c #3D3D3D",
"%.	c #E6E6E6",
"&.	c #CACACA",
"*.	c #C9C9C9",
"=.	c #4F4F4F",
"-.	c #C8C8C8",
";.	c #C7C7C7",
">.	c #C6C6C6",
",.	c #C5C5C5",
". . . + @ # # # # # # # # # # # # # # # # # # # # ",
"$ $ $ % & * * * * * * * * * * * * * * * * * * * * ",
"$ $ = - ; > > > > > > > > > > > > > > > > > > > > ",
", , = ' * ) ) ) ) ) ) ) ) ) ) ) ) ) ) ) ) ) ) ) ) ",
"! ! = ~ { ] ] ] ] ] ] ] ^ / ( ( ( / ^ ] ] ] ] ] ] ",
"! ! = _ ) ( ( ( ( ( : < [ } | 1 | } [ < : ( ( ( ( ",
"2 2 = 3 4 + + + + 5 6 7 8 9 0 a 0 9 8 7 6 5 + + + ",
"2 2 = b c d d d # e 0 f g g g g g g g f 0 e # d d ",
"h h i j k # l m n o p q g g g g g g g q p o n m l ",
"r r s t u m e a - v w w x % x y x % x w w v - z e ",
"r r A B C D E F p G H > { I ^ / ^ I { > H G p F 9 ",
"J J J K L M 0 N O - P & Q { R ] R { Q & P - O 9 m ",
"J J J J A s i = = = = = = = = = = = = = = = = = = ",
"S S S S S S S S S S S S S S S S S S S S S S S S S ",
"T T T T T T T T T T T T T T T T T T T T T T T T T ",
"T T T T T T T T T T T T T T T T T T T T T T T T T ",
"U U U U U U U U U U U U U U U U U U U U U U U U U ",
"V V V V V V V V V V V V V V V V V V V V V V V V V ",
"V V V V V V V V V V V V V V V V V V V V V V V V V ",
"L L L + k # # # # # # # # # # # # # # # # # # # # ",
"L L L o W M M M M M M M M M M M M M M M M M M M M ",
"B B = ' Q X X X X X X X X X X X X X X X X X X X X ",
"Y Y = P > Z Z Z Z Z Z Z Z Z Z Z Z Z Z Z Z Z Z Z Z ",
"Y Y = _ I ` ` ` ` ` ` ` ` ` ` ` ` ` ` ` ` ` ` ` ` ",
" . .= t ] ........................................",
"+.+.= @.d j j j j j j j j j j j j j j j j j j j j ",
"+.+.= #.l $.$.$.$.$.$.m %.%.%.%.%.%.%.m $.$.$.$.$.",
"&.&.i N 8 a z z z z z 9 %.%.%.%.%.%.%.9 z z z z z ",
"&.&.s ) 9 o - - y y y F C j j j j j C F y y y y y ",
"*.*.A S O f y =.' ' ' =.o % % % % % o =.' ' ' ' ' ",
"*.*.*.K J ( ' z O O O O O O O O O O O O O O O O O ",
"-.-.-.-.A s i = = = = = = = = = = = = = = = = = = ",
"-.-.-.-.-.-.-.-.-.-.-.-.-.-.-.-.-.-.-.-.-.-.-.-.-.",
";.;.;.;.;.;.;.;.;.;.;.;.;.;.;.;.;.;.;.;.;.;.;.;.;.",
";.;.;.;.;.;.;.;.;.;.;.;.;.;.;.;.;.;.;.;.;.;.;.;.;.",
">.>.>.>.>.>.>.>.>.>.>.>.>.>.>.>.>.>.>.>.>.>.>.>.>.",
">.>.>.>.>.>.>.>.>.>.>.>.>.>.>.>.>.>.>.>.>.>.>.>.>.",
",.,.,.,.,.,.,.,.,.,.,.,.,.,.,.,.,.,.,.,.,.,.,.,.,."};
