/* XPM */
static char * minimizeI_xpm[] = {
"25 38 90 1",
" 	c None",
".	c #DFDFDF",
"+	c #555555",
"@	c #666666",
"#	c #6E6E6E",
"$	c #DADADA",
"%	c #7A7A7A",
"&	c #929292",
"*	c #9D9D9D",
"=	c #9E9E9E",
"-	c #EFEFEF",
";	c #7D7D7D",
">	c #969696",
",	c #A1A1A1",
"'	c #A2A2A2",
")	c #D9D9D9",
"!	c #7F7F7F",
"~	c #999999",
"{	c #A4A4A4",
"]	c #A5A5A5",
"^	c #D8D8D8",
"/	c #838383",
"(	c #9C9C9C",
"_	c #A8A8A8",
":	c #A9A9A9",
"<	c #AAAAAA",
"[	c #ABABAB",
"}	c #858585",
"|	c #9F9F9F",
"1	c #ACACAC",
"2	c #ADADAD",
"3	c #AEAEAE",
"4	c #B0B0B0",
"5	c #B1B1B1",
"6	c #D7D7D7",
"7	c #676767",
"8	c #7B7B7B",
"9	c #848484",
"0	c #878787",
"a	c #8A8A8A",
"b	c #8C8C8C",
"c	c #8E8E8E",
"d	c #8F8F8F",
"e	c #909090",
"f	c #6A6A6A",
"g	c #808080",
"h	c #8B8B8B",
"i	c #8D8D8D",
"j	c #939393",
"k	c #FFFFFF",
"l	c #D6D6D6",
"m	c #ECECEC",
"n	c #757575",
"o	c #919191",
"p	c #9B9B9B",
"q	c #959595",
"r	c #D5D5D5",
"s	c #E7E7E7",
"t	c #7E7E7E",
"u	c #989898",
"v	c #9A9A9A",
"w	c #727272",
"x	c #737373",
"y	c #DDDDDD",
"z	c #DBDBDB",
"A	c #787878",
"B	c #828282",
"C	c #D4D4D4",
"D	c #E2E2E2",
"E	c #DCDCDC",
"F	c #949494",
"G	c #818181",
"H	c #868686",
"I	c #888888",
"J	c #7C7C7C",
"K	c #D3D3D3",
"L	c #D2D2D2",
"M	c #D1D1D1",
"N	c #D0D0D0",
"O	c #CFCFCF",
"P	c #CECECE",
"Q	c #CDCDCD",
"R	c #CCCCCC",
"S	c #CBCBCB",
"T	c #CACACA",
"U	c #C9C9C9",
"V	c #C8C8C8",
"W	c #C7C7C7",
"X	c #C6C6C6",
"Y	c #C5C5C5",
"...+@####################",
"$$$%&*===================",
"$$-;>,'''''''''''''''''''",
"))-!~{]]]]]]]]]]]]]]]]]]]",
"^^-/(_::::::<<<[<<<::::::",
"^^-}|[1111234455544321111",
"66-789}}}0abcdeeedcba0}}}",
"66-fgahhiejjkkkkkkkjjeihh",
"llmn/doj>~pqkkkkkkkqp~>jo",
"rrsctequp=,v%wxxxw%v,=puq",
"rryzABij>~p(u~vvv~u(p~>je",
"CCCDEFg;G/HIabcecbaIH/G!J",
"CCCCysm------------------",
"KKKKKKKKKKKKKKKKKKKKKKKKK",
"LLLLLLLLLLLLLLLLLLLLLLLLL",
"LLLLLLLLLLLLLLLLLLLLLLLLL",
"MMMMMMMMMMMMMMMMMMMMMMMMM",
"NNNNNNNNNNNNNNNNNNNNNNNNN",
"NNNNNNNNNNNNNNNNNNNNNNNNN",
"OOO+@####################",
"OOO%&*===================",
"PP-;>,'''''''''''''''''''",
"QQ-!~{]]]]]]]]]]]]]]]]]]]",
"QQ-/(_::::::<<<[<<<::::::",
"RR-}|[1111234455544321111",
"SS-789}}}0abcdeeedcba0}}}",
"SS-fgahhiejjkkkkkkkjjeihh",
"TTmn/doj>~pqkkkkkkkqp~>jo",
"TTsctequp=,v%wxxxw%v,=puq",
"UUyzABij>~p(u~vvv~u(p~>je",
"UUUDEFg;G/HIabcecbaIH/G!J",
"VVVVysm------------------",
"VVVVVVVVVVVVVVVVVVVVVVVVV",
"WWWWWWWWWWWWWWWWWWWWWWWWW",
"WWWWWWWWWWWWWWWWWWWWWWWWW",
"XXXXXXXXXXXXXXXXXXXXXXXXX",
"XXXXXXXXXXXXXXXXXXXXXXXXX",
"YYYYYYYYYYYYYYYYYYYYYYYYY"};
