/* XPM */
static char * restoreO_xpm[] = {
"25 38 68 1",
" 	c None",
".	c #373737",
"+	c #606060",
"@	c #646464",
"#	c #686868",
"$	c #6D6D6D",
"%	c #6C6C6C",
"&	c #FFFFFF",
"*	c #707070",
"=	c #727272",
"-	c #6E6E6E",
";	c #2A2A2A",
">	c #303030",
",	c #363636",
"'	c #2B2B2B",
")	c #2E2E2E",
"!	c #2F2F2F",
"~	c #313131",
"{	c #3E3E3E",
"]	c #444444",
"^	c #474747",
"/	c #4F4F4F",
"(	c #383838",
"_	c #3C3C3C",
":	c #434343",
"<	c #4B4B4B",
"[	c #515151",
"}	c #464646",
"|	c #4D4D4D",
"1	c #555555",
"2	c #5C5C5C",
"3	c #505050",
"4	c #545454",
"5	c #404040",
"6	c #424242",
"7	c #494949",
"8	c #585858",
"9	c #5E5E5E",
"0	c #656565",
"a	c #696969",
"b	c #6F6F6F",
"c	c #393939",
"d	c #535353",
"e	c #595959",
"f	c #5F5F5F",
"g	c #6A6A6A",
"h	c #EFEFEF",
"i	c #D3D3D3",
"j	c #D2D2D2",
"k	c #D1D1D1",
"l	c #D0D0D0",
"m	c #616161",
"n	c #676767",
"o	c #717171",
"p	c #E6E6E6",
"q	c #767676",
"r	c #353535",
"s	c #232323",
"t	c #242424",
"u	c #3D3D3D",
"v	c #414141",
"w	c #4E4E4E",
"x	c #3A3A3A",
"y	c #4A4A4A",
"z	c #C8C8C8",
"A	c #C7C7C7",
"B	c #C6C6C6",
"C	c #C5C5C5",
".........................",
"+++++++++++++++++++++++++",
"@@@@@@@@@@@@@@@@@@@@@@@@@",
"#########################",
"$$$$$$$$%&&&&&&&%$$$$$$$$",
"*******=-&&&&&&&-=*******",
";;;;;;>,.&')!)'&.,>;;;;;;",
"~~~~~.{]]&^///^&]]{.~~~~~",
"((((_:<[[&&&&&&&[[<:_((((",
"{{{{}|122|34143|221|}{{{{",
"55567[89@0a-b-a0@98[76555",
"ccc_6^|def0g$g0fed|^6_ccc",
"hhhhhhhhhhhhhhhhhhhhhhhhh",
"iiiiiiiiiiiiiiiiiiiiiiiii",
"jjjjjjjjjjjjjjjjjjjjjjjjj",
"jjjjjjjjjjjjjjjjjjjjjjjjj",
"kkkkkkkkkkkkkkkkkkkkkkkkk",
"lllllllllllllllllllllllll",
"lllllllllllllllllllllllll",
".........................",
"mmmmmmmmmmmmmmmmmmmmmmmmm",
"nnnnnnnnnnnnnnnnnnnnnnnnn",
"%%%%%%%%%%%%%%%%%%%%%%%%%",
"oooooooo*ppppppp*oooooooo",
"qqqqqqqqbpppppppbqqqqqqqq",
"rrrrrrrr~pstttsp~rrrrrrrr",
"uuuuuuuucpr(((rpcuuuuuuuu",
"}}}}}}}}vpppppppv}}}}}}}}",
"wwwwwwww7xcxxxcx7wwwwwwww",
"33333333/<yyyyy</33333333",
"^^^^^^^^^^^^^^^^^^^^^^^^^",
"hhhhhhhhhhhhhhhhhhhhhhhhh",
"zzzzzzzzzzzzzzzzzzzzzzzzz",
"AAAAAAAAAAAAAAAAAAAAAAAAA",
"AAAAAAAAAAAAAAAAAAAAAAAAA",
"BBBBBBBBBBBBBBBBBBBBBBBBB",
"BBBBBBBBBBBBBBBBBBBBBBBBB",
"CCCCCCCCCCCCCCCCCCCCCCCCC"};
