/* XPM */
static char * maximizeA_xpm[] = {
"24 58 21 1",
" 	c #000000",
".	c #393939",
"+	c #141414",
"@	c #121212",
"#	c #1E1E1E",
"$	c #1D1D1D",
"%	c #111111",
"&	c #003A10",
"*	c #004A15",
"=	c #004E16",
"-	c #004C15",
";	c #005317",
">	c #FFFFFF",
",	c #005818",
"'	c #005D1A",
")	c #00651C",
"!	c #128733",
"~	c #18903A",
"{	c #1C963E",
"]	c #1E9A41",
"^	c #20A044",
"                        ",
"........................",
"++++++++++++++++++++++++",
"@@@@@@@@@@@@@@@@@@@@@@@@",
"############$$$$$$$$$$$#",
"########################",
"########################",
"%%%%%%%%%%%%%%%%%%%%%%%%",
"%&&&&&&&&&&&&&&&&&&&&&&%",
"%&********************&%",
"%&====================&%",
"%&-----&&&&&&&&&&-----&%",
"%&;;;;;&>>>>>>>>&;;;;;&%",
"%&,,,,,&>,,,,,,>&,,,,,&%",
"%&'''''&>''''''>&'''''&%",
"%&)))))&>))))))>&)))))&%",
"%&!!!!!&>!!!!!!>&!!!!!&%",
"%&~~~~~&>>>>>>>>&~~~~~&%",
"%&{{{{{&&&&&&&&&&{{{{{&%",
"%&]]]]]]]]]]]]]]]]]]]]&%",
"%&^^^^^^^^^^^^^^^^^^^^&%",
"%&&&&&&&&&&&&&&&&&&&&&&%",
"%%%%%%%%%%%%%%%%%%%%%%%%",
"########################",
"########################",
"########################",
"######################$#",
"########################",
"########################",
"                        ",
"........................",
"++++++++++++++++++++++++",
"@@@@@@@@@@@@@@@@@@@@@@@@",
"############$$$$$$$$$$$#",
"########################",
"########################",
"%%%%%%%%%%%%%%%%%%%%%%%%",
"%&&&&&&&&&&&&&&&&&&&&&&%",
"%&********************&%",
"%&====================&%",
"%&-----&&&&&&&&&&-----&%",
"%&;;;;;&>>>>>>>>&;;;;;&%",
"%&,,,,,&>,,,,,,>&,,,,,&%",
"%&'''''&>''''''>&'''''&%",
"%&)))))&>))))))>&)))))&%",
"%&!!!!!&>!!!!!!>&!!!!!&%",
"%&~~~~~&>>>>>>>>&~~~~~&%",
"%&{{{{{&&&&&&&&&&{{{{{&%",
"%&]]]]]]]]]]]]]]]]]]]]&%",
"%&^^^^^^^^^^^^^^^^^^^^&%",
"%&&&&&&&&&&&&&&&&&&&&&&%",
"%%%%%%%%%%%%%%%%%%%%%%%%",
"########################",
"########################",
"########################",
"######################$#",
"########################",
"########################"};
