/* XPM */
static char * maximizeO_xpm[] = {
"24 58 35 1",
" 	c #000000",
".	c #393939",
"+	c #141414",
"@	c #121212",
"#	c #1E1E1E",
"$	c #1D1D1D",
"%	c #111111",
"&	c #006B1D",
"*	c #05972D",
"=	c #099831",
"-	c #0C9833",
";	c #003A10",
">	c #129A37",
",	c #FFFFFF",
"'	c #159E3B",
")	c #1BA140",
"!	c #21A445",
"~	c #59C377",
"{	c #62CA7F",
"]	c #69D187",
"^	c #74D991",
"/	c #7FDE9A",
"(	c #2FAF52",
"_	c #4FD373",
":	c #56DA7A",
"<	c #60E383",
"[	c #66EC8A",
"}	c #6DF291",
"|	c #74F898",
"1	c #7FFCA1",
"2	c #C0F9D0",
"3	c #C7FED6",
"4	c #CDFFDB",
"5	c #D6FFE1",
"6	c #E0FFE9",
"                        ",
"........................",
"++++++++++++++++++++++++",
"@@@@@@@@@@@@@@@@@@@@@@@@",
"############$$$$$$$$$$$#",
"########################",
"########################",
"%%%%%%%%%%%%%%%%%%%%%%%%",
"%&&&&&&&&&&&&&&&&&&&&&&%",
"%&********************&%",
"%&====================&%",
"%&-----;;;;;;;;;;-----&%",
"%&>>>>>;,,,,,,,,;>>>>>&%",
"%&''''';,'''''',;'''''&%",
"%&)))));,)))))),;)))))&%",
"%&!!!!!;,!!!!!!,;!!!!!&%",
"%&~~~~~;,~~~~~~,;~~~~~&%",
"%&{{{{{;,,,,,,,,;{{{{{&%",
"%&]]]]];;;;;;;;;;]]]]]&%",
"%&^^^^^^^^^^^^^^^^^^^^&%",
"%&////////////////////&%",
"%&&&&&&&&&&&&&&&&&&&&&&%",
"%%%%%%%%%%%%%%%%%%%%%%%%",
"########################",
"########################",
"########################",
"######################$#",
"########################",
"########################",
"                        ",
"........................",
"++++++++++++++++++++++++",
"@@@@@@@@@@@@@@@@@@@@@@@@",
"############$$$$$$$$$$$#",
"########################",
"########################",
"%%%%%%%%%%%%%%%%%%%%%%%%",
"%((((((((((((((((((((((%",
"%(____________________(%",
"%(::::::::::::::::::::(%",
"%(<<<<<<<<<<<<<<<<<<<<(%",
"%([[[[[;;;;;;;;;;[[[[[(%",
"%(}}}}};,,,,,,,,;}}}}}(%",
"%(|||||;,||||||,;|||||(%",
"%(11111;,111111,;11111(%",
"%(22222;,222222,;22222(%",
"%(33333;,333333,;33333(%",
"%(44444;,,,,,,,,;44444(%",
"%(55555;;;;;;;;;;55555(%",
"%(66666666666666666666(%",
"%((((((((((((((((((((((%",
"%%%%%%%%%%%%%%%%%%%%%%%%",
"########################",
"########################",
"########################",
"######################$#",
"########################",
"########################"};
