/* XPM */
static char * minimizeO_xpm[] = {
"24 58 33 1",
" 	c #000000",
".	c #393939",
"+	c #141414",
"@	c #121212",
"#	c #1D1D1D",
"$	c #111111",
"%	c #827900",
"&	c #A59B0A",
"*	c #AAA00F",
"=	c #ACA316",
"-	c #AFA621",
";	c #B2A927",
">	c #B3AA2D",
",	c #B5AC2F",
"'	c #423D00",
")	c #E0DB98",
"!	c #FFFFFF",
"~	c #EAE5A5",
"{	c #F1ECB0",
"]	c #F8F4BC",
"^	c #FCF8C4",
"/	c #BCB439",
"(	c #E8E06D",
"_	c #EEE676",
":	c #F1E979",
"<	c #F8F080",
"[	c #FCF487",
"}	c #FFF78E",
"|	c #FBF9DC",
"1	c #FFFDE7",
"2	c #FFFEEA",
"3	c #FFFEF6",
"4	c #FEFDFA",
"                        ",
"........................",
"++++++++++++++++++++++++",
"@@@@@@@@@@@@@@@@@@@@@@@@",
"########################",
"########################",
"########################",
"$$$$$$$$$$$$$$$$$$$$$$$$",
"$%%%%%%%%%%%%%%%%%%%%%%$",
"$%&&&&&&&&&&&&&&&&&&&&%$",
"$%********************%$",
"$%====================%$",
"$%--------------------%$",
"$%;;;;;;;;;;;;;;;;;;;;%$",
"$%>>>>>>>>>>>>>>>>>>>>%$",
"$%,,,,,'''''''''',,,,,%$",
"$%)))))'!!!!!!!!')))))%$",
"$%~~~~~'!!!!!!!!'~~~~~%$",
"$%{{{{{''''''''''{{{{{%$",
"$%]]]]]]]]]]]]]]]]]]]]%$",
"$%^^^^^^^^^^^^^^^^^^^^%$",
"$%%%%%%%%%%%%%%%%%%%%%%$",
"$$$$$$$$$$$$$$$$$$$$$$$$",
"########################",
"########################",
"########################",
"########################",
"########################",
"########################",
"                        ",
"........................",
"++++++++++++++++++++++++",
"@@@@@@@@@@@@@@@@@@@@@@@@",
"########################",
"########################",
"########################",
"$$$$$$$$$$$$$$$$$$$$$$$$",
"$//////////////////////$",
"$/((((((((((((((((((((/$",
"$/____________________/$",
"$/::::::::::::::::::::/$",
"$/<<<<<<<<<<<<<<<<<<<</$",
"$/[[[[[[[[[[[[[[[[[[[[/$",
"$/}}}}}}}}}}}}}}}}}}}}/$",
"$/}}}}}}}}}}}}}}}}}}}}/$",
"$/|||||''''''''''|||||/$",
"$/11111'!!!!!!!!'11111/$",
"$/22222'!!!!!!!!'22222/$",
"$/33333''''''''''33333/$",
"$/44444444444444444444/$",
"$//////////////////////$",
"$$$$$$$$$$$$$$$$$$$$$$$$",
"########################",
"########################",
"########################",
"########################",
"########################",
"########################"};
