/* XPM */
static char * minimizeA_xpm[] = {
"24 58 20 1",
" 	c #000000",
".	c #393939",
"+	c #141414",
"@	c #121212",
"#	c #1D1D1D",
"$	c #111111",
"%	c #423D00",
"&	c #575100",
"*	c #5F5901",
"=	c #686102",
"-	c #6E6604",
";	c #756D09",
">	c #78700A",
",	c #7D760E",
"'	c #A09723",
")	c #FFFFFF",
"!	c #A89F2A",
"~	c #AFA630",
"{	c #B8AE36",
"]	c #BFB63D",
"                        ",
"........................",
"++++++++++++++++++++++++",
"@@@@@@@@@@@@@@@@@@@@@@@@",
"########################",
"########################",
"########################",
"$$$$$$$$$$$$$$$$$$$$$$$$",
"$%%%%%%%%%%%%%%%%%%%%%%$",
"$%&&&&&&&&&&&&&&&&&&&&%$",
"$%********************%$",
"$%====================%$",
"$%--------------------%$",
"$%;;;;;;;;;;;;;;;;;;;;%$",
"$%>>>>>>>>>>>>>>>>>>>>%$",
"$%,,,,,%%%%%%%%%%,,,,,%$",
"$%'''''%))))))))%'''''%$",
"$%!!!!!%))))))))%!!!!!%$",
"$%~~~~~%%%%%%%%%%~~~~~%$",
"$%{{{{{{{{{{{{{{{{{{{{%$",
"$%]]]]]]]]]]]]]]]]]]]]%$",
"$%%%%%%%%%%%%%%%%%%%%%%$",
"$$$$$$$$$$$$$$$$$$$$$$$$",
"########################",
"########################",
"########################",
"########################",
"########################",
"########################",
"                        ",
"........................",
"++++++++++++++++++++++++",
"@@@@@@@@@@@@@@@@@@@@@@@@",
"########################",
"########################",
"########################",
"$$$$$$$$$$$$$$$$$$$$$$$$",
"$%%%%%%%%%%%%%%%%%%%%%%$",
"$%&&&&&&&&&&&&&&&&&&&&%$",
"$%********************%$",
"$%====================%$",
"$%--------------------%$",
"$%;;;;;;;;;;;;;;;;;;;;%$",
"$%>>>>>>>>>>>>>>>>>>>>%$",
"$%,,,,,%%%%%%%%%%,,,,,%$",
"$%'''''%))))))))%'''''%$",
"$%!!!!!%))))))))%!!!!!%$",
"$%~~~~~%%%%%%%%%%~~~~~%$",
"$%{{{{{{{{{{{{{{{{{{{{%$",
"$%]]]]]]]]]]]]]]]]]]]]%$",
"$%%%%%%%%%%%%%%%%%%%%%%$",
"$$$$$$$$$$$$$$$$$$$$$$$$",
"########################",
"########################",
"########################",
"########################",
"########################",
"########################"};
