/* XPM */
static char * linux2_xpm[] = {
"50 20 117 2",
"  	c None",
". 	c #000000",
"+ 	c #999999",
"@ 	c #9A9A9A",
"# 	c #707070",
"$ 	c #666666",
"% 	c #6D6D6D",
"& 	c #7E7E7E",
"* 	c #727272",
"= 	c #686868",
"- 	c #676767",
"; 	c #555555",
"> 	c #ADADAD",
", 	c #F0F0F0",
"' 	c #D4D4D4",
") 	c #E1E1E1",
"! 	c #D9D9D9",
"~ 	c #595959",
"{ 	c #EDEDED",
"] 	c #FDFDFD",
"^ 	c #C7C7C7",
"/ 	c #626262",
"( 	c #FBFBFB",
"_ 	c #B6B6B6",
": 	c #F2F2F2",
"< 	c #ECECEC",
"[ 	c #A0A0A0",
"} 	c #474747",
"| 	c #535353",
"1 	c #696969",
"2 	c #EEEEEE",
"3 	c #979797",
"4 	c #C4C4C4",
"5 	c #4B4B4B",
"6 	c #F1F1F1",
"7 	c #FCFCFC",
"8 	c #5E5E5E",
"9 	c #383838",
"0 	c #404040",
"a 	c #3A3A3A",
"b 	c #5F5F5F",
"c 	c #DBDBDB",
"d 	c #C5C5C5",
"e 	c #7B7B7B",
"f 	c #5B5B5B",
"g 	c #F3F3F3",
"h 	c #636363",
"i 	c #232323",
"j 	c #252525",
"k 	c #BEBEBE",
"l 	c #BABABA",
"m 	c #878787",
"n 	c #343434",
"o 	c #4C4C4C",
"p 	c #EBEBEB",
"q 	c #4E4E4E",
"r 	c #DEDEDE",
"s 	c #C0C0C0",
"t 	c #A1A1A1",
"u 	c #DADADA",
"v 	c #282828",
"w 	c #2D2D2D",
"x 	c #E4E4E4",
"y 	c #121212",
"z 	c #303030",
"A 	c #E8E8E8",
"B 	c #949494",
"C 	c #080808",
"D 	c #1B1B1B",
"E 	c #A2A2A2",
"F 	c #575757",
"G 	c #010101",
"H 	c #565656",
"I 	c #070707",
"J 	c #E7E7E7",
"K 	c #2C2C2C",
"L 	c #272727",
"M 	c #181818",
"N 	c #580000",
"O 	c #691A1A",
"P 	c #6C2020",
"Q 	c #610F0F",
"R 	c #EFE7E7",
"S 	c #824141",
"T 	c #773030",
"U 	c #EFE8E8",
"V 	c #905656",
"W 	c #D6C1C1",
"X 	c #7D3939",
"Y 	c #E7DBDB",
"Z 	c #F2ECEC",
"` 	c #742C2C",
" .	c #BA9696",
"..	c #B69191",
"+.	c #760000",
"@.	c #8D2B2B",
"#.	c #EDDEDE",
"$.	c #E5D0D0",
"%.	c #DCBFBF",
"&.	c #F3E9E9",
"*.	c #C59494",
"=.	c #8F3030",
"-.	c #F2E8E8",
";.	c #D8B7B7",
">.	c #AD6868",
",.	c #ECDDDD",
"'.	c #973F3F",
").	c #F4ECEC",
"!.	c #8D2C2C",
"~.	c #851D1D",
"{.	c #F7F1F1",
"].	c #841B1B",
"^.	c #910000",
"/.	c #9A1616",
"(.	c #A02424",
"_.	c #950A0A",
":.	c #CB0101",
"                                                                                                    ",
"                                                                                                    ",
"    . . . . . . . . . . . . . . . . . . . . . . . . . . . . . . . . . . . . . . . . . . . . . .     ",
"    . + @ @ @ @ @ @ @ @ @ @ @ @ @ @ @ @ @ @ @ @ @ @ @ @ @ @ @ @ @ @ @ @ @ @ @ @ @ @ @ @ @ @ + .     ",
"    . @ # # # # # # # # # # # # # # # # # # # # # # # # # # # # # # # # # # # # # # # # # # @ .     ",
"    . @ $ $ $ $ $ $ % & * $ $ = = = = = = - $ $ - $ $ $ $ - = - $ $ $ = = = = = = - $ $ $ $ @ .     ",
"    . @ ; ; ; ; ; > , ' ) ! ~ { { , ] { { ^ ; / ( _ ; ; ; : { < { [ ~ { { , ] { { ^ ; ; ; ; @ .     ",
"    . @ } } } } $ : | } } ~ } } } 1 2 } } } } 3 4 2 5 } } 6 $ } = 7 8 } } 1 2 } } } } } } } @ .     ",
"    . @ 9 9 9 9 $ 2 0 9 a a a a a b { a a a a c $ d e a a , f a a g h a a b { a a a a a a a @ .     ",
"    . @ i i i i j k , l m n i i i o p i i i q r i % s i i 2 e h t u v i i o p i i i i i i i @ .     ",
"    . @ . . . . . . w = k x y . . z A . . . B e . C { D . < > E A F . . . z A . . . . . . . @ .     ",
"    . @ . . . . . . . . G c H . . z A . . I { J x x g e . < K . L < M . . z A . . . . . . . @ .     ",
"    . @ N N N N O P N N Q R S N N T U N N V W N N N X Y N Z ` N N  ...N N T U N N N N N N N @ .     ",
"    . @ +.+.+.+.@.#.$.%.&.*.+.+.+.=.-.+.+.;.>.+.+.+.+.,.'.).!.+.+.~.{.].+.=.-.+.+.+.+.+.+.+.@ .     ",
"    . @ ^.^.^.^.^.^./.(._.^.^.^.^.^.^.^.^.^.^.^.^.^.^.^.^.^.^.^.^.^.^.^.^.^.^.^.^.^.^.^.^.^.@ .     ",
"    . @ :.:.:.:.:.:.:.:.:.:.:.:.:.:.:.:.:.:.:.:.:.:.:.:.:.:.:.:.:.:.:.:.:.:.:.:.:.:.:.:.:.:.@ .     ",
"    . + @ @ @ @ @ @ @ @ @ @ @ @ @ @ @ @ @ @ @ @ @ @ @ @ @ @ @ @ @ @ @ @ @ @ @ @ @ @ @ @ @ @ + .     ",
"    . . . . . . . . . . . . . . . . . . . . . . . . . . . . . . . . . . . . . . . . . . . . . .     ",
"                                                                                                    ",
"                                                                                                    "};
