/* XPM */
static char * linux3_xpm[] = {
"50 20 133 2",
"  	c None",
". 	c #000000",
"+ 	c #999999",
"@ 	c #9A9A9A",
"# 	c #707070",
"$ 	c #666666",
"% 	c #676767",
"& 	c #555555",
"* 	c #F2F2F2",
"= 	c #727272",
"- 	c #474747",
"; 	c #F1F1F1",
"> 	c #4B4B4B",
", 	c #5F5F5F",
"' 	c #515151",
") 	c #4C4C4C",
"! 	c #484848",
"~ 	c #494949",
"{ 	c #585858",
"] 	c #525252",
"^ 	c #5A5A5A",
"/ 	c #505050",
"( 	c #383838",
"_ 	c #F0F0F0",
": 	c #373737",
"< 	c #808080",
"[ 	c #E7E7E7",
"} 	c #C4C4C4",
"| 	c #D6D6D6",
"1 	c #767676",
"2 	c #3A3A3A",
"3 	c #7E7E7E",
"4 	c #E3E3E3",
"5 	c #C7C7C7",
"6 	c #E4E4E4",
"7 	c #797979",
"8 	c #888888",
"9 	c #ADADAD",
"0 	c #646464",
"a 	c #FFFFFF",
"b 	c #636363",
"c 	c #AEAEAE",
"d 	c #CCCCCC",
"e 	c #EEEEEE",
"f 	c #BDBDBD",
"g 	c #EFEFEF",
"h 	c #696969",
"i 	c #232323",
"j 	c #3B3B3B",
"k 	c #3D3D3D",
"l 	c #272727",
"m 	c #E9E9E9",
"n 	c #363636",
"o 	c #3C3C3C",
"p 	c #EAEAEA",
"q 	c #292929",
"r 	c #414141",
"s 	c #DEDEDE",
"t 	c #8C8C8C",
"u 	c #8B8B8B",
"v 	c #DFDFDF",
"w 	c #404040",
"x 	c #656565",
"y 	c #616161",
"z 	c #FCFCFC",
"A 	c #4D4D4D",
"B 	c #B8B8B8",
"C 	c #ECECEC",
"D 	c #2C2C2C",
"E 	c #595959",
"F 	c #B4B4B4",
"G 	c #E0E0E0",
"H 	c #2A2A2A",
"I 	c #1D1D1D",
"J 	c #3E3E3E",
"K 	c #BCBCBC",
"L 	c #1E1E1E",
"M 	c #060606",
"N 	c #C6C6C6",
"O 	c #C8C8C8",
"P 	c #0B0B0B",
"Q 	c #9E9E9E",
"R 	c #D3D3D3",
"S 	c #D4D4D4",
"T 	c #6A6A6A",
"U 	c #9D9D9D",
"V 	c #1C1C1C",
"W 	c #580000",
"X 	c #F2ECEC",
"Y 	c #742C2C",
"Z 	c #6A1C1C",
"` 	c #F3EEEE",
" .	c #6C2020",
"..	c #5B0505",
"+.	c #6E2222",
"@.	c #610F0F",
"#.	c #945C5C",
"$.	c #EBE1E1",
"%.	c #BB9898",
"&.	c #BC9999",
"*.	c #935B5B",
"=.	c #EDE4E4",
"-.	c #7C3838",
";.	c #DAC8C8",
">.	c #760000",
",.	c #F4ECEC",
"'.	c #8D2C2C",
").	c #A85E5E",
"!.	c #EFE3E3",
"~.	c #D7B6B6",
"{.	c #E3CCCC",
"].	c #9F4D4D",
"^.	c #A55959",
"/.	c #EEE0E0",
"(.	c #D8B7B7",
"_.	c #DEC2C2",
":.	c #E2CACA",
"<.	c #831A1A",
"[.	c #A35555",
"}.	c #A45656",
"|.	c #831919",
"1.	c #851C1C",
"2.	c #F0E4E4",
"3.	c #943838",
"4.	c #E1C8C8",
"5.	c #910000",
"6.	c #940707",
"7.	c #A02323",
"8.	c #970E0E",
"9.	c #920404",
"0.	c #9F2222",
"a.	c #9B1818",
"b.	c #CB0101",
"                                                                                                    ",
"                                                                                                    ",
"    . . . . . . . . . . . . . . . . . . . . . . . . . . . . . . . . . . . . . . . . . . . . . .     ",
"    . + @ @ @ @ @ @ @ @ @ @ @ @ @ @ @ @ @ @ @ @ @ @ @ @ @ @ @ @ @ @ @ @ @ @ @ @ @ @ @ @ @ @ + .     ",
"    . @ # # # # # # # # # # # # # # # # # # # # # # # # # # # # # # # # # # # # # # # # # # @ .     ",
"    . @ $ $ $ $ % $ $ $ $ $ $ $ $ $ $ $ $ $ $ $ $ $ $ $ $ $ $ $ $ $ $ $ $ $ $ $ $ $ $ $ $ $ @ .     ",
"    . @ & & & & * = & & & & & & & & & & & & & & & & & & & & & & & & & & & & & & & & & & & & @ .     ",
"    . @ - - - - ; $ - - > , ' - - - > , ) - - ! - - - ~ - - - ! - ~ - { ] - - ^ / - - - - - @ .     ",
"    . @ ( ( ( ( _ ^ : < [ } | 1 2 3 4 5 6 7 2 8 9 2 0 a b 2 c 8 2 a 9 d e 3 f d g h 2 2 2 2 @ .     ",
"    . @ i i i i e ! j _ k i i l ( m n i o p q r s i t d u i v w i a x i y z A i 7 B i i i i @ .     ",
"    . @ . . . . C D E F . . . . { G t t t e H . G I f J K L v . . a M . L p . . 2 N . . . . @ .     ",
"    . @ . . . . C D E F . . . . E O o o o o P . Q h R . S T U . . a . . V 6 . . ( O . . . . @ .     ",
"    . @ W W W W X Y Z `  .W W ..Z ` +.W W @.W W #.$.%.W &.$.*.W W a W W Z =.W W -.;.W W W W @ .     ",
"    . @ >.>.>.>.,.'.>.).!.~.{.].>.^./.(._.:.>.>.<.a [.>.}.a |.>.>.a >.>.1.2.>.>.3.4.>.>.>.>.@ .     ",
"    . @ 5.5.5.5.5.5.5.5.6.7.8.5.5.5.9.0.a.5.5.5.5.5.5.5.5.5.5.5.5.5.5.5.5.5.5.5.5.5.5.5.5.5.@ .     ",
"    . @ b.b.b.b.b.b.b.b.b.b.b.b.b.b.b.b.b.b.b.b.b.b.b.b.b.b.b.b.b.b.b.b.b.b.b.b.b.b.b.b.b.b.@ .     ",
"    . + @ @ @ @ @ @ @ @ @ @ @ @ @ @ @ @ @ @ @ @ @ @ @ @ @ @ @ @ @ @ @ @ @ @ @ @ @ @ @ @ @ @ + .     ",
"    . . . . . . . . . . . . . . . . . . . . . . . . . . . . . . . . . . . . . . . . . . . . . .     ",
"                                                                                                    ",
"                                                                                                    "};
