/* XPM */
static char * closeI_xpm[] = {
"22 38 4 1",
" 	c None",
".	c #CCCCCC",
"+	c #FFFFFF",
"@	c #AAAAAA",
"......................",
"......................",
"......................",
"......................",
".......++++++++++.....",
".......+........+.....",
".......+.++..++.+.....",
".......+.++++++.+.....",
".......+..++++..+.....",
".......+..++++..+.....",
".......+.++++++.+.....",
".......+.++..++.+.....",
".......+........+.....",
".......++++++++++.....",
"......................",
"......................",
"......................",
"......................",
"......................",
"......................",
"......................",
"......................",
"......................",
".......@@@@@@@@@@.....",
".......@........@.....",
".......@.@@..@@.@.....",
".......@.@@@@@@.@.....",
".......@..@@@@..@.....",
".......@..@@@@..@.....",
".......@.@@@@@@.@.....",
".......@.@@..@@.@.....",
".......@........@.....",
".......@@@@@@@@@@.....",
"......................",
"......................",
"......................",
"......................",
"......................"};
