/* XPM */
static char * menuButtonA_xpm[] = {
"22 38 4 1",
" 	c None",
".	c #336699",
"+	c #FFFFFF",
"@	c #AAAAAA",
"......................",
"......................",
"......................",
"......................",
"......................",
"......................",
".......++++++++.......",
".......++++++++.......",
".......++....++.......",
".......++....++.......",
".......++....++.......",
".......++....++.......",
".......++++++++.......",
".......++++++++.......",
"......................",
"......................",
"......................",
"......................",
"......................",
"......................",
"......................",
"......................",
"......................",
"......................",
"......................",
".......@@@@@@@@.......",
".......@@@@@@@@.......",
".......@@....@@.......",
".......@@....@@.......",
".......@@....@@.......",
".......@@....@@.......",
".......@@@@@@@@.......",
".......@@@@@@@@.......",
"......................",
"......................",
"......................",
"......................",
"......................"};
