/* XPM */
static char * minimizeA_xpm[] = {
"22 38 12 1",
" 	c None",
".	c #336699",
"+	c #8FABC7",
"@	c #F1F6F8",
"#	c #FDFDFE",
"$	c #4E7AA6",
"%	c #FFFFFF",
"&	c #6984A0",
"*	c #B5B5BB",
"=	c #ABABAC",
"-	c #426F9B",
";	c #AAAAAA",
"......................",
"......................",
"......................",
"........+@##@+........",
"......$@%%%%%%@$......",
"......@%%%%%%%%@......",
".....+%%%%%%%%%%+.....",
".....@%%%%%%%%%%@.....",
".....#%%%%%%%%%%#.....",
".....#%%%%%%%%%%#.....",
".....@%%%%%%%%%%@.....",
".....+%%%%%%%%%%+.....",
"......@%%%%%%%%@......",
"......$@%%%%%%@$......",
"........+@##@+........",
"......................",
"......................",
"......................",
"......................",
"......................",
"......................",
"......................",
"........&*==*&........",
"......-*;;;;;;*-......",
"......*;;;;;;;;*......",
".....&;;;;;;;;;;&.....",
".....*;;;;;;;;;;*.....",
".....=;;;;;;;;;;=.....",
".....=;;;;;;;;;;=.....",
".....*;;;;;;;;;;*.....",
".....&;;;;;;;;;;&.....",
"......*;;;;;;;;*......",
"......-*;;;;;;*-......",
"........&*==*&........",
"......................",
"......................",
"......................",
"......................"};
