/* XPM */
static char * minimizeI_xpm[] = {
"22 38 12 1",
" 	c None",
".	c #CBCBCB",
"+	c #E2E2E2",
"@	c #F1F6F8",
"#	c #FDFDFE",
"$	c #D1D1D1",
"%	c #FFFFFF",
"&	c #BBBBBB",
"*	c #AEB3B5",
"=	c #AAABAB",
"-	c #C6C6C6",
";	c #AAAAAA",
"......................",
"......................",
"......................",
"........+@##@+........",
"......$@%%%%%%@$......",
"......@%%%%%%%%@......",
".....+%%%%%%%%%%+.....",
".....@%%%%%%%%%%@.....",
".....#%%%%%%%%%%#.....",
".....#%%%%%%%%%%#.....",
".....@%%%%%%%%%%@.....",
".....+%%%%%%%%%%+.....",
"......@%%%%%%%%@......",
"......$@%%%%%%@$......",
"........+@##@+........",
"......................",
"......................",
"......................",
"......................",
"......................",
"......................",
"......................",
"........&*==*&........",
"......-*;;;;;;*-......",
"......*;;;;;;;;*......",
".....&;;;;;;;;;;&.....",
".....*;;;;;;;;;;*.....",
".....=;;;;;;;;;;=.....",
".....=;;;;;;;;;;=.....",
".....*;;;;;;;;;;*.....",
".....&;;;;;;;;;;&.....",
"......*;;;;;;;;*......",
"......-*;;;;;;*-......",
"........&*==*&........",
"......................",
"......................",
"......................",
"......................"};
