/* XPM */
static char * restoreA_xpm[] = {
"22 38 5 1",
" 	c None",
".	c #336699",
"+	c #FFFFFF",
"@	c #336698",
"#	c #AAAAAA",
"......................",
"......................",
"......................",
"......+...............",
".....+++..............",
"......+++.............",
".......+++............",
"........+++...........",
".........+++...++.....",
"..........+++..++.....",
"...........+++.++.....",
"............+++++.....",
".............++++.....",
"..........+++++++.....",
"..........+++++++.....",
"......................",
"......................",
"......................",
"@@@@@@@@@@@@@@@@@@@@@@",
"......................",
"......................",
"......................",
"......#...............",
".....###..............",
"......###.............",
".......###............",
"........###...........",
".........###...##.....",
"..........###..##.....",
"...........###.##.....",
"............#####.....",
".............####.....",
"..........#######.....",
"..........#######.....",
"......................",
"......................",
"......................",
"@@@@@@@@@@@@@@@@@@@@@@"};
