/* XPM */
static char * restoreI_xpm[] = {
"22 38 4 1",
" 	c None",
".	c #CBCBCB",
"+	c #FFFFFF",
"@	c #AAAAAA",
"......................",
"......................",
"......................",
"......+...............",
".....+++..............",
"......+++.............",
".......+++............",
"........+++...........",
".........+++...++.....",
"..........+++..++.....",
"...........+++.++.....",
"............+++++.....",
".............++++.....",
"..........+++++++.....",
"..........+++++++.....",
"......................",
"......................",
"......................",
"......................",
"......................",
"......................",
"......................",
"......@...............",
".....@@@..............",
"......@@@.............",
".......@@@............",
"........@@@...........",
".........@@@...@@.....",
"..........@@@..@@.....",
"...........@@@.@@.....",
"............@@@@@.....",
".............@@@@.....",
"..........@@@@@@@.....",
"..........@@@@@@@.....",
"......................",
"......................",
"......................",
"......................"};
