/* XPM */
static char * a_xpm[] = {
"10 20 40 1",
" 	c #101010",
".	c #396387",
"+	c #62ABE4",
"@	c #6AB8F6",
"#	c #6AB7F5",
"$	c #5B9DD2",
"%	c #203343",
"&	c #14141E",
"*	c #66B2EE",
"=	c #4D88B6",
"-	c #101818",
";	c #223A50",
">	c #65AFEB",
",	c #518EBE",
"'	c #5694C5",
")	c #5CA1D7",
"!	c #4B81AF",
"~	c #64ADE8",
"{	c #66B1ED",
"]	c #6BB9F7",
"^	c #5DA1D8",
"/	c #3B668B",
"(	c #6DBDFC",
"_	c #355B7C",
":	c #5797CA",
"<	c #42749C",
"[	c #6BB9F8",
"}	c #243F53",
"|	c #15232C",
"1	c #43749D",
"2	c #66B0ED",
"3	c #61A8E1",
"4	c #1A202F",
"5	c #5C9ED5",
"6	c #6CB9F7",
"7	c #69B5F2",
"8	c #5392C2",
"9	c #396486",
"0	c #6BB8F6",
"a	c #589ACD",
"          ",
"          ",
"          ",
"          ",
"          ",
"          ",
"          ",
"          ",
"          ",
"  .+@#$%  ",
" &*=-;>,  ",
"      ')  ",
"  !~{{]^  ",
" /(_  :^  ",
" <[}|123  ",
" 4567890a ",
"          ",
"          ",
"          ",
"          "};
