/* XPM */
static char * m_xpm[] = {
"15 20 31 1",
" 	c #101010",
".	c #1D2D3E",
"+	c #6EBEFE",
"@	c #4478A2",
"#	c #66B1EC",
"$	c #6CBBFA",
"%	c #5FA4DC",
"&	c #2F516E",
"*	c #61A7E0",
"=	c #6CBAF9",
"-	c #64AEE9",
";	c #315571",
">	c #172836",
",	c #5CA1D7",
"'	c #203343",
")	c #27425C",
"!	c #6BB9F7",
"~	c #64AFEA",
"{	c #2C4D69",
"]	c #182432",
"^	c #60A8DF",
"/	c #5897CB",
"(	c #3C688D",
"_	c #62A9E3",
":	c #5491C1",
"<	c #518CBB",
"[	c #5FA5DD",
"}	c #345A79",
"|	c #4F87B7",
"1	c #4E89BA",
"2	c #60A6DE",
"               ",
"               ",
"               ",
"               ",
"               ",
"               ",
"               ",
"               ",
"               ",
".+@#$%&*=-;    ",
">+,')!~{]^/    ",
">+(  _:  <[    ",
">+}  *|  12    ",
">+}  *|  12    ",
">+}  *|  12    ",
">+}  *|  12    ",
"               ",
"               ",
"               ",
"               "};
