/* XPM */
static char * n0_xpm[] = {
"10 20 43 1",
" 	c #101010",
".	c #27445A",
"+	c #5DA1D8",
"@	c #6CBBFA",
"#	c #6AB8F6",
"$	c #5695C7",
"%	c #1A202F",
"&	c #61A8E1",
"*	c #5CA1D7",
"=	c #27425C",
"-	c #2F516E",
";	c #66AFEB",
">	c #528FBF",
",	c #6EBEFE",
"'	c #233D55",
")	c #407098",
"!	c #6AB7F5",
"~	c #14141E",
"{	c #4577A1",
"]	c #68B4F0",
"^	c #29445D",
"/	c #2B4D66",
"(	c #4A82B0",
"_	c #64ADE8",
":	c #172836",
"<	c #365E80",
"[	c #4B84B1",
"}	c #1B2C39",
"|	c #365D7F",
"1	c #4376A0",
"2	c #68B4F1",
"3	c #2A4762",
"4	c #294964",
"5	c #2E4F6B",
"6	c #44769F",
"7	c #69B6F3",
"8	c #101818",
"9	c #60A6DE",
"0	c #5CA2D8",
"a	c #315675",
"b	c #67B2EF",
"c	c #4F89B8",
"d	c #5491C1",
"          ",
"          ",
"          ",
"          ",
"          ",
"          ",
"  .+@#$%  ",
"  &*=-;>  ",
" -,'  )!~ ",
" {]   ^,/ ",
" (_   :,< ",
" [_   },| ",
" 12   3,4 ",
" 5,=  678 ",
"  90.abc  ",
"  '*@#d~  ",
"          ",
"          ",
"          ",
"          "};
