/* XPM */
static char * n1_xpm[] = {
"10 20 18 1",
" 	c #101010",
".	c #2D506D",
"+	c #66B0EC",
"@	c #62A9E2",
"#	c #3C6A90",
"$	c #66B1EC",
"%	c #5CA0D7",
"&	c #4E88B8",
"*	c #2A4762",
"=	c #4E89BA",
"-	c #1D2D3E",
";	c #1C3040",
">	c #518DBC",
",	c #61ABE3",
"'	c #101818",
")	c #6CB9F7",
"!	c #6EBEFE",
"~	c #28465F",
"          ",
"          ",
"          ",
"          ",
"          ",
"          ",
"   .+@    ",
"  #$%@    ",
"  &*=@    ",
"    =@    ",
"    =@    ",
"    =@    ",
"    =@    ",
"    =@    ",
"  -;>,;;' ",
"  )!!!!!~ ",
"          ",
"          ",
"          ",
"          "};
