/* XPM */
static char * n2_xpm[] = {
"10 20 33 1",
" 	c #101010",
".	c #2D4C68",
"+	c #5DA3D9",
"@	c #6CB9F7",
"#	c #6AB7F5",
"$	c #5B9DD2",
"%	c #243F53",
"&	c #14141E",
"*	c #66B1ED",
"=	c #599ACE",
"-	c #233D55",
";	c #63ACE5",
">	c #5797CA",
",	c #20394C",
"'	c #467BA6",
")	c #68B4F1",
"!	c #4F8BBB",
"~	c #62ABE4",
"{	c #325978",
"]	c #6CBAF9",
"^	c #3E6B91",
"/	c #3A6488",
"(	c #487DA8",
"_	c #43759E",
":	c #6BB9F7",
"<	c #407098",
"[	c #6AB8F6",
"}	c #396083",
"|	c #1A293B",
"1	c #1C3040",
"2	c #3E6D93",
"3	c #6EBEFE",
"4	c #253C51",
"          ",
"          ",
"          ",
"          ",
"          ",
"          ",
"  .+@#$%  ",
" &*=-.;$  ",
" %>,  ')  ",
"      !~  ",
"     {]^  ",
"    /#(   ",
"   _:<    ",
"  ^[}     ",
" |)'1111  ",
" 23333334 ",
"          ",
"          ",
"          ",
"          "};
