/* XPM */
static char * n3_xpm[] = {
"10 20 46 1",
" 	c #101010",
".	c #315675",
"+	c #5FA6DD",
"@	c #6BBAF8",
"#	c #6AB7F5",
"$	c #5B9ED3",
"%	c #254259",
"&	c #172836",
"*	c #69B6F3",
"=	c #5491C1",
"-	c #23374E",
";	c #2B4D66",
">	c #61A9E2",
",	c #5CA0D7",
"'	c #2A4762",
")	c #5694C5",
"!	c #171E28",
"~	c #497FAC",
"{	c #66B2EE",
"]	c #121923",
"^	c #315571",
"/	c #63ACE5",
"(	c #5290BF",
"_	c #2F5370",
":	c #6EBEFE",
"<	c #5897CA",
"[	c #14141E",
"}	c #223A50",
"|	c #376182",
"1	c #62ABE4",
"2	c #5A9CD0",
"3	c #355C7D",
"4	c #263F57",
"5	c #3A6488",
"6	c #5A9DD1",
"7	c #253C51",
"8	c #2B4861",
"9	c #6CBAF9",
"0	c #508BBB",
"a	c #20394C",
"b	c #294964",
"c	c #5FA5DD",
"d	c #62A9E3",
"e	c #3A6589",
"f	c #5A9ED3",
"g	c #29445D",
"          ",
"          ",
"          ",
"          ",
"          ",
"          ",
"  .+@#$%  ",
" &*=-;>,  ",
" ')!  ~{  ",
"    ]^/(  ",
"   _::<[  ",
"   [}|12  ",
"      3:4 ",
" 56   3:7 ",
" 890abcd  ",
"  e>9#fg  ",
"          ",
"          ",
"          ",
"          "};
