/* XPM */
static char * n4_xpm[] = {
"10 20 23 1",
" 	c #101010",
".	c #5796C8",
"+	c #6EBEFE",
"@	c #171E28",
"#	c #396083",
"$	c #69B5F2",
"%	c #15232C",
"&	c #64AFEA",
"*	c #497FAC",
"=	c #4F8ABA",
"-	c #5B9DD2",
";	c #2E4F6B",
">	c #2F516E",
",	c #6BB7F4",
"'	c #27445A",
")	c #101818",
"!	c #61A7E0",
"~	c #4B81AF",
"{	c #487EA9",
"]	c #62ABE4",
"^	c #14141E",
"/	c #6DBCFB",
"(	c #4578A3",
"          ",
"          ",
"          ",
"          ",
"          ",
"          ",
"     .+@  ",
"    #$+@  ",
"   %&*+@  ",
"   =-;+@  ",
"  >,';+@  ",
" )!~ ;+@  ",
" {]^ ;+@  ",
" -////+/( ",
"     ;+@  ",
"     ;+@  ",
"          ",
"          ",
"          ",
"          "};
