/* XPM */
static char * n5_xpm[] = {
"10 20 40 1",
" 	c #101010",
".	c #68B3F0",
"+	c #6EBEFE",
"@	c #5A9CD0",
"#	c #6BB8F6",
"$	c #3E6D93",
"%	c #1C3040",
"&	c #182432",
"*	c #6DBDFC",
"=	c #345D7E",
"-	c #1A293B",
";	c #2D506D",
">	c #254259",
",	c #5B9FD5",
"'	c #6AB7F5",
")	c #5DA1D8",
"!	c #2C4B65",
"~	c #497FAC",
"{	c #21374A",
"]	c #294964",
"^	c #5FA4DC",
"/	c #64AEE9",
"(	c #101818",
"_	c #2F5370",
":	c #2B4D66",
"<	c #4478A2",
"[	c #325978",
"}	c #263F57",
"|	c #2C4D69",
"1	c #6DBCFB",
"2	c #4D84B2",
"3	c #1D2D3E",
"4	c #61A6DF",
"5	c #60A7E0",
"6	c #3E6C92",
"7	c #64ACE6",
"8	c #6CBBFA",
"9	c #69B5F2",
"0	c #589ACD",
"a	c #233D55",
"          ",
"          ",
"          ",
"          ",
"          ",
"          ",
"  .++++@  ",
"  #$%%%&  ",
"  *=      ",
" -+;      ",
" >+,'#)!  ",
" >)~{]^/( ",
"      _+: ",
" ]<   [+} ",
" |123:45  ",
"  67890a  ",
"          ",
"          ",
"          ",
"          "};
