/* XPM */
static char * n6_xpm[] = {
"10 20 50 1",
" 	c #101010",
".	c #101818",
"+	c #508CBC",
"@	c #69B6F4",
"#	c #6CBAF9",
"$	c #5EA3DB",
"%	c #254259",
"&	c #4D84B2",
"*	c #68B3F0",
"=	c #325573",
"-	c #21374A",
";	c #5DA0D6",
">	c #5CA2D8",
",	c #69B5F2",
"'	c #487EA9",
")	c #1D2D3E",
"!	c #1A293B",
"~	c #2E4F6B",
"{	c #6EBEFE",
"]	c #27425C",
"^	c #3A6589",
"/	c #6EBDFD",
"(	c #467BA6",
"_	c #67B3EF",
":	c #6BBAF8",
"<	c #5FA6DD",
"[	c #3C6A8E",
"}	c #6DBDFD",
"|	c #5696C8",
"1	c #203343",
"2	c #5B9DD2",
"3	c #64AEE9",
"4	c #335C7A",
"5	c #28465F",
"6	c #2D506D",
"7	c #172836",
"8	c #6CBBFA",
"9	c #365E80",
"0	c #305372",
"a	c #223A50",
"b	c #5594C6",
"c	c #61A9E2",
"d	c #29445D",
"e	c #5CA0D7",
"f	c #61A9E1",
"g	c #182432",
"h	c #5796C8",
"i	c #6BB9F7",
"j	c #6AB8F6",
"k	c #5C9FD6",
"          ",
"          ",
"          ",
"          ",
"          ",
"          ",
"  .+@#$%  ",
"  &*=-;>  ",
" .,'  )!  ",
" ~{]      ",
" ^/(_:<~  ",
" [}|)123  ",
" 4{5  6{] ",
" 789  0{a ",
"  bcdaef  ",
"  ghijkd  ",
"          ",
"          ",
"          ",
"          "};
