/* XPM */
static char * n7_xpm[] = {
"10 20 27 1",
" 	c #101010",
".	c #3E6C92",
"+	c #6EBEFE",
"@	c #253C51",
"#	c #121923",
"$	c #1C3040",
"%	c #4B83B1",
"&	c #62A9E2",
"*	c #101818",
"=	c #243F53",
"-	c #6AB8F6",
";	c #325978",
">	c #5696C8",
",	c #5897CB",
"'	c #2A4762",
")	c #6CBAF9",
"!	c #2B4861",
"~	c #538FC0",
"{	c #5C9ED5",
"]	c #67B3F0",
"^	c #41719A",
"/	c #2F5370",
"(	c #1E3145",
"_	c #4577A1",
":	c #67B4F1",
"<	c #4D86B4",
"[	c #64ACE7",
"          ",
"          ",
"          ",
"          ",
"          ",
"          ",
" .++++++@ ",
" #$$$$%&* ",
"     =-;  ",
"     >,   ",
"    ')!   ",
"    ~{    ",
"    ]^    ",
"   /+(    ",
"   _:     ",
"   <[     ",
"          ",
"          ",
"          ",
"          "};
