/* XPM */
static char * n8_xpm[] = {
"10 20 52 1",
" 	c #101010",
".	c #355B7C",
"+	c #60A8DF",
"@	c #6AB7F5",
"#	c #69B6F3",
"$	c #5B9DD2",
"%	c #254259",
"&	c #15232C",
"*	c #4F89B8",
"=	c #101818",
"-	c #1B2C39",
";	c #5CA0D7",
">	c #5EA3DB",
",	c #2C4B65",
"'	c #6EBEFE",
")	c #2D4C68",
"!	c #467CA7",
"~	c #69B5F2",
"{	c #14141E",
"]	c #64ACE6",
"^	c #5492C3",
"/	c #203343",
"(	c #5FA5DD",
"_	c #5595C7",
":	c #2F516E",
"<	c #68B3F0",
"[	c #6DBCFB",
"}	c #6DBDFD",
"|	c #61A9E2",
"1	c #1D2D3E",
"2	c #68B4F0",
"3	c #4F87B7",
"4	c #121923",
"5	c #1A293B",
"6	c #599BCF",
"7	c #5EA4DC",
"8	c #41719A",
"9	c #6BB9F8",
"0	c #27445A",
"a	c #407098",
"b	c #6BBAF8",
"c	c #315675",
"d	c #233D55",
"e	c #223A50",
"f	c #6AB8F6",
"g	c #4D87B6",
"h	c #172836",
"i	c #63ABE5",
"j	c #365E80",
"k	c #60A7E0",
"l	c #5C9ED5",
"m	c #2A4762",
"          ",
"          ",
"          ",
"          ",
"          ",
"          ",
"  .+@#$%  ",
" &@*=-;>  ",
" ,')  !~  ",
" {]^/%(_  ",
"  :<[}|/  ",
" 1234567  ",
" 89   :'0 ",
" ab=  c'd ",
" efg{h6i  ",
"  jk@#lm  ",
"          ",
"          ",
"          ",
"          "};
