/* XPM */
static char * n9_xpm[] = {
"10 20 47 1",
" 	c #101010",
".	c #345A79",
"+	c #61A6DF",
"@	c #6BB9F8",
"#	c #6AB7F5",
"$	c #528FBF",
"%	c #101818",
"&	c #203343",
"*	c #69B6F3",
"=	c #5594C4",
"-	c #1E3447",
";	c #315876",
">	c #66B1ED",
",	c #4D84B2",
"'	c #3A678C",
")	c #6DBCFB",
"!	c #171E28",
"~	c #4679A3",
"{	c #66B1EC",
"]	c #3C6A8E",
"^	c #6EBEFE",
"/	c #1A293B",
"(	c #1E3145",
"_	c #538FC0",
":	c #1B2C39",
"<	c #2D4C68",
"[	c #60A6DE",
"}	c #29445D",
"|	c #396083",
"1	c #64ACE6",
"2	c #6CBBFA",
"3	c #64ACE7",
"4	c #487EAA",
"5	c #233D55",
"6	c #3E6D93",
"7	c #121923",
"8	c #2B4861",
"9	c #5695C7",
"0	c #60A8DF",
"a	c #15232C",
"b	c #69B5F2",
"c	c #4F8ABA",
"d	c #1A202F",
"e	c #3D6C93",
"f	c #386184",
"g	c #67B3EF",
"h	c #477BA6",
"          ",
"          ",
"          ",
"          ",
"          ",
"          ",
"  .+@#$%  ",
" &*=-;>,  ",
" ')!  ~{  ",
" ])!  ]^/ ",
" (#_:<[^} ",
"  |1234^5 ",
"      6)7 ",
"  87  90  ",
" abcd'2e  ",
"  f3)gh   ",
"          ",
"          ",
"          ",
"          "};
