/* XPM */
static char * p_xpm[] = {
"10 20 34 1",
" 	c #101010",
".	c #223A50",
"+	c #6EBEFE",
"@	c #477BA6",
"#	c #66B1EC",
"$	c #6CBAF9",
"%	c #63ABE5",
"&	c #325978",
"*	c #21374A",
"=	c #5FA6DD",
"-	c #20394C",
";	c #172836",
">	c #5A9CD0",
",	c #65AFEA",
"'	c #101818",
")	c #3E6D93",
"!	c #355C7D",
"~	c #254259",
"{	c #345A79",
"]	c #2A4762",
"^	c #315675",
"/	c #3E6C92",
"(	c #355B7C",
"_	c #233D55",
":	c #5EA3DB",
"<	c #1C3040",
"[	c #121923",
"}	c #5899CC",
"|	c #64ACE7",
"1	c #4D84B2",
"2	c #66AFEB",
"3	c #6AB8F6",
"4	c #62ABE4",
"5	c #325573",
"          ",
"          ",
"          ",
"          ",
"          ",
"          ",
"          ",
"          ",
"          ",
" .+@#$%&  ",
" *+=-;>,' ",
" *+)  !+~ ",
" *+{  ]+^ ",
" *+/  (+_ ",
" *+:<[}|  ",
" *+12345  ",
" *+5      ",
" *+^      ",
" *+^      ",
"          "};
