/* XPM */
static char * percent_xpm[] = {
"14 20 67 1",
" 	c #101010",
".	c #14141E",
"+	c #589ACD",
"@	c #61A8E1",
"#	c #294964",
"$	c #4E88B8",
"%	c #5798CB",
"&	c #3E6C92",
"*	c #5EA4DC",
"=	c #497DA9",
"-	c #5797CA",
";	c #2C4D69",
">	c #67B3F0",
",	c #20394C",
"'	c #4D85B4",
")	c #5290BF",
"!	c #345D7E",
"~	c #62AAE4",
"{	c #5FA6DD",
"]	c #44769F",
"^	c #4D86B4",
"/	c #538FC0",
"(	c #365D7F",
"_	c #62A9E3",
":	c #4679A3",
"<	c #5FA4DB",
"[	c #3C688D",
"}	c #61A6DF",
"|	c #4A82B0",
"1	c #5695C7",
"2	c #23374E",
"3	c #5390C0",
"4	c #64ACE6",
"5	c #63ACE5",
"6	c #325978",
"7	c #101818",
"8	c #63ABE5",
"9	c #60A7E0",
"0	c #29445D",
"a	c #5999CE",
"b	c #4C85B3",
"c	c #325573",
"d	c #64AFEA",
"e	c #121923",
"f	c #3E6E94",
"g	c #5FA4DC",
"h	c #3C678A",
"i	c #63ACE6",
"j	c #5A9CD0",
"k	c #27445A",
"l	c #69B6F3",
"m	c #182432",
"n	c #66AFEB",
"o	c #355C7D",
"p	c #5A9BD0",
"q	c #254259",
"r	c #518DBC",
"s	c #5492C4",
"t	c #2F5370",
"u	c #407098",
"v	c #5FA3DA",
"w	c #315571",
"x	c #66B0ED",
"y	c #1D2D3E",
"z	c #528EBD",
"A	c #62ABE4",
"B	c #61ABE3",
"              ",
"              ",
"              ",
"              ",
"              ",
" .+@@#   $%   ",
" &* =-  ;>,   ",
" ') !~  {]    ",
" ^/ (_ :<     ",
" [} |12>#3456 ",
" 7%890abcdefg ",
"     hie]j kl ",
"    mno ]p ql ",
"    rs  td.uv ",
"   wxy   zABc ",
"              ",
"              ",
"              ",
"              ",
"              "};
