/* XPM */
static char * slash_xpm[] = {
"6 20 23 1",
" 	c #101010",
".	c #43749D",
"+	c #60A7E0",
"@	c #5899CC",
"#	c #4F87B7",
"$	c #68B4F1",
"%	c #335C7A",
"&	c #315876",
"*	c #6BB7F4",
"=	c #101818",
"-	c #4C86B5",
";	c #5A9BD0",
">	c #61A6DF",
",	c #4478A2",
"'	c #1D2D3E",
")	c #6CBBFA",
"!	c #233D55",
"~	c #3F6E96",
"{	c #63ACE7",
"]	c #5696C8",
"^	c #528FBF",
"/	c #67B2EE",
"(	c #3A6589",
"      ",
"      ",
"      ",
"      ",
"      ",
"      ",
"   .+ ",
"   @# ",
"   $% ",
"  &*= ",
"  -;  ",
"  >,  ",
" ')!  ",
" ~{   ",
" ]^   ",
" /(   ",
"      ",
"      ",
"      ",
"      "};
