/* XPM */
static char *dummy[]={
"29 38 3 1",
". c #333333",
"a c #ff0000",
"# c #ffffff",
".............................",
".............................",
".............................",
".........#.........#.........",
"........###.......###........",
".........###.....###.........",
"..........###...###..........",
"...........###.###...........",
"............#####............",
".............###.............",
"............#####............",
"...........###.###...........",
"..........###...###..........",
".........###.....###.........",
"........###.......###........",
".........#.........#.........",
".............................",
".............................",
".............................",
"aaaaaaaaaaaaaaaaaaaaaaaaaaaaa",
"aaaaaaaaaaaaaaaaaaaaaaaaaaaaa",
"aaaaaaaaaaaaaaaaaaaaaaaaaaaaa",
"aaaaaaaaa.aaaaaaaaa.aaaaaaaaa",
"aaaaaaaa...aaaaaaa...aaaaaaaa",
"aaaaaaaaa...aaaaa...aaaaaaaaa",
"aaaaaaaaaa...aaa...aaaaaaaaaa",
"aaaaaaaaaaa...a...aaaaaaaaaaa",
"aaaaaaaaaaaa.....aaaaaaaaaaaa",
"aaaaaaaaaaaaa...aaaaaaaaaaaaa",
"aaaaaaaaaaaa.....aaaaaaaaaaaa",
"aaaaaaaaaaa...a...aaaaaaaaaaa",
"aaaaaaaaaa...aaa...aaaaaaaaaa",
"aaaaaaaaa...aaaaa...aaaaaaaaa",
"aaaaaaaa...aaaaaaa...aaaaaaaa",
"aaaaaaaaa.aaaaaaaaa.aaaaaaaaa",
"aaaaaaaaaaaaaaaaaaaaaaaaaaaaa",
"aaaaaaaaaaaaaaaaaaaaaaaaaaaaa",
"aaaaaaaaaaaaaaaaaaaaaaaaaaaaa"};
